/* XPM */
static char * explosion_xpm[] = {
"103 258 54 1",
" 	c #00FFFF",
".	c #131313",
"+	c #1B1B1B",
"@	c #2F2F2F",
"#	c #373737",
"$	c #0B0B0B",
"%	c #670000",
"&	c #8B0000",
"*	c #7F0000",
"=	c #670B0B",
"-	c #B30000",
";	c #A70000",
">	c #9B0000",
",	c #D70000",
"'	c #730000",
")	c #BF0000",
"!	c #5B0000",
"~	c #872300",
"{	c #430000",
"]	c #C34F00",
"^	c #CB5707",
"/	c #932F00",
"(	c #F37317",
"_	c #FF7F1B",
":	c #FFB37B",
"<	c #FFA35B",
"[	c #FF8F3B",
"}	c #DF670F",
"|	c #FFC79B",
"1	c #FFEBDB",
"2	c #D75F0B",
"3	c #CB0000",
"4	c #EB6F0F",
"5	c #E30000",
"6	c #B74700",
"7	c #AF4300",
"8	c #4F0000",
"9	c #9F3700",
"0	c #EF0000",
"a	c #A73F00",
"b	c #771717",
"c	c #470000",
"d	c #332B13",
"e	c #1F170B",
"f	c #FFD7BB",
"g	c #FFFFFF",
"h	c #FFFF8F",
"i	c #FFFF47",
"j	c #FFFFB3",
"k	c #530707",
"l	c #2B230F",
"m	c #3F2F17",
"n	c #FF1F1F",
"o	c #FF0000",
"                                                                                                       ",
"                                                                                                       ",
"                                                                                                       ",
"                                                                                                       ",
"                                                                                                       ",
"                                                                                                       ",
"                                                                                                       ",
"                                                                                                       ",
"                                                                                                       ",
"                                                                                                       ",
"                                                                                                       ",
"                                                                                                       ",
"                                                                                                       ",
"                                                                                                       ",
"                                                 .+@#+.$                                               ",
"                                              %%&&&&&&%%$                                              ",
"                                           %&&&&&&*==--;&%$                                            ",
"                                          *>-,;&***''-))-&%$                                           ",
"                                         !;),)>**~~;;;-))->'                                           ",
"                                      {!%~>-;&>>-))]^^^^,--;&'%!{                                      ",
"                                     {'*&&;>**/-)](_:<[((^,);>&&!{                                     ",
"                                 %%!!&>~~&>&!%~-]}_|1:<[(2^]]}}]*!{                                    ",
"                               >>/&-33)---3333-^^}([42];--)3^(:}]'!                                    ",
"                            ->;/>;-33333,5555,66^2}}]&*%%*-33]^}7'!  {{{{{                             ",
"                           &*&/>--)3)-,,^222^,,,5,)));>**;)3)~*&&%!8!%'''!{                            ",
"                        {{{!!%/;---9~35}<_^05,,,,,,,3);;;)333-~%{!~%*>-;&*'{                           ",
"                       **'%{{%&;>&~~),}<_}5]44]332}2,,,,,662}6>'>>~9>;;;;;;*%!!~a                      ",
"                     *->>%!{!'&>&&>;36}_}032[[2324<[}0024426^}6%>-;~*&&*&>>>;&&{~a                     ",
"                    b--;'!{{%'**&>;3,6^}05-]}22^2}[[}44([[426^6*!*-&%&&%!'*;3)-'!~                     ",
"                    >)->!{{%*%!8&>/,566,);>;2442^}_}24((424((^2;&*&&~>>>''%~;]2->'~                    ",
"                    *;;*!!%~%%!*>>30563-&*;]4[[4^^^22]77^^^4^6^66;&&&>77>*'~~;]2~&{~                   ",
"                    %&%!'~~%{!';-6305])>**3]244222((}}}]]2(4}66}4]6>'>-]27&'&>-])~{~                   ",
"                    c!%*~//~!*&6];370,;*&>]]]}}}}}_[[__[}4[<<}]2[[[26&;](<]%'~>33~%{                   ",
"                   /!%&///93))2^-77]5,3]2]]244__[<<<<[[[[_([<[}}(::<26-]2(]&%!';--%{                   ",
"                   d%&~/;-)324^3-]7,,]4[]64}__[<<<::<:<[[[_(_[4]_}:|[^73]^];'%%>;>!{                   ",
"                  de&>/>/-)4[(]->433][<43}((_<<<:|:::f:::<[_(4}64^4[<}63,3}^a;%&&&!{                   ",
"                 e{%-->&>-][:(336^33(<[];2_}_[:|:::f::|f|::_[(4^^)34_}^3)-^_}6;!&&%{{                  ",
"                 {!&-;&'>-2:[^362265(:2;&2}__:|:|ff1gg:1f::<[[_}6-67^^]7);74<47'>>'{{{                 ",
"                 !%/->!%/-2[4)-}(2]04[]&7(_<:<|f|11h111f|ff:<[(4^-76)62]7;>^<:(a;-*{{{                 ",
"                {%&>>*%%>-](2--]}]634(]&2(<:<|ffffgggi1f1g1|<[[_2676)7647->;<|[]-]&%{{                 ",
"                {&--'8!%>-346--)]6;9]2]]}(<<<fg11gggjfffggf:<<(_}]}^7-7^27--4<<2-2-&!{{{               ",
"                {&>>%{!!>-3]3->&>-;9^22^(4[<|1f1gggggg1||f::<<[4}4[(^73^47-;]4_2~<]~%{{{               ",
"                {&--%{8%/-36))>'*&;,7}42(}([|ff11ggggggfff1|<[[_4[<[463^(,->;]}]>27~%{{{{              ",
"                {&--*8%*-;-3));!!!&37}_42^}[<||ff1gggggg1fff<[(_(<|<(^]2}7-&'7]7'7~~!{'k{              ",
"                {&;-*%*&-/>-))-%!%*)74_4^2}[<||f1gg1gg11|||f<[[([:f<_^^227-&{&7-%~&%{8'8{              ",
"                {*>-'*>>-->&;-)%'**-a}(}]}([<f|fggff1gff11|:[((_<|:[[22}6,->{%-;***%{/*!{              ",
"                {'&>%&->;->&&;)*>/';a]}}7]2([<:gfggff11gg1f<[__[::[_[42^63--'%;&*%'{{9/%{              ",
"                {{%*%*&&>6-*&&>)/6/&/7^}^62(([<<:|fg|f1ggf:[_(_<<[_[<442]3--'c&>*!!**6a%{              ",
"                 {!'!%'*>7-&**&;96a&~/9^^672([_[<:f|ff1f|<[(([<[(([<[4}],3->'%!;*%{*9]6'%              ",
"                 {!%!8!%>26&%%%>6]2a*~/96772}(_<|[<:f||<<[_([[42}}([(665,,-&&*'&*%8']26'8              ",
"                 l8'!{{!>7];*!{'62(6~%~~9/7222}[<<:<::[_(4}242]]^}}}6333,0-63-&;-'!{9]a%e              ",
"                  8'%{{!>-7-&!{%92[}6~%&>-]}_4424[<[<<_}}22^,02((^66a-)35,62^->-]>{{'6/8l              ",
"                  {*'c{8&;-7&%{8~6}(}]6a/-;^[_4224(___}^^^25024(]a9&&>;5,)2<^-&)2;{{*/%{               ",
"                  {'*'88'&>>&'{8'~966a/;-);6([_4^]^2}2^^]2]222]]9>*%'*>332<4->>3<>!{*>!e               ",
"                  m'>>*'8!%&>>&8%%%''*&)]0,-^([_}^666]]62]]]]66a--'!'*>-^(2->&-]2~''&;e                ",
"                    >;>*8{!&>3-*%%%{c%>-24],)^}}((}22]]6^2244^//>&'%>&&^^6;>>;]7-9'*&>e                ",
"                    **&*!c{'>),>'**{{!>-]_[4276]]]]]]2}4([<<_}6;>>>>;&*&&&*>>77-~~&>-&{                ",
"                    ''%!8cc{!>)-)->&%!'*>-7^}^]050,^}_[::|:|[47)>>>>%%'!%*&;--~%{*-5;&                 ",
"                    ;>&'!8!%{&-,3,)-&**&>>>>---),55^^}[<|:::[27;**%&!!~%&>;;;>&!'*3->{                 ",
"                       b--;'{{{%>),,);*>&-))->>--333^^}_[<<[(]73-;*!*~a/&&%!'*;3)-'!~                  ",
"                       {*->>%!{!'&>&&>;&-3333)---,3333n}}}4(2733-&%>-6]9&&97779;&&{                    ",
"                        {***'%{{%&;>&~~--^^]^]2442^6)3,5,6]]73337>'>>a9>96((^9*%!!                     ",
"                           {{{!{{/{6669~-5^}4_<<<_^6,,,3);;-)33]6~%{~~%*>9^^9'{                        ",
"                              &*{{{-644^-,,0^([<_46,,,3);>-77)]24*&&%!8!%'''!{                         ",
"                              *->;/>;6^^^33,5^^^^,,,,3-;&-]]7-]^]-->'!  {{{{{                          ",
"                               ;->>>/&-33)---3333,,,3)>>-]44])35,,3>'!                                 ",
"                                  !%%%!!&>~~&>&!%~-3_}]52}[[2o5,)--*!{                                 ",
"                                        {'*&&;>**/-)}^0oo^}25,);>&&!{                                  ",
"                                         {!%~>-;&~~-))33333---;&'%!{                                   ",
"                                            !;),)>**~~**;-))->'                                        ",
"                                             *>-,;&***''-))-&%$                                        ",
"                                              %&&&&&&*==--;&%$                                         ",
"                                                 %%&&&&&&%%$                                           ",
"                                                    .+@#+.$                                            ",
"                                                                                                       ",
"                                                                                                       ",
"                                                                                                       ",
"                                                                                                       ",
"                                                                                                       ",
"                                                                                                       ",
"                                                                                                       ",
"                                                                                                       ",
"                                                                                                       ",
"                                                                                                       ",
"                                                                                                       ",
"                                                                                                       ",
"                                                                                                       ",
"                                                                                                       ",
"                                                                                                       ",
"                                                                                                       ",
"                                                                                                       ",
"                                                                                                       ",
"                                                                                                       ",
"                                                                                                       ",
"                                          {%%%{{{{                                                     ",
"                                {%%{   {%%%{  c8%%%%%%{{{                                              ",
"                                {{{  {{%%{  {{&&**'%{!%{     { {{{{                                    ",
"                                   {{{{  {{c8%%%&;-;&%!%!{{{{{     {{{                                 ",
"                                     {    {{{c88*>;>>&!%!{{{{{{{{   {{{{                               ",
"                            {{{{{{{{{{{{{{{{c!!!!8%%%'*%8{{    {{{{{{{8!{{                             ",
"                          {{{!{{!%%%%!{c!%%!!%''%!88!%**%%%{{     {{   {%!                             ",
"                         {'''%%'>;;>;''****'%%*&&*!{{{&&&**&&%%{{{{{{{  %%{                            ",
"                        {!>'%'*&-;>>&%%&*'%8{!%*&**!88%&&'%*&*%{{! {  {{8%{ {{{                        ",
"                    {{  {!'''*&&;&&*%%%''%!c{{!%**!!!!!!%%!%*&*{{{{!{{  {8{{ { {                       ",
"                 {{'&%!8c {!'*&>>;;>&**>>&*''!%&88!{{8{{8c88!!!8{c{{ {{{ {{!{ {{{ {                    ",
"                 {8*&!!! {'!!%>;**&&>>;;;>>&&%**%!!!!!!!!{{{{8!88{8{{{{{{ {8%!%!{{{                    ",
"                {8%{ 8&%888 {!%%!*>;;)333-;;>>>>>>;;;>*****'%!c8%'%8{8!!{{{{*'%c!%8{                   ",
"                {!'{ 8'%!8  8!!{'*>>;)3333)-;;;;;-))--&*&>;>&'%%**'%{c!'%8{{%!{  { {{                  ",
"               {c {{{%%%{{{{c8 c'***>)333,,,333)33-;>&**&;--)-&&';&*!8{{!c88!8{{{  {{{                 ",
"               {{ {{%>&% {8{  c8'*'*>-33,,,,,,,333;>**'&&>>>-;;-&&&&%8{{cc8%''%{c{  {{{                ",
"               {{ {{**%!!!{{{8%'&&*&>;-33,,,,,333);>'%%%%!8%%'**'&>)*%{88c{!**&&'!8  {{                ",
"               {{ {{%%8!88c{8!'&&&&>;;;-)3,,33)))-;>'*%!!8888%%'%*&>'!c8!8{{'&&>&*'{{{{                ",
"                {8 8!8{!{{!!!!&>*&>;;&**>-))-;>>**''%'%*'%%%!{!%%**&*%8{%%{{8%*>>>>'8{                 ",
"                  888{{!{!''!!&>&&>;>''*&;;;>&***'%!8!*;;%%*'c{{%*'**%8{%'8{{8'&>>;&%{                 ",
"                 8888{88!%**!!*&&&>;>'''';;>&****'!8cc%''%%*;!8{c%'*'%8{%*%{{{!&&>;>'{{                ",
"            8  88 8{ 8!!'*>*!!%%'&>*'!!'*>>***>>>>!8!!!!!{8!%'%!!!!**%8{!**{{{{%&>>>'8{ {              ",
"           8  88888  8!!*&&*!!%!'*&'%c!'*>&**&;>*'c!**''!8{8!&&&**'!%%!{8%%{ {{8'&>&'8{{{{             ",
"          8 88 !888 8!%'***'!cc!'*'%!cc'*>&*>;>*cc88!!!!!!8{{8'&&&&%{88{8!!{{{ {8*''%8{{{{             ",
"          88  8'!8c{!*>*&&*'888!**'!8cc'*>>>;;*'{!!{{{!{{88{{c8*&'&*{cc{{88  {{ {'*'!8{{{{             ",
"          8'* 8&'!c{'&&&--&*!!!!**'!%''''*&>*'%*'&**--'%c{{{{{{{88*&!{{{{c{cc  {{%'''%8 { {{           ",
"          8%' 8%%%8!*&&>))&*%%!'**'%%**'''*'%!!%%!'>--&!cc{{{{{{{{!&!{{{{{{c8  8 8%'*%8{  {{           ",
"           88!88%&''*&>-))>&&%'**'''*>&!!''c{{ { c8%''{{{{{{ {{  {{!8{cc{{{{    888%&*%8{  {{          ",
"            888 %>*'*&>-))>&*8'**'!'*>*c!%%{{{{{ {cc88{{ { {  {  {{8{{{c{{{{    888%*&'!{{ {{          ",
"              8 c&>''&>-)-&*'%%*>''****'!88cc     {{{{{{{{ {{      {{!%!{{{     888!'&*!!{  {          ",
"          8   888&>''&-))-*%%%%*>******'!{c88{    {{{ {  {{ {{     {!%'%{{{ {    88{%*'%!{  {          ",
"           8 {888&&%%&-))-*!%!'&>&****&*'!888c    {{{        {      !%*'{8{ { 8  {88!%''!{  {          ",
"           8 8{88'*%%*>-)-**%!'*;;>>;;;**''%{     {{{{       {      !'**{%%8% {8 {8%88!&'8{ {          ",
"        8 888{8{8%'%%'&-)-*&%!%';->>;;;&*'*%{    {%'{{       {{{    %**'{%'!%*{8 8!'%{!*'!{ {          ",
"        88888 {88c!!8!'&>&**%!**>;;;-;;>&*&*{{  {{&&'c {{     {{ {{8**'%%**'%&&'!!'&'{{%%!{{{          ",
"         888! 8 !c8888%*&**'88**&>;-)-;>&*&*8{  {{&&&'8 {      { {8!**'%%**%'&>&%!*>'{!%!8{ {{         ",
"         8 8!%%8  {c{88%**'%8{%**&>-))-;>*&>'{ {{{'&&&%{{        {!'**'!*&'%&;-;>'&&'{!{{{  {{         ",
"           88&&88    {8!**'%8c%***&;-)-;>*&>'{{  {8%'>8{{        c!'*&%%*&%%>;)-;&>&'{!{{{  {{         ",
"            8'&%8%{  c88*>'*%c8%*&*&>;;;;&&>*!{  {{{{{{     {   {!'**'%%''%*>;)-;>>'8c{{ {{  {         ",
"          8  %''%%>  c!!%*'%!{8!&&&>>>>>>**>&%{  {{{{{{{{       {%*&*'%%%%*>>>;;;>&'8cc8 {{            ",
"         8 888888 *{ !%%!!!!8{{8!'*>>*'''%%>>*88  {{{          {{%'*'%!!!%>;>&&&&*'%''8{8{{{ {         ",
"         8 88  {88%{{%''!!'%c{  8!'**'%!!8!&>>!8   {{{{{{      {{{'*'%8{%';;&*'''*%8%'!{8{{{{{         ",
"            8  {{88{ %**%!%*c{  {c!''%!cccc*&>%%    {{           !''%!{8%*;)&%!%**!{!''{{ {{{{         ",
"             88{{  %{%**%!c%!c{   {{ {{   c8%%!{88  {8{{{{{    {{%*!88%%&>;;%c{!*&'c8&&{{{ {{          ",
"             {{{{{ {{%*&'!!c!c{    {  {  c 8{888%%888%{{{{     {{8%8!%&&>-;;%8{8'*'8{&&{{{ {{{{{       ",
"              {{ {{{{%*&**8{ccc{     {{  {888{c {%%!8%%8{{{{{{{c!{!'>;)))3->!c{!'>&%8''c{{  {{{        ",
"              {{{ { {'*>>>%8ccc{     {!{  8!%!{ c8'88%*%!{{{{{{%''&;)303;;);%8c'*;;*!!%c{{ {{{         ",
"               { {{{{!'*>>*%{c {!'!{{8*88{{%''!{    8%&&&%%88%';;--3,,3,&'>>!{8*&--*%{{ 88c{{{         ",
"              {  {{8{8'&&&*'8c  !!!cc8%'!{ 8%%%{    8!*&&'%%%*&,-;;;;),3*!&'88'*>;-*%{   8cc{{         ",
"              {{{c8'''*&&&''88{ cc!&%!8!''''%%88      {8 %%*&**%%''*-;;>'%!!'*&&>;;%8{   {!%!! {       ",
"              8{{c!***&>&&'!88 { cc%%%'&&&&&*%88  c {{88{!%%%%%%%'*>>>&;'%!!*&*>>;>!8{   {%%!%{{       ",
"              888**&*&&&***'!!%8{88cc%'&&&&>&*8{  {{!%*%'*&%%{{!!''%!!%%!!'*****&&*8{   {{**%%{{       ",
"                8**88&&&****'!!!!!!{c%'&&&&&&*88{{ !%%*'&*%%{88888cccc!c8%***''*&*'8{ 8  8*&%%{{       ",
"                88888*&&****''!!!!!88!'&&&&*''%%!88!!%%''!{8!%%88{{{{{{{!'*'''%'&*'8{   {c*>%8{{       ",
"                  88*8*'!!**!!!   888{{'''!888%'**''%%!%%%%'''%8{{{c%%cc%'%!!'>&*%8{88{c8!%*{{         ",
"                   888**8!''!!!!8  8{{{{!88{{88%****''***&***%%88{{{%*8c!%88'>;&'!8{{888cc88 {         ",
"                     8 8888!!!8{8 {  {{{{{{{{{{{88!%***&&**%!!!!!8{{{8888%>&--;*'8{ { 88888            ",
"                      88888888888  { {{{{{{{{{{{{8%%%%***'%%!!!!!!{{88{8!'>>->*%!8{   88               ",
"                        888 8 {888  {{{8{{{{{{{{8!%%'%%%!!!%%%%'!!!!88{8'>>>!{888{{8  88               ",
"                        88888 88  8 {{!**%{{{{{{{{{%%%%!8!%%%'''%!%!88{{'&*%{c88{ 888888               ",
"                         8888{88  88 {8*&&%%c{{{{88!%''''%'*&&***''%{{!!!!{{{{  {888                   ",
"                         8  88{    { {{{!%!ccc8888!!**&&&****&&&&*'!8{!!8{{{{   88                     ",
"                          88{8{{ { {{{{{{88{{{{{8!!!*&&>>>>;---->'!8%'!8{{88   88                      ",
"                           8888{{{ {{ {88!!{c{{{88!!'&&>>;-----;&%88'&'!{888 {88                       ",
"                           88888{{ {{{888%'8%8{{{{88%''&&;;;;--&'8{8'**'{{8888{                        ",
"                            {8888{{!%8 8888%%888!!!''!!!%'''%%%888!!'!!8{{                             ",
"                             88888888888888%888''****'8888!!88888!!!!8{{                               ",
"                                 %8%%%8%%%%8888!!!!'!8{{{{{{{{88!!88{8                                 ",
"                                 %%88%88%88%%8888888888888!8%888!8{88                                  ",
"                                  %%%%%%%%%   %%'''''''88888%%&&&&&8                                   ",
"                                      %%       88%%%%%%'''''''%'''                                     ",
"                                                         888%%                                         ",
"                                                                                                       ",
"                                                                                                       ",
"                                                                                                       ",
"                                                                                                       ",
"                                                                                                       ",
"                                                                                                       ",
"                                          {                                                            ",
"                                          {{                                                           ",
"                                          {{                                                           ",
"                    {                      !{                                                          ",
"                                          !!{                                                          ",
"                    {                         {{{                                                      ",
"                          {                    {{     {{                                               ",
"                 {{{                             {     {{                                              ",
"                  {!                            {{  {  {{  {{{{                                        ",
"              {{    {  {{  {{         {{{         {{     {{888!8{{{                                    ",
"              {{{ {!!{ {{      {{{           {{{{{{{{{      {8!!!!!{                                   ",
"              {{ {8%8{ {{    {{%8{{           {{  {{{   {{  {{8!!!!{{      {                           ",
"                  {8       {{!%8{        {                 {{{{8{{{{                                   ",
"                  {8  {    {{88{   {{{{  {             {{{{{{{{{{{     {{                              ",
"        {        {{{ {  {{88{{ {{{{8!%8{{               {{{{   {{  {{{                                 ",
"                {{ {    8!%!{  {888%%%!{{    {{            {{   {  {{{                                 ",
"                 {{ {{{ {88888{{{{ !%%8{      {{  {         {{{          {{      {{                    ",
"        {        {{ {8{  {8!!8{  {{8!!{{{   {                 {       {        {     {{                ",
"             {      8!{  8!%%8{  {{{{{                      { { {                    {{{               ",
"                    !8{ {!%%!{{                {{                  {{                {8!8{             ",
"                    8{   !%!!{    {           {{                    {                 8!8{             ",
"             {     {{{ {{!!!{ {{  {      {                           {                {{8{             ",
"           {{      {    {8!{ {{  {    {{                                               {8{             ",
"       {{           {{{{{{{      {{{{                                   {               {{{            ",
"       {{    {      {{{{ {{     {{{{                                              {                    ",
"      {{{           {{          {{{{                                                       {           ",
"     {!!{  {{       {  {                                                             {        {        ",
"     {!!{  {{  {       {       {{{                                                {                    ",
"    {{!!{  {                {{ {{                                                 {       {            ",
"  { {{88{{{  {     {        {{ {                                                   {{{{{  {{           ",
"    {8!!!{{     {  {   {{                                                             {!{              ",
"     {!%!{{           {{                                                     {         {{ {  {         ",
"     {8!!{     { {    {{       {                                                       {{  {  {{       ",
"      {{{{  { {         {                                                               {    {{{       ",
"      {{ {          {  {                                                                      {{{      ",
"     {       {{    {{ {{    {                                                                 {!!{     ",
"     {    {  {{    { {{{   {                                                             {{   {!!{     ",
"{{  {    {{{     {{ {{ {                                                                      {!!{{    ",
"{  {{{   {{{     {{ { {{                                                                    {{{88{{ {  ",
"   {{{   { {   { {{   {   {                                                                 {{!!!8{    ",
"   {{{   {{   {{{8{{                                                                         {!%!{     ",
"   {{{    {{  {{88{{      {                                                                   !!8{     ",
"    {{{       {{8!8{                                                                     {    {{{      ",
"     {     {{  {{!!8{                                                                     {    {{      ",
"          {{{{  {!!8{  {                                                                  {{     {     ",
"          {88{  {8!8{ {{                                                                  {{{    {     ",
"          {8!{8888!8  {{                                                                    {{    {  {{",
"         {{8!!!!8888                                                              {         {{   {{{  {",
"         {{8!!!!88!!{   {                                                        {{     {{  {{   {{{   ",
"         {{8!88888!!{{{                                                       {         {{  {{   {{{   ",
"    {8{{ {{{{!8{{{{{ {{{                                                        {{      {   {    {{{   ",
"    8!8{{ {{{{8{{  {  {{                                                        {{              {{{    ",
"    8!!{{{{{8{!8{{  {      {                                                 { {8{       {       {     ",
"   {8!!{ {{!!{!8{   {                                                          {8        {             ",
"    8!!{ {{8!{ {8{    {                                                       {{{       {{             ",
"    {88{  {8{{ {{{                                                             {    {{{ {{  {          ",
"    {88{ {  {    {{                                                                 {8{ {{  {{         ",
"     {88{         { {{                                                              {{  {{{{{{         ",
"     {{!{    {    {{{8 {                                                           {{   {{8{{{         ",
"  {   {8{{{       {{8!{                                                         { {{{   {8!8{{ {{8{    ",
"       {{{{   {{    {{{{  {                                                   {   {8{  {{!!8{ {{8!8    ",
"   {   {{{{    {{{    {{  {                                                       {!!{{ {!!8{{{{!!8    ",
"        {{{    {{{{         {                                                     {!8{{ {!!8{{ {!!8{   ",
"    {   {88{{{{{8!                                                              { {{8{  {88{{{ {!!8    ",
"    {{   {8{ {{{88{                                                                {    {88{{  {88{    ",
"    {{ {{{8{{  {{8{                                                          {         {88{  { {88{    ",
"    {8{{{{{{{   {{  {   {{                                                8{{{    {    {!{{   {88{     ",
"     8!!{            {  {{{                                              {!8{{        {{8{   {{!{{     ",
"     {8!8{           {  {                                            {  {{{{    {{    {{{   {{{8{   {  ",
"     {{88{{   {        {{{  {                                        {  {{     {{    {{{{   {{{{       ",
"      {{{{{   {{ {{{    {8{  {{{{{                                 {         {{{{    {{{    {{{{   {   ",
"      {{ {{    {  {{{   {8{{ {{{{{{                                           !8{{{{{88{   {{{{        ",
"               {       { {!{{{8!8{{{{ {                                      {88{{{ {8{   {{88{   {    ",
" {    { {{  {{           {{{{88!!!!8{                                        {8{{  {{8{{{ {{8{   {{    ",
"  {{  {{ {{{{{{       {{{    {{{{{{{{{{                                    {  {{   {{{{{{{8{           ",
"   {  {{  {{ {{       {{{{   8!{8{{   {{          {{                      {            {!!8            ",
"     { {{{{{  {        {{{   {8{!8{{   {{{{       {{ {{{               {  {           {8!8{            ",
"        {{{{{{ {{         {    {{{{{{{{{{{{{         {{{{ {        {  {{{        {   {{88{{            ",
"            {{{ {{             {{{{8{{{{         {{{          {{{{{  {8{    {{{ {{   {{{{{             ",
"              {{{  {{          {!!!!8{{  {{      {{{         {{{8{{ {{8{   {{{       {{ {{             ",
"                {{{  {{{       {!!!!!8{                     {{{8!8{{{!{ {                              ",
"                        {{      {{{8!888{{              {{ {8!!!!88{{{{           {{  {{               ",
"                           {        {{{{  {{           {{{{ {{{{{{{    {{{       {{{{{{                ",
"                                          {{                 {{8!!8   {{{{       {{ {{                 ",
"                                           {                {{8!!8{   {{{        {                     ",
"                                                              {{{    {                                 "};
