/* XPM */
static char * player_shotgun_xpm[] = {
"233 1296 122 2",
"  	c #0FFFFF",
". 	c #3B3B3B",
"+ 	c #636363",
"@ 	c #575757",
"# 	c #474747",
"$ 	c #1B1B1B",
"% 	c #2F2F2F",
"& 	c #373737",
"* 	c #4F4F4F",
"= 	c #434343",
"- 	c #000000",
"; 	c #131313",
"> 	c #232323",
", 	c #170F07",
"' 	c #5B5B5B",
") 	c #2B230F",
"! 	c #332B13",
"~ 	c #0B0B0B",
"{ 	c #1F170B",
"] 	c #272727",
"^ 	c #7F532F",
"/ 	c #6F6F6F",
"( 	c #4F3B23",
"_ 	c #43331B",
": 	c #6B6B6B",
"< 	c #7F7F7F",
"[ 	c #939393",
"} 	c #070707",
"| 	c #171F07",
"1 	c #3F2F17",
"2 	c #777777",
"3 	c #B3B3B3",
"4 	c #D3D3D3",
"5 	c #979797",
"6 	c #8B8B8B",
"7 	c #2F1B0B",
"8 	c #838383",
"9 	c #372313",
"0 	c #432F1B",
"a 	c #A7A7A7",
"b 	c #C7C7C7",
"c 	c #8B735B",
"d 	c #5F4B37",
"e 	c #836B57",
"f 	c #67533F",
"g 	c #775F4B",
"h 	c #574333",
"i 	c #5F4323",
"j 	c #774F2B",
"k 	c #533F1F",
"l 	c #875733",
"m 	c #9B633B",
"n 	c #8F5F37",
"o 	c #ABABAB",
"p 	c #6B4727",
"q 	c #4B371B",
"r 	c #AB6F43",
"s 	c #BF7B4B",
"t 	c #B37347",
"u 	c #533F2F",
"v 	c #CF8353",
"w 	c #CB7F4F",
"x 	c #DF9363",
"y 	c #7B7F63",
"z 	c #5B472B",
"A 	c #675333",
"B 	c #A36B3F",
"C 	c #D78B5B",
"D 	c #9F9F9F",
"E 	c #E79B6B",
"F 	c #F7AB7B",
"G 	c #EFA373",
"H 	c #FFB383",
"I 	c #0B1707",
"J 	c #BFBFBF",
"K 	c #CBCBCB",
"L 	c #DBDBDB",
"M 	c #E7E7E7",
"N 	c #EFEFEF",
"O 	c #473323",
"P 	c #3F2B1B",
"Q 	c #FFFFFF",
"R 	c #4B4B4B",
"S 	c #DFDFDF",
"T 	c #6F5743",
"U 	c #FFBB93",
"V 	c #FFD3BB",
"W 	c #FFCFB3",
"X 	c #FFBF9B",
"Y 	c #FFC7A7",
"Z 	c #7B634F",
"` 	c #937B63",
" .	c #9F876F",
"..	c #9B7F6B",
"+.	c #A78F77",
"@.	c #B79F87",
"#.	c #B7B7B7",
"$.	c #A70000",
"%.	c #430000",
"&.	c #9B0000",
"*.	c #7F0000",
"=.	c #730000",
"-.	c #8B0000",
";.	c #B30000",
">.	c #BF0000",
",.	c #670000",
"'.	c #5B0000",
").	c #775F3F",
"!.	c #4F0000",
"~.	c #CB0000",
"{.	c #874307",
"].	c #FF5F5F",
"^.	c #EF0000",
"/.	c #FF7B7B",
"(.	c #FF0000",
"_.	c #FF1F1F",
":.	c #D70000",
"<.	c #E30000",
"[.	c #4F3B27",
"}.	c #FFC79B",
"|.	c #4F3B2B",
"1.	c #2F371F",
"                                                                                                                                                                                                                                                                                                                                                                                                                                                                                  ",
"                                                                                                                                                                                                                                                                                                                                                                                                                                                                                  ",
"                                                                                                                                                                                                                                                                                                                                                                                                                                                                                  ",
"                                                                                                                                                                                                                                                                                                                                                                                                                                                                                  ",
"                                                                                                                                                                                                                                                                                                                                                                                                                                                                                  ",
"                                                                                                                                                                                                                                                                                                                                                                                                                                                                                  ",
"                                                                                                                                                                                                                                                                                                                                                                                                                                                                                  ",
"                                                                                                                                                                                                                                                                                                                                                                                                                                                                                  ",
"                                                                                                                                                                                                                                                                                                                                                                                                                                                                                  ",
"                                                                                                                                                                                                                                                                                                                                                                                                                                                                                  ",
"                                                                                                                                                                                                                                                                                                                                                                                                                                                                                  ",
"                                                                                                                                                                                                                                                                                                                                                                                                                                                                                  ",
"                                                                                                                                                                                                                                                                                                                                                                                                                                                                                  ",
"                                                                                                                                                                                                                                                                                                                                                                                                                                                                                  ",
"                                                                                                                                                                                                                                                                                                                                                                                                                                                                                  ",
"                                                                                                                                                                                                                                                                                                                                                                                                                                                                                  ",
"                                                                                                                                                                                                                                                                                                                                                                                                                                                                                  ",
"                                                                                                                                                                                                                                                                                                                                                                                                                                                                                  ",
"                                                                                                                                                                                                                                                                                                                                                                                                                                                                                  ",
"                                                                                                                                                                                                                                                                                                                                                                                                                                                                                  ",
"                                                                                                                                                                                                                                                                                                                                                                                                                                                                                  ",
"                                                                                                                                                                                                                                                                                                                                                                                                                                                                                  ",
"                                                                                                                                                                                                                                                                                                                                                                                                                                                                                  ",
"                                                                                                                                                                                                                                                                                                                                                                                                                                                                                  ",
"                                                                                                                                                                                                                                                                                                                                                                                                                                                                                  ",
"                                                                                                                                                                                                                                                                                                                                                                                                                                                                                  ",
"                                                                                                                                                                                                                                                                                                                                                                                                                                                                                  ",
"                                                                                                                                                                                                                                                                                                                                                                                                                                                                                  ",
"                                                                                                                                                                                                                                                                                                                                                                                                                                                                                  ",
"                                                                                                                                                                                                                                                                                                                                                                                                                                                                                  ",
"                                                                                                                                                                                                                                                                                                                                                                                                                                                                                  ",
"                                                                                                                                                                                                                                                                                                                                                                                                                                                                                  ",
"                                                                                                                                                                                                                                                                                                                                                                                                                                                                                  ",
"                                                                                                                                                                                                                                                                                                                                                                                                                                                                                  ",
"                                                                                                                                                                                                                                                                                                                                                                                                                                                                                  ",
"                                                                                                                                                                                                                                                                                                                                                                                                                                                                                  ",
"                                                                                                                                                                                                                                                                                                                                                                                                                                                                                  ",
"                                                                                                                                                                                                                                                                                                                                                                                                                                                                                  ",
"                                                                                                                                                                                                                                                                                                                                                                                                                                                                                  ",
"                                                                                                                                                                                                                                                                                                                                                                                                                                                                                  ",
"                                                                                                                                                                                                                                                                                                                                                                                                                                                                                  ",
"                                                                                                                                                                                                                                                                                                                                                                                                                                                                                  ",
"                                                                                                                                                                                                                                                                                                                                                                                                                                                                                  ",
"                                                                                                                                                                                                                                                                                                                                                                                                                                                                                  ",
"                                                                                                                                                                                                                                                                                                                                                                                                                                                                                  ",
"                                                                                                                                                                                                                                                                                                                                                                                                                                                                                  ",
"                                                                                                                                                                                                                                                                                                                                                                                                                                                                                  ",
"                                                                                                                                                                                                                                                                                                                                                                                                                                                                                  ",
"                                                                                                                                                                                                                                                                                                                                                                                                                                                                                  ",
"                                                                                                                                                                                                                                                                                                                                                                                                                                                                                  ",
"                                                                                                                                                                                                                                                                                                                                                                                                                                                                                  ",
"                                                                                                                                                                                                                                                                                                                                                                                                                                                                                  ",
"                                                                                                                                                                                                                                                                                                                                                                                                                                                                                  ",
"                                                                                                                                                                                                                                                                                                                                                                                                                                                                                  ",
"                                                                                                                                                                                                                                                                                                                                                                                                                                                                                  ",
"                                                                                                                                                                                                                                                                                                                                                                                                                                                                                  ",
"                                                                                                                                                                                                                                                                                                                                                                                                                                                                                  ",
"                                                                                                                                                                                                                                                                                                                                                                                                                                                                                  ",
"                                                                                                                                                                                                                                                                                                                                                                                                                                                                                  ",
"                                                                                                                                                                                                                                                                                                                                                                                                                                                                                  ",
"                                                                                                                                                                                                                                                                                                                                                                                                                                                                                  ",
"                                                                                                                                                                                                                                                                                                                                                                                                                                                                                  ",
"                                                                                                                                                                                                                                                                                                                                                                                                                                                                                  ",
"                                                                                                                                                                                                                                                                                                                                                                                                                                                                                  ",
"                                                                                                                                                                                                                                                                                                                                                                                                                                                                                  ",
"                                                                                                                                                                                                                                                                                                                                                                                                                                                                                  ",
"                                                                                                                                                                                                                                                                                                                                                                                                                                                                                  ",
"                                                                                                                                                                                                                                                                                                                                                                                                                                                                                  ",
"                                                                                                                                                                                                                                                                                                                                                                                                                                                                                  ",
"                                                                                                                                                                                                                                                                                                                                                                                                                                                                                  ",
"                                                                                                                                                                                                                                                                                                                                                                                                                                                                                  ",
"                                                                                                                                                                                                                                                                                                                                                                                                                                                                                  ",
"                                                                                                                                                                                                                                                                                                                                                                                                                                                                                  ",
"                                                                                                                                                                                                                                                                                                                                                                                                                                                                                  ",
"                                                                                                                                                                                                                                                                                                                                                                                                                                                                                  ",
"                                                                                                                                                                                                                                      . +                                                                                                                                                                                                                                         ",
"                                                                                                                                                                                                                      @ # # # # # #   $ .   % % & & # * @                                                                                                                                                                                                                         ",
"                                                                                                                                                                                                                  = $ - ; $ > & . . % $ & ; , ; $ & = ' ' # =                                                                                                                                                                                                                     ",
"                                                                                                                                                                                                                = ) - - ; $ > & & & % - - ! , ; $ > . # + # . =                                                                                                                                                                                                                   ",
"                                                                                                                                                                                                              = ) ~ - - ; $ > & & & % - - ! , ; - > & = @ ' . > =                                                                                                                                                                                                                 ",
"                                                                                                                                                                                                              = ) ~ - ~ ; $ > & & & % - - ! ) ; - $ % & # + = > .                                                                                                                                                                                                                 ",
"                                                                                                                                                                                                            = ) { ~ - ~ ; $ ] & & & % - - ) ) ; - $ ] % = @ * % > =                                                                                                                                                                                                               ",
"                                                                                                                                                                                                            . ! ~ - - ~ ; $ ] & & & ] - - ) ) ; - - $ % & # # & > .                                                                                                                                                                                                               ",
"                                                                                                                                                                                                          = ) ) ~ - - ; ; > ] & & & ] - - ) ) { , - $ ] & = = . ] ; =                                                                                                                                                                                                             ",
"                                                                                                                                                                                                          = ! { ~ - ~ ; ; > ] & & & ] - - ) ) { , - $ ] % & . . % $ =                                                                                                                                                                                                             ",
"                                                                                                                                                                                                        = ) ) ~ ~ - ~ ; $ > ] & & & ] ~ ~ ) ) { , - $ ] ] % & . = > ; =                                                                                                                                                                                                           ",
"                                                                                                                                                                                                        = ! { ~ - - ~ ; $ ] ] & & & > ~ ~ ) ) { { - - $ > % & . = % $ =                                                                                                                                                                                                           ",
"                                                                                                                                                                                                      & ) ) ~ ~ - - ~ ; $ ] ] & & & > ~ ~ ) ) { { - - $ > % % & . & > ; &                                                                                                                                                                                                         ",
"                                                                                                                                                                                                      = ) { ~ ~ - ~ ; ; $ ] % & & & > ~ ~ ) ) { { - - $ > ] % & & = > $ =                                                                                                                                                                                                         ",
"                                                                                                                                                                                                    & ) ) ~ ~ ~ - ~ ; $ $ ] % % & % $ ~ ~ ) ) { { , - $ > ] % % & = & > ; &                                                                                                                                                                                                       ",
"                                                                                                                                                                                                    ) ! { ~ ~ - - ~ ; $ $ ] % % & % $ ~ ~ ) ) { { , - - $ ] % % & . * > ; &                                                                                                                                                                                                       ",
"                                                                                                                                                                                                  & ) ) ~ ; ~ - - ~ ; $ $ ] % % & % $ ~ ~ ) ) { { , - - $ ] % % % . # > $ ; &                                                                                                                                                                                                     ",
"                                                                                                                                                                                                  = ! { ~ ; ~ - ~ ~ ; $ $ ] % % % % $ ~ ~ ) ) { { , - - $ > ] % % . # & > > =                                                                                                                                                                                                     ",
"                                                                                                                                                                                                = ) ) ~ ; ; ~ - ~ ~ $ $ $ ] % % % % $ ~ ~ ) ) { { , ~ - $ $ ] % % . # * > ; > =                                                                                                                                                                                                   ",
"                                                                                                                                                                                                = ! { ~ ; ~ - - ~ ~ $ $ $ ] % % % % $ ~ ~ ) ) { { { ~ - - $ ] % % & # * > $ - =                                                                                                                                                                                                   ",
"                                                                                                                                                                                              & ) ) ~ ; $ ~ - - ~ ~ $ $ $ ] % % % % $ ~ ~ ) ) { { { ~ - - $ $ % % & . # & > - > &                                                                                                                                                                                                 ",
"                                                                                                                                                                                            ^ = ! { ~ ; ; ~ - ~ ~ ~ $ $ $ ] % % % % $ ~ ~ ) ) { { { ~ - - $ $ ] % % . # * > ; - =                                                                                                                                                                                                 ",
"                                                                                                                                                                                            & ) ) ~ ; $ ; ~ - ~ ~ ~ $ $ $ ] % % % % ; ~ ~ ) ) { { { ~ - - $ $ ] % % & = * # $ - > &                                                                                                                                                                                               ",
"                                                                                                                                                                                            & ! { ~ ; $ ~ - - ~ ~ ~ $ $ $ ] % % % % ; ~ ~ ) ) { { ) ~ - - $ $ ] % % & . * + > - - &                                                                                                                                                                                               ",
"                                                                                                                                                                                          & ) ) ~ ; $ $ ~ - - ~ ~ ~ $ $ $ ] % % % % ; ~ ~ ) ) { { ! ~ - - ; $ $ ] % % & * / # ; - $ &                                                                                                                                                                                             ",
"                                                                                                                                                                                          ( ! { ~ ; $ $ ~ - ~ ~ ~ ~ $ $ $ ] % % % % ; ~ ~ ) ) { { & ~ - - ; $ $ ] % % & = / + ] - - #                                                                                                                                                                                             ",
"                                                                                                                                                                                        _ ! ) { ; $ $ $ - - ~ ~ ~ ~ $ $ $ ] % % % % - ~ ~ ) ) { { = ~ - - ; $ $ ] % % . = : < # ] - $ %                                                                                                                                                                                           ",
"                                                                                                                                                                                        ! ) { - ~ ; ; ; - - ~ ; ~ > > ] $ ] % % % % - ~ ~ ) ! { { ' ~ - - ; $ $ ] % % . = : [ ' % > - %                                                                                                                                                                                           ",
"                                                                                                                                                                                      _ - } ~ $ > > % % & & & ] ] $ $ $ $ ] % % % % - ~ ~ ) ! ) { = ~ - - - - - - - ] % = * * = & $ - $ %                                                                                                                                                                                         ",
"                                                                                                                                                                                      ~ - } ) > % . = # * * # * # & % $ $ - $ > % % - ~ ~ ) ! ! { ) ~ - - ; ] % . # # ' + / / + * & & ; %                                                                                                                                                                                         ",
"                                                                                                                                                                                    ~ ~ | ] ] % & . = # * = = # # # @ @ # % - $ $ > - ~ ~ ! 1 ! { { ~ ~ ] % % > % . = * ' + 2 3 4 5 * . ; %                                                                                                                                                                                       ",
"                                                                                                                                                                                    ~ | > > ] % & . = # = = . . . . # * @ @ # % ] - - ~ ~ ! ! ; ; - $ ] > $ $ > % . . = * * ' / 6 3 4 / ; %                                                                                                                                                                                       ",
"                                                                                                                                                                                  ; ; 7 > > ] % & . = = . & & & & & = # = & & > $ $ - - - - - - - $ $ $ $ $ $ > % % % . = = # # ' : 8 5 ' . %                                                                                                                                                                                     ",
"                                                                                                                                                                                  - 7 7 ] > ] % & & & & & & & & & & & % % ] $ > > ] $ % % # ' 2 + % % % ] ; $ $ $ ] 9 0 % . = = = * ' / < @ .                                                                                                                                                                                     ",
"                                                                                                                                                                                - - ~ 7 9 > ] % % ] ] ] > % % % % % % ] $ $ > > > > > ] % % = # & & . . . % ] ; $ $ { { ] ] % . = = * ' + / @ ]                                                                                                                                                                                   ",
"                                                                                                                                                                                - - ~ ; 7 ] ] ] ] % % % ] > > ] ] ] $ $ $ > > > > $ $ $ $ $ $ $ % % % . = . & ] ; ; - - ; % % ] % & = * * + * #                                                                                                                                                                                   ",
"                                                                                                                                                                              - { - - ~ ; 7 ] > & # + a + & ] ; ; $ $ > > > > > > $ % ] ] ] & / ] % & & = = = & % $ - $ % . ' ' . % & = * @ * #                                                                                                                                                                                   ",
"                                                                                                                                                                              , { - - ~ ; 7 ] & & & # ' + = % ] ; $ $ > > > > > > $ $ $ $ $ $ $ ] % & & = = = & % $ - $ % # ' 2 * & & = = * # # *                                                                                                                                                                                 ",
"                                                                                                                                                                              , { - - - ; 7 9 & & % . . . % ] ; $ ] > > > > > > > $ % % > > & / % % % & . = # = & % ; $ ] # 2 b 2 = % & = = # # &                                                                                                                                                                                 ",
"                                                                                                                                                                              , ) , - - ; 7 9 & % % % ] $ $ ; $ > ] > > > > > $ $ ; ; ; ; ; ; ; $ % % & . = # = & % ; $ ] # ' 2 c * % & & & & & ]                                                                                                                                                                                 ",
"                                                                                                                                                                              , ) { - - ~ ; > % % % > ] > ; $ > ] ] ] ] ] ] ] ] ] ] ] ] ] ] ] ] ] ] & . = = # # = & ] ; $ . d e c * 1 & 1 ) ] ] $                                                                                                                                                                                 ",
"                                                                                                                                                                              , ! { , - ~ ; ; > $ > > > ; $ ] > ] ] > ] ] > > ; ; ~ ~ ~ ~ ; ; ; ; ; ; ] ] % & & . . . > ; ] . f g * ) ) ) $ $ $ ;                                                                                                                                                                                 ",
"                                                                                                                                                                              , ! ) , , ~ ; ; > $ > > ; $ > ] > ] ] > $ $ ; ; ; ; ~ ~ ~ ~ ; ; ; ; ; ; ; ; ; ] & . . . & ] ; ] . h = ) ~ ~ ; ; ; ~                                                                                                                                                                                 ",
"                                                                                                                                                                              - ! ! ) { , - ~ $ ; ; ; $ ] ] ] ] $ $ $ ; - - - - - - - } ~ ; ; ; ; ; ; ; ; ; ; ; ] & # = & ] ; > ] % ~ ~ ~ ~ ~ ~ ~                                                                                                                                                                                 ",
"                                                                                                                                                                                { 1 ! ) { { - ; $ $ $ ] ] ] $ ; - - - - - - - - - - - } ~ ; ; ; ; ; ; ; ; ; ; ; ; ] ] . # . & ] > > ; ~ ~ ~ ~ ~                                                                                                                                                                                   ",
"                                                                                                                                                                                - 1 ! ! ) { - ; $ $ ] ] ] $ - - - - - - - - - - - - - } ~ ; ; ; ; ; ; ; ; ; ; ; ; ; ; ] % . = = = & ; ~ ~ ~ ~ ~                                                                                                                                                                                   ",
"                                                                                                                                                                                  { 1 ! ) { - $ $ > ] ] ; - - - - - - - - - - - - - - } ~ ; ; ; ; ; ; ; ; ; ; ; ; ; ; ; > ] . # ' ' = ~ ~ ~ ~                                                                                                                                                                                     ",
"                                                                                                                                                                                  - 1 1 { - $ $ $ ] ] - - - - - - - - - - - - - - - - } ~ ; $ ; ; ; ; ; ; ; ; ; ; ; ; ; ; > ] . ' / < = ~ ~ ~                                                                                                                                                                                     ",
"                                                                                                                                                                                i j { { { $ $ $ $ ] ; - - - - - - - - - - - - - - - - } ~ ; $ ; ; ; ; ; $ ; ; ; ; ; ; ; ; ; > ] # / < : ~ ~                                                                                                                                                                                       ",
"                                                                                                                                                                                i i k { { $ $ ] ] ; - - - - - - - - - - - - - - - } } } ~ ; ; ; ; ; ; ; $ $ $ ; $ ; ; ; ; ; ; > ] * / / ]                                                                                                                                                                                         ",
"                                                                                                                                                                                i i l $ $ $ ] ; ; - - - - - - - - - - - - - - - - } } } ~ ; ; ; ; ; ; ; ; ; $ ; ; ; ; ; ; ; ; ; > & @ / =                                                                                                                                                                                         ",
"                                                                                                                                                                              i j m $ $ $ $ ] ; - - - - - - - - - - - - - - - - - } } } ~ ; ; ; ; ; ; ; ; ; $ ; ; $ ; $ $ ; ; ; ; > @ / #                                                                                                                                                                                         ",
"                                                                                                                                                                            i j m n $ $ $ ] ; - - - - - - - - - - - - - - - - - - } } } ~ ; ; ; ; ; ; ; ; ; ; ; ; ; ; ; $ $ ; ; ; > & @ ' %                                                                                                                                                                                       ",
"                                                                                                                                                                            i l n j $ $ $ ; - - - - - - - - - - - - - - - - - - - } ~ } ~ ; ; $ $ ; ; $ ; ; ; $ ; $ ; ; $ ; ; ; ; ; ; = ' =                                                                                                                                                                                       ",
"                                                                                                                                                                            i l j > $ $ ; - - - - - - - - - - - - - - - - - - - - } ~ } ] 2 o ; ; ; ; $ $ ; ; ; ; ; ; ; $ ; $ ; $ ; ; > ' =                                                                                                                                                                                       ",
"                                                                                                                                                                            j j i $ $ ; - - - - - - - - - - - - - - - - - - - - - } ~ ~ ~ ~ # o ; ; $ ; ; ; ; ; ; $ ; $ $ ; $ ; $ $ ; $ = =                                                                                                                                                                                       ",
"                                                                                                                                                                            p i 1 $ $ - - - - - - - - - - - - - - - - - - - - - - } ~ ~ ~ ~ ~ 2 $ $ $ $ $ $ ; ; ; ; ; ; { ; ; $ $ $ ; $ = = . i k                                                                                                                                                                                 ",
"                                                                                                                                                                            p 1 p $ ; - - - - - - - - - - - - - - - - - - - - - - } ~ ~ ~ ~ ~ ' & ; $ $ $ ; $ ; ; ; ; ; $ $ ; ; ; $ ; $ & = & ^ p k                                                                                                                                                                               ",
"                                                                                                                                                                            1 p $ $ - - - - - - - - - - - - - - - - - - - - - - - } ~ ~ ~ ~ ~ % ' $ $ $ ; $ ; ; $ $ { ; $ { $ $ $ ; ; $ > = & n ^ p k k k k i                                                                                                                                                                     ",
"                                                                                                                                                                            p l $ $ } - - - - - - - - - - - - - - - - - - - - - - } ~ ~ ; ; $ ~ ' ; $ $ $ ; $ $ $ ; ; $ ; { { { $ $ ; $ > = % j j p p p p p i k q                                                                                                                                                                 ",
"                                                                                                                                                                          q ^ m $ $ } - - - - - - - - - - - - - - - - - - - - - - } ~ ~ ; ; $ $ ' $ $ $ > $ ; ; $ ; $ $ $ $ $ ; ; $ ; $ $ & % . j j ^ l l ^ ^ p i q                                                                                                                                                               ",
"                                                                                                                                                                          p n r $ - } - - - - - - - - - - - - - - - - - - - - - - } ~ ~ ; ; $ ; = & $ $ $ $ $ $ $ $ $ $ $ $ ; $ $ $ $ $ $ > % . ^ n m n l l l l j i q                                                                                                                                                             ",
"                                                                                                                                                                        q l m s $ - } - - - - - - - - - - - - - - - - - - - - - - ~ ~ ~ ; ; $ $ % ' ; ; ; > $ $ $ $ $ $ $ $ $ ; $ ; $ $ $ > % . ^ n l ^ ^ ^ ^ ^ l ^ p i                                                                                                                                                           ",
"                                                                                                                                                                        j j t l $ - - - - - - - - - - - - - - - - - - - - - - - - } ~ ~ $ $ $ $ > ' ; ; $ $ ] $ $ $ ; $ $ $ ; $ $ $ ; ; $ > % . j j ^ j j j j j ^ l ^ p i k                                                                                                                                                       ",
"                                                                                                                                                                      u j n t q - - - - - - - - - - - - - - - - - - - - - - - - - ~ ; ~ ; $ $ > $ * ; $ ; $ > $ ; ; ; $ $ ; ; $ $ $ $ $ $ > % . q j p p p j j p j j i i p p i k                                                                                                                                                   ",
"                                                                                                                                                                    1 j n r t - - - - - - - - - - - - - - - - - - - - - - - - - - } ; ; $ > $ $ > # & ] $ > $ ] $ $ ; $ ; ; $ $ $ $ $ $ $ > ] & _ p i i i i p i i p p j j l n n l p p                                                                                                                                             ",
"                                                                                                                                                                    p j r t v - } - - - - - - - - - - - - - - - - - - - - - - - - ~ ; ; ; > > > ] . = $ > $ $ $ $ $ $ $ $ $ $ $ $ $ $ $ $ > ] & . i k k k i q k i p p p p p p ^ m m n l i i                                                                                                                                       ",
"                                                                                                                                                                  j j ^ t w v - } - - - - - - - - - - - - - - - - - - - - - - - - ~ ; ; q [ = $ ] & ' > $ > $ > $ $ > $ $ $ $ $ $ $ $ $ $ > ] & . k q q _ _ k p p j j j j p p p p j m m n l k q                                                                                                                                   ",
"                                                                                                                                                                u j n ^ s w w - - - - - - - - - - - - - - - - - - - - - - - - - - ~ ; - - - > = > & ' % > $ $ > $ ] $ $ $ $ $ $ $ ; $ $ $ > ] & . _ 1 _ k p p ^ ^ ^ ^ ^ ^ ^ ^ j p p p j l n ^ q !                                                                                                                                 ",
"                                                                                                                                                                l m m ^ w x l - - - - - - - - - - - - - - - - - - - - - - - - - - ; ; ; - - > % > & * & % > > > ] $ ] $ $ $ $ $ ; ; $ $ $ > ] & . 1 _ i p p ^ ^ ^ l l l ^ ^ ^ ^ ^ j i i p j l p 1 !                                                                                                                               ",
"                                                                                                                                                              ( p m m r x v q , , - - - - - - - - - - - - - - - - - - - , , , , , ; ; $ > > > ] $ % = = > > > > > ] ] > $ $ ; $ $ $ $ ; $ > ] & . . p p p ^ ^ l l l l l l l l l ^ j p i i i p p 1 1                                                                                                                               ",
"                                                                                                                                                            ( p l l m r w w , , - - - - - - - - - - - - - - - . = + y * - - $ , , ; ; $ > ] > > ] % . * $ y + = . & ] > $ $ ; $ $ $ $ ; ; $ > % & . i p ^ l l n l n n n n n n l l l j p k k i k q 1 !                                                                                                                             ",
"                                                                                                                                                            i j j t r r r x } - - - - - - - - - - - ] & = ' : * % ] > > ~ ~ $ , , , ; ; = / = $ > % . @ . > ] % * : ' = & ] $ $ $ $ $ ; ; $ > % & . p ^ ^ l l l n n m m m m m n n l l j p k k k q 1 !                                                                                                                             ",
"                                                                                                                                                          1 j j r r m w t x - ~ - - - - - - $ ] % & % ] ] { { { { { ) 1 ~ ~ $ - - ~ ; - - - % = ] % & + . ) { { { { { ] ] % & % ] $ $ $ ; $ > % & . ^ ^ l n l n m m m m m m m m n n l l j i q q 1 1 !                                                                                                                             ",
"                                                                                                                                                          u j r t m m s w v - - - - $ $ ] % & % ] $ $ ) ! _ _ ( ( ( ( ( ~ $ - - - ~ ; ; - - > % ] $ & 2 = ( ( ( ( _ _ ! ) $ $ ] % & % ] $ $ > % & . ^ ^ n l l n m m m m m m m m m n n l ^ i q 1 ! ! ! !                                                                                                                           ",
"                                                                                                                                                        1 q s s t r n t w v - { $ ] % & % ) $ ) ! 1 ( ( ( z z d d A A j ~ $ - - - ~ ; ; $ > ] > > ] & [ # A A d d z z ( ( ( 1 ! ) $ ) % & % ] % & . ^ l l n l n m B B B B B B m m m n l ^ p k 1 ) ) ! !                                                                                                                           ",
"                                                                                                                                                      1 k p ^ s w r m C w t ~ ] % ] ) ) ) ! 1 ( h d d d d A j A j p j A ~ - $ - - ; $ ; > % & & . & : o & j p j A j A d d d d h ( 1 ! ) ) ) ] % & . ^ ^ l n m m B B r r r r B B m m n l ^ j i 1 ) ) ) !                                                                                                                           ",
"                                                                                                                                                      k i l m t v r t C x l ) _ ) ) ! q q h d A d p A A p p A j A ^ A ^ q - $ $ > ] & = # ' ' 2 [ [ D : , A ^ A j A p p A A p d A d h q q ! ) ) . . p ^ l B r r B r r t t r r B B m n l l j p 1 ) ) ) !                                                                                                                           ",
"                                                                                                                                                    ( p l m t s t t w v w q ) ! ! q k k i d p A j d l l ^ A ^ ^ ^ A l ^ ^ 9 - - - - - - - - { , , , , , q l A ^ ^ ^ A ^ l l d j A p d i k k q ! ! ) k l n B r r r r t t t t r r B m m n l j p q 1 ) ) )                                                                                                                           ",
"                                                                                                                                                  1 ( q l m r t s x E t v ) ) ! q k p j p j A j d ^ ^ ^ l l n l l ^ l l ^ ( ! ) ) ) ) ) ) ) ) ) ) ! ! ) l l ^ l l n l l ^ ^ ^ d j A j p j p k q ! ) ) n B B r B r t s s s t t r B B m n l j p q 1 ) ) )                                                                                                                           ",
"                                                                                                                                                  1 _ q l s m m E E F s t ! ! q k i j i j p j j j ^ l ^ ^ n l n l l n l ^ ^ j k k i k i k i k k k ( ( l l n n l l n n ^ ^ l ^ j j j p j i i j p u _ ! r r B B B r s s w s s t r B B m n l j p k 1 ) ) )                                                                                                                           ",
"                                                                                                                                                _ 1 _ p ^ s w n C G H x s ! 1 q i j p j p l ^ n n n n l l l n l n ^ l n l p j l j ^ p p ^ p ^ j l j p j n l ^ n l l n l l m n m n ^ l p j p j p p q q r B B B t s w w w w s t r B B m n l j p k 1 ) ) )                                                                                                                           ",
"                                                                                                                                              ! f ( q k m v C n t G G E x ! 1 k p i j p j ^ n n n n l j j n l n l ^ m l n j ^ ^ l n j i i j n l ^ ^ j n l m l l n m l j l l B n m n l j p p l ^ p i q n B B t t w v v v v s s r B B m n l p p i 1 ) ) ) !                                                                                                                         ",
"                                                                                                                                            1 ( d ^ m k r E C r s C F E x ! 1 i p j p j ^ n n ^ l n l j n l m m m n l n ^ ^ l ^ l n ^ p p ^ n l n n ^ ^ n l n l B r m l j l n B ^ B n ^ j j ^ j p i q r r t t w v C C C v w s r B n l j j p i i q ! ) ) !                                                                                                                         ",
"                                                                                                                                          1 1 ( ^ ^ w n n w x w s x C E E ! 1 i p p j ^ l j l ^ l n ^ n n m n B n m l l ^ m n m n l j p p j l ^ n n n ^ l n n m B B m n ^ ^ n l m l m n n j j l j i q t r r s w C x E C v s t B n l j j p p i i q ! ) ) )                                                                                                                         ",
"                                                                                                                                        1 1 ( ( ^ l w t r r s x x w x C E ! q k p j l j j l l n n l n n B n l n B l n n m n B m n l j ^ ^ j n n n m l n j ^ n B m B m B n ^ l n n m l m m l j j p i q r r r s w C x x C w r B n l ^ ^ ^ ^ j j p p k ) ) )                                                                                                                         ",
"                                                                                                                                      1 ! ! p p l t m r w w r E x x w C F ! q k p l j j l n m n l l l B n m m B n n n B n r m l n l ^ ^ ^ ^ l n l n m ^ n j n m t m B m n l l l n n n n n l j n j i q l r r s w C C C w r m l l ^ n m r s v v t l j i 1 )                                                                                                                         ",
"                                                                                                                                                                                                                                                                                                                                                                                                                                                                                  ",
"                                                                                                                                                                                                                                                                                                                                                                                                                                                                                  ",
"                                                                                                                                                                                                                                                                                                                                                                                                                                                                                  ",
"                                                                                                                                                                                                                                                                                                                                                                                                                                                                                  ",
"                                                                                                                                                                                                                                                                                                                                                                                                                                                                                  ",
"                                                                                                                                                                                                                                                                                                                                                                                                                                                                                  ",
"                                                                                                                                                                                                                                                                                                                                                                                                                                                                                  ",
"                                                                                                                                                                                                                                                                                                                                                                                                                                                                                  ",
"                                                                                                                                                                                                                                                                                                                                                                                                                                                                                  ",
"                                                                                                                                                                                                                                                                                                                                                                                                                                                                                  ",
"                                                                                                                                                                                                                                                                                                                                                                                                                                                                                  ",
"                                                                                                                                                                                                                                                                                                                                                                                                                                                                                  ",
"                                                                                                                                                                                                                                                                                                                                                                                                                                                                                  ",
"                                                                                                                                                                                                                                                                                                                                                                                                                                                                                  ",
"                                                                                                                                                                                                                                                                                                                                                                                                                                                                                  ",
"                                                                                                                                                                                                                                                                                                                                                                                                                                                                                  ",
"                                                                                                                                                                                                                                                                                                                                                                                                                                                                                  ",
"                                                                                                                                                                                                                                                                                                                                                                                                                                                                                  ",
"                                                                                                                                                                                                                                                                                                                                                                                                                                                                                  ",
"                                                                                                                                                                                                                                                                                                                                                                                                                                                                                  ",
"                                                                                                                                                                                                                                                                                                                                                                                                                                                                                  ",
"                                                                                                                                                                                                                                                                                                                                                                                                                                                                                  ",
"                                                                                                                                                                                                                                                                                                                                                                                                                                                                                  ",
"                                                                                                                                                                                                                                                                                                                                                                                                                                                                                  ",
"                                                                                                                                                                                                                                                                                                                                                                                                                                                                                  ",
"                                                                                                                                                                                                                                                                                                                                                                                                                                                                                  ",
"                                                                                                                                                                                                                                                                                                                                                                                                                                                                                  ",
"                                                                                                                                                                                                    + + + + + + +                                                                                                                                                                                                                                                                 ",
"                                                                                                                                                                                                % = = & . * : / 2 : %                                                                                                                                                                                                                                                             ",
"                                                                                                                                                                                              ] % = & % . = . ' / + & -                                                                                                                                                                                                                                                           ",
"                                                                                                                                                                                              $ & = ] % & & % * + ' = %                                                                                                                                                                                                                                                           ",
"                                                                                                                                                                                              ; = @ > ] % % ] . # # . % -                                                                                                                                                                                                                                                         ",
"                                                                                                                                                                                      ] ] ] ; > @ @ ] > ] ] ] % = # # . -                                                                                                                                                                                                                                                         ",
"                                                                                                                                                                                  $ ] ] ] . ; > @ @ ] ; ; ] ] % . = # . -                                                                                                                                                                                                                                                         ",
"                                                                                                                                                                                - $ ] $ . . ; > @ # ] ; ; ] ] % & . = . ;                                                                                                                                                                                                                                                         ",
"                                                                                                                                                                                - - > ; . . ; > = # ] ; ; $ > % % & . & $ -                                                                                                                                                                                                                                                       ",
"                                                                                                                                                                                - - $ ; ] & ; > . = % ; ; $ > % % % & % ] -                                                                                                                                                                                                                                                       ",
"                                                                                                                                                                                - - ; ; $ ] ~ > ] = % ; ; $ > ] % % % ] % -                                                                                                                                                                                                                                                       ",
"                                                                                                                                                                                - - { ; $ ; ~ $ > . % ; ; $ > ] % ] % ] % ;                                                                                                                                                                                                                                                       ",
"                                                                                                                                                                                - - { ; ; ] ~ $ > & % $ ; $ $ ] % > ] > % ] -                                                                                                                                                                                                                                                     ",
"                                                                                                                                                                                - - { ; ; ] ~ ; > ] % $ ; ; $ > ] > $ > % ] -                                                                                                                                                                                                                                                     ",
"                                                                                                                                                                                - - { ; ; ~ ~ - > ] % $ ; ; ; $ $ > $ > % % -                                                                                                                                                                                                                                                     ",
"                                                                                                                                                                                - - { ~ ; ~ - - > > % $ ; ~ ; $ $ > $ $ ] % -                                                                                                                                                                                                                                                     ",
"                                                                                                                                                                                - - { ~ ~ ~ - - > > % $ ; ~ ; $ $ > $ $ ] % - -                                                                                                                                                                                                                                                   ",
"                                                                                                                                                                                - - { ~ ~ ~ - - > > ] $ ; ~ ; $ $ > $ $ $ % - -                                                                                                                                                                                                                                                   ",
"                                                                                                                                                                                - - { ~ ~ ~ - - > > ] > ; ~ ; $ $ $ > $ $ % ; -                                                                                                                                                                                                                                                   ",
"                                                                                                                                                                                - - { ~ ~ ~ - - > > ] > ; ~ , $ $ $ > $ $ % $ -                                                                                                                                                                                                                                                   ",
"                                                                                                                                                                                - - { ~ ~ ~ - - > > > > ; ~ , $ , ; > $ $ % ] - !                                                                                                                                                                                                                                                 ",
"                                                                                                                                                                                - - { ~ ~ - - - $ > > > ; ~ , ; , { > $ $ ] % - !                                                                                                                                                                                                                                                 ",
"                                                                                                                                                                                - - { ~ ~ - - - $ > $ > ; ~ , ; , , > $ $ ] % - !                                                                                                                                                                                                                                                 ",
"                                                                                                                                                                                - - - - - - - - ; > $ > ; ~ , ; , , $ $ { $ % - !                                                                                                                                                                                                                                                 ",
"                                                                                                                                                                                - - - - - - - - - > $ $ ; - , , , , $ $ { $ % - ) 1                                                                                                                                                                                                                                               ",
"                                                                                                                                                                                - - - - - - - - - > $ $ ; - , , , , $ $ { $ % $ , 1                                                                                                                                                                                                                                               ",
"                                                                                                                                                                                - - - - - - - - - > $ $ ; - , , , { , $ { $ % ] - !                                                                                                                                                                                                                                               ",
"                                                                                                                                                                                - - - - - - - - - > $ ; ; - , , , , { $ { { ] % - !                                                                                                                                                                                                                                               ",
"                                                                                                                                                                                - - - - - - - - - > $ ; ; - , , , , , { { { $ % - ! _ p p i u                                                                                                                                                                                                                                     ",
"                                                                                                                                                                                - - - - - - - - - > $ ; ; - , , , , { { { { { % - ) 1 t H x q !                                                                                                                                                                                                                                   ",
"                                                                                                                                                                                - - - - - - - - - > $ ; ; - - , , , , { { { { % - { 1 m C t j 1                                                                                                                                                                                                                                   ",
"                                                                                                                                                                                - - - - - - - - - > $ ; ; ~ - , , , { { { { { % $ , ! p n t l q !                                                                                                                                                                                                                                 ",
"                                                                                                                                                                                - - - - - - - - - $ > ; , ~ - , , , , { { { { % ] - ! k j m l p q                                                                                                                                                                                                                                 ",
"                                                                                                                                                                                - - - - - - - - - $ > ; , ~ - , , , { { { { { ] % - ) 1 i m l k n !       j n n ^ p                                                                                                                                                                                                               ",
"                                                                                                                                                                                - - - - - - - - - ; > $ ; ~ - , , , { { { { { { & - ) 1 k m m i n 1     i $ q q q i q                                                                                                                                                                                                             ",
"                                                                                                                                                                                - - - - - - - - - - > $ ; ~ - , , , , { { { { { . - { ! k l m p p 1 1 ! q $ q i i i q q                                                                                                                                                                                                           ",
"                                                                                                                                                                                - - - - - - - - - - > $ ; ~ - , , , , { { { { { . $ , ! k ^ B l q q $ k ) 1 k n l j i ) )                                                                                                                                                                                                         ",
"                                                                                                                                                                                - - - - - - - - - - > $ ; ~ - , , , , { { { { { & ] - ) 1 p r n q ) $ ! ) 1 p n j j j q ! )                                                                                                                                                                                                       ",
"                                                                                                                                                                                - - - - - - - - - - > $ ; ~ - , , , , , { { { { % . - { 1 q B m k ) $ ! ) ) p p p i p j i ^ i q                                                                                                                                                                                                   ",
"                                                                                                                                                                                - - - - - - - - - - > $ ; ~ - - , , , { { { { { ] # - , ! 1 m B i 1 { - - , 1 i i i k i k l t m l                                                                                                                                                                                                 ",
"                                                                                                                                                                                - - - - - - - - - - > $ ; ~ - - , , , { { { { { { = - - ! 1 n r p _ , - - - ) q k i i i 1 1 i j B j                                                                                                                                                                                               ",
"                                                                                                                                                                                - - - - - - - - - - > > ; - - - , , , { { { { { { = $ - ! 1 l B l q ) , - - ) j j B 1 ) ) ) ) k i B n                                                                                                                                                                                             ",
"                                                                                                                                                                                - - - - - - - - - - $ > ; - - - , , , , , { { { { = ] - ) 1 j m l k ) - I k ) p j p p ^ i ) ) ) q k p ^                                                                                                                                                                                           ",
"                                                                                                                                                                                - - - - - - - - - - $ > ; - - - , , , , { { { { { & . - { 1 p n m i 1 I 1 p ) ! i i i i j i i ) ) k 1 k p                                                                                                                                                                                         ",
"                                                                                                                                                                                - - - - - - - - - - - > $ - - - , , , , , { { { { % # $ - ! i l B p _ I k q ) ) ! k q k k k q i l ) ) I ) k ^                                                                                                                                                                                     ",
"                                                                                                                                                                                - - - - - - - - - - - > $ - - - , , , , { { { { { { * ] - ! _ j r l q I q ) ) , 9 ! 1 1 1 1 1 ) i l ) ) I ) q                                                                                                                                                                                     ",
"                                                                                                                                                                                - - - - - - - - - - - > $ - - - , , , , , { { { { { * & - ) 1 p B n k ) ) ) , , 9 1 i t k 1 ) ) 1 i l l , I I ^                                                                                                                                                                                   ",
"                                                                                                                                                                                - - - - - - - - - - - > $ - - - , , , , , { { { { { * & - { 1 i m m i 1 , I , , 9 9 i r n l , ) ) 1 i n n I I )                                                                                                                                                                                   ",
"                                                                                                                                                                                - - - - - - - - - - - > $ - - - - , , , , { { { { { # # $ , ! _ n B p 1 I , ) , , 9 q l ^ j j , , ) 1 i n i I I i                                                                                                                                                                                 ",
"                                                                                                                                                                                - - - - - - - - - - - > $ - - - - , , , { { { { { { & # ] - ! _ l r l 1 I , , ) , 9 q p i k i ^ ) , ) 1 j n ) I , p                                                                                                                                                                               ",
"                                                                                                                                                                                - - - - - - - - - - - > $ - - - - , , , , { { { { { % * & - ) 1 j t n k { , , ) , , 1 q k q q i ^ ) I ) q q k ) I 1 j                                                                                                                                                                             ",
"                                                                                                                                                                                - - - - - - - - - - - > > - - - - , , , , , { { { { { * & - ) 1 p s m i { { { , , , ) 1 1 ! 1 q p ^ p I ) ) k q ) I ) ^                                                                                                                                                                           ",
"                                                                                                                                                                                - - - - - - - - - - - $ > - - - - , , , , { { { { { { * # - { 1 i B B p ! { , ) , , , , ) ) ! 1 1 i j r 1 I , k l l ) ) ^                                                                                                                                                                         ",
"                                                                                                                                                                                - - - - - - - - - - - $ > - - - - , , , , { { { { { { * # $ , ! q n B l 1 ) { ) ) { { , , ) ) ! 1 1 k n ^ p I , q n m k , n                                                                                                                                                                       ",
"                                                                                                                                                                                - - - - - - - - - - - ; > - - - - , , , , , { { { { { * # ] - ! _ l r n q ) ) - ) , , , , , ) ) ! 1 1 p p ^ p I I ! j n p 1                                                                                                                                                                       ",
"                                                                                                                                                                                - - - - - - - - - - - - > - - - - , , , , { { { { { { # * & - ) 1 p t m i ) ) ) - ) , , I , , ) ) ! 1 k k p n p , I q j j j j                                                                                                                                                                     ",
"                                                                                                                                                                                - - - - - - - - - - - - > - - - - - , , , , { { { { { & * & - { 1 i B B p q ) ) - I 1 , , , ) ! ! _ _ 1 1 k n n t q I 1 q 1 i j                                                                                                                                                                   ",
"                                                                                                                                                                                - - - - - - - - - - - - > } - - - - , , , , { { { { { % * # - , 1 _ m r l k 1 ) ) - I ) ) I , , , , { ) ) ) i i l ^ ^ i q ) ) i j                                                                                                                                                                 ",
"                                                                                                                                                                                - - - - - - - - - - - - > ~ - - - - , , , , , { { { { { * # $ - ! 1 n t m j k 1 ) ) - I i ) I I I , , { ) ) ) 1 q q j B s j , ) i j                                                                                                                                                               ",
"                                                                                                                                                                                - - - - - - - - - - - - > ; - - - - , , , , { { { { { { * # ] - ) 1 l s B j p 1 1 ) ) - I i I I I , I , { ) ) ) ) 1 1 j ^ ^ p ) ) k j                                                                                                                                                             ",
"                                                                                                                                                                              - - - - - - - - - - - - - > $ - - - - , , , , , { { { { { # # & - { 1 p r m j j j 1 ) ) ) - I ! I I I I I , { ) ) ) ) ) 1 i k j n ^ i j                                                                                                                                                             ",
"                                                                                                                                                                              - { - - - - - - - - - - - > $ - - - - , , , , { { { { { { & * & - , ! i l B j l j i 1 ) ) ) - I ! ) I , , , , , { { ) ) ) 1 _ k p r r t j                                                                                                                                                           ",
"                                                                                                                                                                              - { , - - - - - - - - - - > > - - - - , , , , , { { { { { % * # - - ! _ j r l l j i k 1 ) ! - - I I ) I I I I , I ) ! 1 1 q q k k p n n w q                                                                                                                                                         ",
"                                                                                                                                                                            ! - { , - - - - - - - - - - $ > - - - - , , , , , { { { { { { * # $ - ! 1 p B n j j i k k 1 ) ) - - - I ) ) I I I , , , , , { ) ) _ q p n n w j                                                                                                                                                       ",
"                                                                                                                                                                            ! - { , - - - - - - - - - - $ > - - - - , , , , { { { { { { { ' # ] - ) 1 i m m j j i i k k 1 ) - - - I I 1 ) I I I I I , I , { ) 1 _ _ p n r n p                                                                                                                                                     ",
"                                                                                                                                                                          1 ! - { , - - - - - - - - - - ; > - - - - , , , , , { { { { { { ' # & - { 1 _ n B j j i i k i q ) ) - - - - ! i ! ! ) , I I I , I { ) 1 _ p l n l )                                                                                                                                                     ",
"                                                                                                                                                                          i ) - { , - - - - - - - - - - - > - - - - , , , , , , { { { { { ' @ # - , ! _ l r l j i i k i q 1 ) - - - - - ) ! I I I I , , I I , 1 _ q k p ^ p )                                                                                                                                                     ",
"                                                                                                                                                                        1 i ) - { , - - - - - - - - - - - > - - - - - , , , , , { { { { { * * + $ - ! 1 j t n j i i k i q 1 1 I - - - - I ! { I I , , I I I , ) 1 1 _ k p k )                                                                                                                                                     ",
"                                                                                                                                                                        k i ) - { , - - - - - - - - - - - > ~ - - - - , , , , { , { { { { # * + ] - ) 1 p s m j i i k p q 1 q I - - - - I ) ! I I I I I , , , I ) 1 k p k _ q                                                                                                                                                     ",
"                                                                                                                                                                        i j ) - ) , - - - - - - - - - - - > ; - - - , , , , , { { { { { { & * / & - { 1 i B B p p i i p q 1 q ) { - - - - I I I I I , I I , , ) q q q 1 _ )                                                                                                                                                       ",
"                                                                                                                                                                      i p j ) - ) , - - - - - - - - - - - > $ - - - - , , , , , { { { { { % ' / @ - , ! q n B ^ p j i p q q q ! { - - - - - I I I I I , , I ) , , , , 1 _ )                                                                                                                                                       ",
"                                                                                                                                                                      i p j ) - ) , - - - - - - - - - - - > $ - - - - , , , , { { { { { { { ' / + - - ! _ ^ ^ ^ p j i p q q q 1 { - - - I I I ) I I I I I I I , I , , 1 _ ]                                                                                                                                                       ",
"                                                                                                                                                                      i p j ) - ) , - - - - - - - - - - - > > - - - - , , , , , { { { { ) { ' / / - - { 1 k k p p j i p q q k 1 ) { - I I ) ) I I I I I I I I , , I ! _ )                                                                                                                                                         ",
"                                                                                                                                                                      i p j ) - ) , - - - - - - - - - - - $ > - - - - , , , , , { { { { ) { * / 2 $ - - - - 1 1 k p i p i q k 1 ) { - - I 1 I I I I I I , , , , ) ! ) _ )                                                                                                                                                         ",
"                                                                                                                                                                      i i l ) - 1 , - - - - - - - - - - - $ > - - - - , , , , , , { { { ) { # / 8 ] - - - - - - - 1 k p i q k 1 1 { { - I 1 I , , , , , ) ) ) ) ) ! 1 _ )                                                                                                                                                         ",
"                                                                                                                                                                      i i l ) - ) , - - - - - - - - - - - ~ > - - - - - , , , , , { { { ) { & + 5 = - - - ] > - - - ) 1 k q i 1 1 ) ) - I ) ) I , , ) ) ) ) 1 1 i p ^ ) >                                                                                                                                                         ",
"                                                                                                                                                                      i k j ) - ) , - - - - - - - - - - - - > - - - - - , , , , { , { { ) { % ' a / - - - = . & $ - - ) 1 1 p 1 q ) ) - I I I I , , , I ) ) ) 1 q i i )                                                                                                                                                           ",
"                                                                                                                                                                      i q p { - { , - - - - - - - - - - - ~ > - - - - - , , , , { { { { ) { { ' a 5 ; - - & # * # > - - ] 1 q 1 q ) ) { - ) ) I , , , I , ) , ) 1 q i )                                                                                                                                                           ",
"                                                                                                                                                                      i ) k ) - { , - - - - - - - - - - - ~ > - - - - - , , , , , { { { ) { { ' a J $ - - % * * * # = - - ) ) 1 k ) ) ) - , ) ) I I I , ) 1 ) ) 1 i q _                                                                                                                                                           ",
"                                                                                                                                                                      k ) ) { - { , - - - - - - - , - - - ~ > ~ - - - , , , , , { { { { ) { { * a K ] - - > = * ' * + = - - ) ) q ) ! ! - , , ) 1 ) I I , ) 1 _ q 1 -                                                                                                                                                             ",
"                                                                                                                                                                        ! ) ) - ) , - - - - - - - , - - ~ ~ > ; - - - - , , , , , { { { ) { { # 5 L & - - - * * * @ @ + # - - ) ! ) 1 1 - I , ) 1 1 ) I I , ) k 1 - I                                                                                                                                                             ",
"                                                                                                                                                                        l ) ) - { , - - - - - - - , - - ~ - > $ - - - - , , , , , , { { ) { { & 5 M / - - - & * * * * * + # - - ) ) q q { I I , ) , 1 ) I I , k ! -                                                                                                                                                               ",
"                                                                                                                                                                      l i q ) - ) , - - - - - - - , - - - ~ > $ - - - - , , , , , { { { ) ) { % < M / ; - - % * * ' ' * * ' = - - ) 1 i ) I I , , , , , , , , k ) -                                                                                                                                                               ",
"                                                                                                                                                                    l i j n ) - { , - - - - - - - , - - ~ ~ > > - - - - - , , , , , { { ) ! { { / N 5 $ - - > * * * ' ' @ / + % - - ] i 1 I , , ) ) , , , , I 1 - I                                                                                                                                                               ",
"                                                                                                                                                                    l i j n k - ! , - - - - - - - , - - ~ - $ > - - - - , , , , , { , { ) ! { { + N 5 ] - - - * * * * * @ ' / 2 > - I q 1 , , , , ) ) , , , { 1 -                                                                                                                                                                 ",
"                                                                                                                                                                    l i p p q , ! , - - - - - - - , - - ~ - $ > - - - - , , , , , , { { ) ! { { % N b @ - - $ = * * * * ' ' + / 2 $ - ) k , , , , { ) ) , I ) I -                                                                                                                                                                 ",
"                                                                                                                                                                    l i k i ) { ) , - - - - - - , , - - - ~ ; > - - - , - , , , , { { { { 1 { { % N N + - - $ % * * * ' ' ' + : 6 ' - - ! , ) ) { , ) 1 ) , ) - I                                                                                                                                                                 ",
"                                                                                                                                                                    l i i n - ) { , - - - - - - , , - - - ~ ~ > - - - - - , , , , , , { { 1 { { % N N / ; - - % @ + : * ' ' + 2 / 6 = - - , 1 _ > { ! k 1 , I -                                                                                                                                                                   ",
"                                                                                                                                                                    i q i i - ) { , - - - - - - , , - - ~ ~ ~ > - - - - , , , , ) , { { { ! ) { % b N 5 $ - - - @ @ * 2 2 * + + 2 < 6 % - , 1 k 1 ) 1 i 1 ) - -                                                                                                                                                                   ",
"                                                                                                                                                                  i ) { O P - ) { , - - - - - - , , - , ~ ~ ~ > ~ - - - - , , , ! { , { { ) ) { { b N o ] - - $ = @ @ @ : 2 * + : < < ' > > ) q k i i k 1 ) - ]                                                                                                                                                                   ",
"                                                                                                                                                                  i ) { { { - ) { , - - - - - - , , - , - ~ ~ > ; - - , - , , , , , { , { ) ) { { 5 Q b & - - $ & @ @ @ @ + 2 R + + 2 < ' > ) 1 q k k q ) , -                                                                                                                                                                     ",
"                                                                                                                                                                k p p B ) ) - 1 { , - - - - - - , , - , ~ ~ ~ > $ - - ~ - - , , , , , { { ) ) { { 2 Q 4 & ; - - % @ @ @ @ @ @ + @ R + < 8 # > ) _ q q 1 ) -                                                                                                                                                                       ",
"                                                                                                                                                            i k i p j i ) ) - 1 { , - - - - - - , , - , ~ ~ ~ > $ - - ~ - - , , , , , { % ) ) { { 2 Q S # $ - - $ @ * @ @ @ @ ' + = = + < ' % ) 1 ) ) ) , I                                                                                                                                                                       ",
"                                                                                                                                                            k k k k 1 ! ) ) - ) { , - - - - - - , , - , , ~ ~ > > - - - ~ , , , 1 , { ) & ) ) { { + Q Q ' ] - - - @ * * @ @ @ ' + : = . : : R ) ) ) ) ) -                                                                                                                                                                         ",
"                                                                                                                                                          i q k k ! ) { { { - ) { , - - - - - - , , - , , ~ ~ $ > - - ~ - - , ) i ) , ! ' % ) ) { = Q Q 5 ] ; - $ = * * * @ * @ ' + : = % ' R % , , , )                                                                                                                                                                           ",
"                                                                                                                                                          k q q ! { { ) ) ) - ) { , - - - - - - , , - , , ~ ~ $ > - - ~ - - , , 1 { , ! 2 = ) ) ; = Q Q 3 & ] - $ & * * * @ @ @ ' ' : : = . R R , ,                                                                                                                                                                               ",
"                                                                                                                                                          k ! ) { ) k q q q - ) { , - - - - - - , , - , , ~ ~ ; > - - ~ - - , , , , { ! 2 * ) ) $ + Q N Q # ] - - % * * * @ @ * @ + + 2 : % % R                                                                                                                                                                                   ",
"                                                                                                                                                          i ) ) { k p p i i - ) { , - - - - - - , , - , { - ~ ; > - - , - - , , ! , , ! : # & ) $ 2 Q Q Q 5 # ; - $ * * * @ @ * @ ' + : 2 ' % R                                                                                                                                                                                   ",
"                                                                                                                                                          l { { k m m m l i - ) { , - - - - - - , , - , { ~ ~ ; > - - ) ~ - , ! i ! , ! # * = ) = 5 Q N N S 5 # - - = * * * * * @ ' ' + : 2 * %                                                                                                                                                                                   ",
"                                                                                                                                                          l , k B r r r l i - ) { , - - - - - - , , - , { - ~ ; > ~ - ] { - - , ! , { ) ; $ $ > > = * / 5 S Q 2 - - & * + * * @ @ @ @ ' + : : % >                                                                                                                                                                                 ",
"                                                                                                                                                          i k ^ x v v x n i - ) ) , , - - - - - , , - , { ~ ~ ; > ; - & { , - , , , ; ; - - - ~ ; > - - - . 2 2 - - % * + * @ * * * + ' @ : + * >                                                                                                                                                                                 ",
"                                                                                                                                                          q ^ w x E E x n q - ) ) { , , - - - - , , - , ) ~ ~ ; > $ - = ] - - , , , - - - - - - - - - - - ~ ; $ - % $ * * * @ @ @ * * @ ' ' + : %                                                                                                                                                                                 ",
"                                                                                                                                                        q ^ t G E x x x n 1 , ) { { , - - - - - , , - , ) ~ ~ ; > $ - * = - ~ , - - - - - - > % = ' = - - - - - $ - # = * * @ @ @ * @ * @ ' + + * =                                                                                                                                                                               ",
"                                                                                                                                                      q p n v H E x x C n 1 { ) ) { , - - - - - , , - { ) ~ ~ ; > > - * & - ~ , - - - - - > % = ' 5 ' = - - - - $ - ] & * * * @ * * @ # * * * + + =                                                                                                                                                                               ",
"                                                                                                                                                    q i n w E H E x x C t ) ) ! { ) , , , - - - , , - ) ) ~ ~ ; $ > - = ] - - - - - - - - - > % = ' = - - - - ; ] - - % * * * * * + * # * @ @ ' + =                                                                                                                                                                               ",
"                                                                                                                                                  q i n t v G G v C C C t ) ) ! ) { - , , - - - , ] - { ) { ~ ; $ > - ] - - - - - - - - - - - - - - - - - - - $ ] ; - ; * * * * * * * * * * @ ' + '                                                                                                                                                                               ",
"                                                                                                                                                  i j l t x E v x C C G t - ) ! ) { , - , - - - , = ] - { ~ ~ ; ; > - - - - - - - - - - - - - - - - - - - - - $ ] ; - ] @ * # * * * * * * * * ' + ' =                                                                                                                                                                             ",
"                                                                                                                                                q j ^ m w x E v C H H E t - ! ! ) , , - - - - - = = ] - , ~ ~ ; ; > - - , - - - - - - - - - - - - - - - - - - ] $ - - & @ @ * * * * * * * * @ ' ' ' =                                                                                                                                                                             ",
"                                                                                                                                              q i n n r w x v E C G G G t - ! ! ! ) - - ] - - - - ] - - - ~ ~ ; ; > - - - - - - - - - - - - - - - - - - - - $ $ ; - ; * @ * * * @ @ @ * * @ @ ' ' + *                                                                                                                                                                             ",
"                                                                                                                                            1 q l m m s w x v G x E E G t - ! ! { { { - - - - - - - - ~ ~ - ~ ; $ > - - , - - - - - - - - - - - - - ] - - ; ; - - ; & # @ * * * @ * * @ @ @ * @ ' ' ' @                                                                                                                                                                           ",
"                                                                                                                                          1 1 1 j t t s x v x C x F F x C - ! ! ) { { - - - - - - - - - ~ ~ ~ $ > - ; - , - - - - - - - - - - - - - - - - - { - ; & * # # @ * * * * @ * @ * @ @ ' ' ' '                                                                                                                                                                           ",
"                                                                                                                                          1 u q n w w t E x E x x G G x C - ! ! { { - - - - - - $ # $ - - - - - - - - - , , - - - - - - - , - - ; ; - - { { - ; > # # # # * * * * * @ * @ * @ * ' ' ' ' =                                                                                                                                                                         ",
"                                                                                                                                        1 1 n k r r r s E x x G E x x G C - ) ) { - - - - ~ - $ # + # $ - - - - - - - - , { , - - - - - - , { - - ; - - - - - > % = = # * * * @ * * * * @ * * @ @ ' ' + =                                                                                                                                                                         ",
"                                                                                                                                      1 1 p m m v v v t x E G F E x x G C - ! ) - - - ~ ~ - - - $ # $ - - - - - - - - , - , { { , - - - - - , , - - - - - - - ] % = = # # * * * * * * @ * @ * @ @ ' ' + *                                                                                                                                                                         ",
"                                                                                                                                      u t n r s m w w E v x G E E E E G C - ! { - - - - - - - - - - - - - - } - - - - - - - - - - - - - - - - - - - - ; $ - - % & = # # * # * * @ @ @ * * + + @ * * ' + @ @                                                                                                                                                                       ",
"                                                                                                                                    ! l t m r w x s s E E E E G E G G C E - { - - - - ~ ~ ~ ~ - - - - - - - - } ~ ~ ~ - - - - - - - - - - - - - ; $ % > - - - & & = # * # * * * * * @ @ * * * @ * @ @ + ' '                                                                                                                                                                       ",
"                                                                                                                                  ( ( p m m r x v x x w H x x F G F F x x ) , - - - - - - ~ ~ - - - - - - - - - - - - - - - - - - - - - - - ; $ > % > - - - - & & * = * * # * * * * @ * @ @ @ * @ * ' ' + * =                                                                                                                                                                     ",
"                                                                                                                                ( p p l l m r w w x x x F x G F E E E E E ! - - , - - - - - - - - > - - - - - - - - - - - - - - - - - - - - - - ; ; - - - - - ] & * = = = # * * * * * @ @ * @ * @ * ' ' + @ =                                                                                                                                                                     ",
"                                                                                                                              ! T j j j t r r r x x x x E E E E E E E G G q - , { , - - - - - - - > & - - - - - - - - - - - - - - - - - - - - - - - - - - } - ] & # # = = # * * * * * @ @ * @ @ * @ * ' + ' *                                                                                                                                                                     ",
"                                                                                                                              ( c j j r r m w t x x x v E E E G E E E E H p - , ) { , - - - { - - - > - - - - - - - - } ~ ~ ~ ~ - - - - - - - - - - - - - ; ~ ; ] # = # = # * * @ * * * * @ * + @ * * @ + ' * =                                                                                                                                                                   ",
"                                                                                                                            _ u x r r t m m s w v E E w G E E G E E E G G n q - , ) { , - - - { - - - - - - - - - - - } ~ ~ ~ ~ - - - - - - - - - - - - - ~ ~ ; > # = = # # # # * * * * * * * * * @ * @ @ + ' =                                                                                                                                                                   ",
"                                                                                                                          ( f q s s s t r n t w v G G t E F E F G F F E E r p q - , ) ) { , - , , - - > - - - - - - - ~ - - ~ - - - - - - - - - - - ~ } ~ ; - ; $ = # = # # * * * * * * @ @ * @ # * @ @ @ @ ' =                                                                                                                                                                   ",
"                                                                                                                        { d m p ^ s s w r m C w t G G x x H E G G E E E G s m p q - , , , - , , , - - - - - - - - - - - - - - - } ~ ~ - - - - - - ~ ~ ~ ; ; ; $ > > = = # # * # @ * * * @ * + * * * * * ' @ + * =                                                                                                                                                                 ",
"                                                                                                                        ) T m l m t t v r t C x r G G E x F G G E E E E G v s m p k ! - - , , { , - - - - - - - - - - - - - - - } ~ ~ - - - - - - ~ ; ~ ; $ $ > > > * * # # * # # @ * * * * * * * * @ * @ ' + * =                                                                                                                                                                 ",
"                                                                                                                      { ( p l m t s s t t w v w t x x F x G H E x E E E G x v s n j k 1 , , ) ) { , - - - - - - } } } } ; ; - - - - - - - - ~ - - ~ ; ; $ > > > ] > . * = # # # # * * * * * * * * * * @ * * + ' =                                                                                                                                                                 ",
"                                                                                                                    q 1 ( q l m r t t s x E t v v x x E x F F E x x x G F F x v n j p k , { 1 ) { , - - - - - - - - - ; ] ' / / . } } - - ; ~ ~ ~ ~ ; $ $ > > ] > > . = = = = # * * * @ * * * * * @ * * * ' @ + = #                                                                                                                                                               ",
"                                                                                                                    ) 1 _ q l s m m m E E F s t E x x x E H G E x F F F F F F w n j p k { ) q ! ) , - - - - - - - - - - } - - ' 2 + % - - - ; ; ; ; $ $ $ > > > > > ] * * = = # # * * * * * * * * * * * @ * @ + # =                                                                                                                                                               ",
"                                                                                                                  _ _ 1 _ p ^ s w n n C G H x s x x x x G F E E x U U F G F H w n j p k { ) q 1 ! { - - - - - - - - - - } } ; - = o + % - ; $ ; ; ; $ $ $ $ > > > ; ] * * # = # # # * @ * @ * * * * * * * * @ + ' =                                                                                                                                                               ",
"                                                                                                                ! f f ( q k m v C n n t G G E x x x x x E G E x E H H F E H G w n j p k ) { 1 q ! { , - - - - - - - - - } } ; - - = o + } ; ~ ~ $ ; $ $ $ $ ] $ ] $ ] * * = # # * # * * @ @ * * * * * * * @ * @ + = k                                                                                                                                                             ",
"                                                                                                                ( d d ^ m k r E C r r s E F E x x G G x x G E x E G G x G x x r n j p k ) { ! q 1 ) , - - - - - - - - } ~ ~ ~ ~ ; - # 2 + } $ ~ $ ; ; $ ; $ ] $ $ $ > . # = # * # * * * * * * @ @ * * * * * @ @ ' @ =                                                                                                                                                             ",
"                                                                                                              ! ( ^ ^ ^ w n n w x w w s x E E E E E E E x G F x E E E H E x w r n j p k 1 { ) 1 q ! { , - - - - - - - } ~ ~ ~ ~ ~ ; - = ' & $ ~ ; $ $ > ; $ $ ; $ $ > $ * * = * * # * * * * @ * @ + * @ @ @ * @ @ ' =                                                                                                                                                             ",
"                                                                                                            , ( ( ^ ^ l w t r w s x x x E x x E E G G E C G x x E F F G x w w B n j p k 1 { ) P q ! { , - - - - - - - { ~ ~ ~ ~ ~ ~ - - ' * & $ ~ $ ; ; $ $ ; ; ; ; ; $ * * = = = # * * * * @ * * @ @ * + @ * * @ ' * =                                                                                                                                                           ",
"                                                                                                          , ! p q l l t m r w w t E E x x x x F x F F E C E E G F F F E C w t n n j p k 1 ) { ! 1 1 ) , , - - - - - - ) ~ ~ ~ ~ ~ ~ ~ - - ' # $ } ~ $ $ ~ $ > ; ; $ ; ; & # # = = # * * * * @ * * * * * @ @ * ' @ + @ =                                                                                                                                                           ",
"                                                                                                        ! f f ( q k m v C n n t G G E x x x x x E G E x E H H F E H G x C w r n n j p k 1 ) { ) P q ! { , - - - - - - 1 ) } ~ ~ ~ ~ ; $ - = ' & } ~ ; $ ~ > ; $ ~ ; ~ ; ] # = # = # * * @ * * * @ @ @ * * + * ' + + @ *                                                                                                                                                           ",
"                                                                                                      ! ( d d ^ m k r E C r r s E F E x x G G x x G E x E G G x G x x C w t B n n j p k 1 ) { { ) 1 ! { , - - - - - - ) 1 ) ~ ~ ~ ~ ; $ > - ' = $ } ~ ~ $ ~ ~ ; ~ ; ~ ~ > # = = # # # # * * * * * * * * * ' + @ ' / : @ =                                                                                                                                                         ",
"                                                                            - , , , { , , ,                                                                                                                                                                                                                                                                                                                                                                                       ",
"                                                                        I , % % % % * ' ' * % )                                                                                                                                                                                                                                                                                                                                                                                   ",
"                                                                      ) % % , , , > > % * + : * >                                                                                                                                                                                                                                                                                                                                                                                 ",
"                                                                    I % > , , , , { { ] % . * / ' >                                                                                                                                                                                                                                                                                                                                                                               ",
"                                                                    > > , , I - { { { { ] % = + : *                                                                                                                                                                                                                                                                                                                                                                               ",
"                                                                  I > , , - I - { { { { > ] % * : ' %                                                                                                                                                                                                                                                                                                                                                                             ",
"                                                                  > > I , , , I I I I I { ] % = ' ' =                                                                                                                                                                                                                                                                                                                                                                             ",
"                                                                  ] > , { , , , , , , , , > % & = ' = &                                                                                                                                                                                                                                                                                                                                                                           ",
"                                                                  ] > $ I { , , , , , , , , > % & * ' .                                                                                                                                                                                                                                                                                                                                                                           ",
"                                                                  ] ] $ - , ) , , , , , , , > > & = + &                                                                                                                                                                                                                                                                                                                                                                           ",
"                                                            % % I ] ] $ - , , , I I , , , , , > > & @ =                                                                                                                                                                                                                                                                                                                                                                           ",
"                                                        I % I I I ] ] ] I - - - - I , , , , , { > & * # >                                                                                                                                                                                                                                                                                                                                                                         ",
"                                                      ) > I I I I ] ] ] $ - - - , , , , , , , , > % = @ >                                                                                                                                                                                                                                                                                                                                                                         ",
"                                                    I ) > , I I I ] ] ] $ - - , , , , , , , , , > % & * &                                                                                                                                                                                                                                                                                                                                                                         ",
"                                                    I , , - - - I ] ] ] $ , , - , , , , , , , , > % & * &                                                                                                                                                                                                                                                                                                                                                                         ",
"                                                    I , , - - - - ] ] ] $ , , - , , , , , , , , > ] & @ &                                                                                                                                                                                                                                                                                                                                                                         ",
"                                                  I I I , , - - - $ ] ] > , ; , , , , , , , , , { > & * # >                                                                                                                                                                                                                                                                                                                                                                       ",
"                                                  I I , { , , , , $ ] ] > , ; , , , , , , , , , , , % = @ >                                                                                                                                                                                                                                                                                                                                                                       ",
"                                                  I I - I { , , , ~ ] ] > > ; , , , , , , , , , , , ] & ' &                                                                                                                                                                                                                                                                                                                                                                       ",
"                                                  I I I - , ) , , , ] ] > $ ; , , , , , , , , , , { ] & ' *                                                                                                                                                                                                                                                                                                                                                                       ",
"                                                  I I I - , , , I I ] % ] > { ; , , , , , , , , , , > & # + >                                                                                                                                                                                                                                                                                                                                                                     ",
"                                                  I I I I - - - - I $ ] ] > $ ; , , , , , , , , , , > % = : &                                                                                                                                                                                                                                                                                                                                                                     ",
"                                                  I I ) , - - - , , $ ] ] > $ ; , , , , , , , , , , { % % < #                                                                                                                                                                                                                                                                                                                                                                     ",
"                                                  I I I - - - , , , , ] ] > $ ; , , , , , , , , , , , ] & / *                                                                                                                                                                                                                                                                                                                                                                     ",
"                                                  I ] - - , , - , , , ] ] > $ ; , , , , , , , , , , , > & + @ >                                                                                                                                                                                                                                                                                                                                                                   ",
"                                                    ] - $ > , - , , , ] ] > { ; , , , , , , , , , , , > & = + &                                                                                                                                                                                                                                                                                                                                                                   ",
"                                                    ] ] > > ; , , , , $ ] ] > $ ; , , , , , , , , , , , & = / =                                                                                                                                                                                                                                                                                                                                                                   ",
"                                                    ] ] > > ; , , , , , ] ] > $ ; , , I , , , , , , , , % & 8 *                                                                                                                                                                                                                                                                                                                                                                   ",
"                                                    ] ] > > ; , , , , , ] ] > $ ; , , , , , , , , , , , ] & < / >                                                                                                                                                                                                                                                                                                                                                                 ",
"                                                    ] ] > $ ; , , , , , ] ] > $ ; , , , , , , , , , , , > & : 8 >                                                                                                                                                                                                                                                                                                                                                                 ",
"                                                    ] % ] > { ; , , , , ] ] > $ ; , , , , , , , , , , , > & * 8 &                                                                                                                                                                                                                                                                                                                                                                 ",
"                                                    ] ] ] > $ ; , , , , ] ] > $ ; , , , , , , , , , , , > & @ [ # - , k n                                                                                                                                                                                                                                                                                                                                                         ",
"                                                      ] ] > $ ; , , , , ] ] ] > $ ; , , , , , , , , , , , & = 8 * - ) ) j F                                                                                                                                                                                                                                                                                                                                                       ",
"                                                      ] ] > $ ; , , , , $ ] ] > $ ; , , , , , , , , , , , % & 8 ' I ) ) k G V V                                                                                                                                                                                                                                                                                                                                                   ",
"                                                      ] ] > $ ; , , , , ~ ] ] > $ ; , , , , , , , , , , , % & / ' - ) ) 1 v U V V                                                                                                                                                                                                                                                                                                                                                 ",
"                                                      ] ] > { ; , , , , { ] ] > $ ; , , , , I , , , , , , ] & : + I ) ) ) B H V V V                                                                                                                                                                                                                                                                                                                                               ",
"                                                      ] ] ] > $ ; , , , , ] ] > $ ; , , , , I , , , , , , > & @ / I ) ) ) i F V V V V                                                                                                                                                                                                                                                                                                                                             ",
"                                                      { ] ] > $ ; , , I , ] ] > $ ; , , , , I I I , , , , > % * / I I ) ) q s U V V V H                                                                                                                                                                                                                                                                                                                                           ",
"                                                        ] ] > $ ; , , , , $ ] ] $ $ ; , , , , , , , , , , > % # 2 - , ) ) ) m H V V U x H                                                                                                                                                                                                                                                                                                                                         ",
"                                                        ] ] > $ ; , , , , $ ] ] > $ ; , , , , , , , , , , , % & / , - ) ) ) i s U V U v v H                                                                                                                                                                                                                                                                                                                                       ",
"                                                        ] ] > $ ; , , , , - ] ] > $ ; , , , , , , , , , , , ] % + { - ) ) ) k m H U s t r v x                                                                                                                                                                                                                                                                                                                                     ",
"                                                        ] ] > $ ; , , , , - ] ] > $ ; , , , , , , , , , , , , % @ > - ) 1 ) ) k r E p l l t w w                                                                                                                                                                                                                                                                                                                                   ",
"                                                        ] ] ] > $ ; , , , - ] ] > $ ; , , , , , , , , , , , , > # % - ) 1 ) ) ) k r k p p l B m r                                                                                                                                                                                                                                                                                                                                 ",
"                                                        ] ] ] > $ ; , , , I ] ] > $ ; , , I I , , , , , , , , > % % I ) 1 _ ) ) ) k ) 1 ! 1 i p n                                                                                                                                                                                                                                                                                                                                 ",
"                                                        , ] ] > $ ; , , , , ] ] ] > $ ; , , , , , , , , , , , { > % , I 1 _ ) ) ) 1 ) ) ! ! i q p p                                                                                                                                                                                                                                                                                                                               ",
"                                                        ) ] ] > $ ; , , , , ] ] ] > $ ; , , , , , , , , , , , , ) ] ) I ) _ ) ) ) ) ) ) ) ) q ! q q p             k l m t v x x v s B m                                                                                                                                                                                                                                                                                           ",
"                                                          ] ] > $ ; , , , , ] ] ] > $ ; , , , , , , , , , , , , , > ] - ) _ ) ) ) ) ) ) ) ) ) ) ) ! p         ) k w E E x C C C C C x x x v G G x x v n                                                                                                                                                                                                                                                                           ",
"                                                          ] ] > $ ; , , , , ] ] ] $ , ; , , , , , , , , , , , , , > ] - { _ 1 ) ) ) ) ) ) ) ) ) ) ! q p     ) k w E F F E x w w w w w C C C v G G G G G G G n                                                                                                                                                                                                                                                                     ",
"                                                          ] ] ] $ $ ; , , , - ] ] $ , ; , I I I , I , I I , , , , ) % I I _ 1 ) ) ) ) ) ) ) ) ) ) ) ! k p   ) k l p i p n n n n n m B t w v C v G G x m r x G C n                                                                                                                                                                                                                                                                 ",
"                                                          ] ] ] > $ ; , , , - ] ] $ { ; , , I , , , , , , , , , , ) ] , - _ 1 ) ) ) ) ) ) ) ) ) ) ) ! q p   ) k ^ i q k i p ^ ^ ^ ^ ^ l m t w v w x w ^ j B x G v n                                                                                                                                                                                                                                                               ",
"                                                          - ] ] > $ ; , , , - ] ] ] > $ ; , , , , , , , I I , , , , > , - 1 1 _ ) ) ) ) ) ) ) ) ) ) ) ! k p ) k i 1 ) 1 1 k p p p p p p p n t w m j s l i j B x w v n                                                                                                                                                                                                                                                             ",
"                                                          - ] ] > $ ; , , , - ] ] ] > $ ; , , , , , , , , , , , , , ) > I ) 1 _ ) ) ) ) ) ) ) ) ) ) ) ) ) I ) 1 1 ) ) ) ) ) 1 1 q q q q q q m t m i i q q q j n w w p ^                                                                                                                                                                                                                                                           ",
"                                                          - ] ] > $ ; , , , , ] ] ] > $ ; , I I , , , , , , , , , , ) > I ) 1 _ ) ) ) ) ) ) ) ) ) ) ) ) I I I ) 1 ) ) ) ) ) ) ) ) ) k i ^ n n l B B n l q 1 _ j n n i i ^                                                                                                                                                                                                                                                         ",
"                                                          I ] ] > $ ; , , I , ] ] ] > $ ; , , I , , , , , , , , , , { ) I ) 1 _ 1 ) ) ) ) ) ) ) ) ) ) ) I I I I I ) ! _ q k k i l n ^ ^ ^ B B B s s C G G t j 1 i k ) 1 ^                                                                                                                                                                                                                                                         ",
"                                                          , ] ] ] > $ ; , , , ] ] ] > $ ; , , I , , , , , , , , , , { > > - 1 _ 1 ) ) ) ) ) ) ) ) ) ) ) I I I 1 t r C G G G C t n n ^ j B l j l n s t s C E E E i _ ) I ^                                                                                                                                                                                                                                                         ",
"                                                          , ] ] ] > $ ; , , , - ] ] > $ ; , I I , , , , , , I , , , , > % I ) _ 1 ) ) ) ) ) ) ) ) ) ) ) I I ^ n m m t w w w t n n ^ ^ j B s n q 1 k n t s v v C E G G C w s                                                                                                                                                                                                                                                       ",
"                                                            ] ] ] > $ ; , , , - ] ] ] > $ ; , , , , , , , , I , , , , ) & I ) _ 1 q ) ) ) ) ) ) ) ) ) ) I i j n n n n n B B n n ^ j j p ^ B s m 1 ) 1 q n s s n v C E G G G x E                                                                                                                                                                                                                                                   ",
"                                                            ] ] ] $ , ; , , , - ] ] ] > $ ; , , , , , , , , , I , , , ) & I ) ) 1 q ) ) ) ) ) ) ) ) I I I j i l l l l l ^ ^ ^ ^ j p i k k k n s ^ ) ) ) q n n j j B v x G E v v C x E                                                                                                                                                                                                                                             ",
"                                                            - ] ] $ , ; , I I - ] ] ] > $ ; , I , , , , , , , , , , , I % I ) ) 1 q ) ) ) ) ) ) ) ) I I I p q p j j j j p p p i i i k q _ _ q p j i q ) ) q j q ! i n r v x r B w w w C x E                                                                                                                                                                                                                                       ",
"                                                            - ] ] $ { ; , , I - ] ] ] > $ ; , , I , , , , , , , , , , I ) I , ) 1 1 ! ) ) ) ) ) ) I I I I k _ q k i i i k k k k k q _ 1 1 ) q k k k i q ) ) ) ) 1 1 i n r v t ^ l m t w w w C x E                                                                                                                                                                                                                                 ",
"                                                            - ] ] ] > $ ; , , , , ] ] > $ ; , , I , , , , , , , , , , I ) ) I ) ! 1 1 ) ) ) ) ) ) I I I I ) 1 _ _ q q q q _ _ _ _ _ 1 1 ) ) ! ! ! ! ! 1 ) _ ) ) ) ) 1 k l B t j ^ l m t s w w w C x E                                                                                                                                                                                                                             ",
"                                                            - ] ] ] > $ ; , , > , ] ] > $ ; , , I I , , , , , , , , , I ) ! I ) ) ! 1 ) ) ) ) ) ) I I I I ) ) 1 1 _ _ _ _ _ _ i i i p p p j ^ n t t ^ ) ) ) 1 _ ) ) ! 1 _ p r k i p j j m t s w w w C x E                                                                                                                                                                                                                         ",
"                                                            , ] ] ] > $ ; , I I , ] ] > ) $ ; , I , , , , , , , , , , I ) ! I ) ) ! 1 ! ) ) ) ) ) I I I I I ) ) ) _ 1 1 1 j ^ l l l l l l n B B s x x C i ) ) 1 _ ) ) ) ) _ p 1 1 q k i j j m t t s w t t r                                                                                                                                                                                                                       ",
"                                                            > ] ] ] > $ ; , , I , ] ] ] > $ ; , I , , , , , , , , I , I ) ! ! , ) ! 1 ! ) ) ) ) ) ) I I - I I ) ) ) ) I k l ^ ^ ^ ^ ^ ^ ^ ^ n m m m s w v ^ _ ) ) 1 ) ) ) ) ) ) 1 1 1 q q q k k j l B B l p q                                                                                                                                                                                                                     ",
"                                                            1 ] ] ] > $ ; , , I , ] ] ] > $ ; , , I , , , , , , , I I I ) ! ! I ) ! 1 1 ) ) ) ) ) ) I I - - - I I ) I I i i p p p p p p p p p p j ^ l n m B j i i q _ ) ) ) ) ) ) ) 1 1 1 1 q q k k j ^ p p q I                                                                                                                                                                                                                   ",
"                                                              - ] ] > $ ; , I I , ] ] ] > $ ; , I I , , , , , , , , , I ) ) 1 - ) ! 1 1 ! ) ) ) ) ) ) I I , - - - - - ) k i i i i i i i i k k k k q _ ! 1 k k _ j B G v ^ q ) ) ) ) ) ) ) ) ) ^ l m r r r r m ^ q                                                                                                                                                                                                                 ",
"                                                              - ] ] ] > $ ; , , , ] ] ] > $ ; , I I I , , , , , , , I I ) ) 1 I ) ) 1 1 ! ) ) ) ) ) ) ) ) I I I I - - ) q _ 1 1 1 1 1 1 _ _ _ q q q 1 ) ) _ k 1 _ k i t x x E E F F G G G G G G G G G G G G G C w t p                                                                                                                                                                                                             ",
"                                                              - ] ] ] > $ ; , , , $ ] ] > $ ; , I I I , , , , , , , , I ) ) 1 ! - ) 1 1 1 ) ) ) ) ) ) ) ) ) ) I I - - ) _ 1 ) ) ) ) ) ) ) ) 1 _ _ 1 ) ) 1 ) _ ! 1 k k j l m n v x F G x v v v v v v v C x x x x E E G C w t                                                                                                                                                                                                       ",
"                                                              - ] ] ] > $ ; , I , $ ] ] > $ $ ; , I , , , , , , , , , I I ) ) q I ) ! 1 1 ! ) ) ) ) ) ) ) ) I I I - - ) 1 ) ) ) , , , , , ) ) ) 1 ) ) ) k ! k _ ! i j p m l k q B v w r r r r r r r r r r s w C x x E E G C w t                                                                                                                                                                                                   ",
"                                                              - ] ] ] > $ ; , , , $ ] ] ] > $ ; , I , , , , , , , , I , I ) ) q I ) ) 1 q ! ) ) ) ) ) ) ) ) I I I - - I 1 ) { { , , , , , , , ) ) ) ! ! q i k B k B n i n r p k q j r n n n n n n n n n n n m B r r r m m m l j p B                                                                                                                                                                                               ",
"                                                              , ] ] ] > $ ; , , , , ] ] ] > $ ; , , , , , , , , , , , I I ) ) q ! - ) 1 q _ ! ) ) ) ) ) ) ) I I I - - - - - { , , , , , , , , ) ) ) ) ! ! ! _ i _ k i k k _ ! ) 1 _ q i j j p p p p p p p j j j j j j j p p i q 1 i l                                                                                                                                                                                             ",
"                                                              > ] ] ] > $ ; , , I , ] ] ] > $ ; , , , , , , , , , , I I I I ) 1 q I ) ! 1 q ! ) ) ) ) ) ) ) I I I - - - - - - - , I I , k j p p p p p j k _ ! 1 _ ! ! ! ! ! ! ! 1 1 1 _ q i k k k k k k k k k k k k i i i i i q 1 ! k m                                                                                                                                                                                           ",
"                                                                ] ] ] > ) $ ; , I , ] ] ] > $ ; , , , , , , , , , , , , I I ) 1 q ) - ) 1 k q ) ) ) ) ) ) ) ) I I I - - - - - - I - , n n ^ j n n B B m m n j k ) ) ) ) ) ) ) ) ! ! ! ! ! 1 1 _ _ _ _ q k k k k k k k i i i k q 1 ) I q                                                                                                                                                                                           ",
"                                                                ] ] ] ] > $ ; , I , ] ] ] > $ ; , , I , , , , , , , , , , I ) ! q ! - ) 1 k q ! ) ) ) ) ) ) ) ) I I I I - - - - - I l j i i i j l m B t w C s m n k ) ) ) ) ) ) ) ) ) ) ) ) ) ) ) ) 1 1 _ _ q q q q q q q q q _ ! ) I )                                                                                                                                                                                           ",
"                                                                ] ] ] ] > $ ; , , , > ] ] > $ $ ; , , I , , , , , , , , I I ) ) 1 1 I ) 1 q q 1 ) ) ) ) ) ) ) ) ) ) I I I I - - - _ i q i q _ _ k p j l m B t B s t t ^ ^ ^ j j q _ _ ! ) ) ) ) ) ) ) ) ! ! ! ! 1 1 1 _ _ _ _ ! ) ) I I                                                                                                                                                                                           ",
"                                                                ] ] ] ] > $ ; , I , $ ] ] ] > $ ; , , I , , , , , , , , I I ) ) ! q ) - ! q k q ! ) ) ) ) ) ) ) ) ) ) ) ) I - - - _ k k q k k k _ _ _ q k p j l m t t v v v x x x x v m m m m m m m m m m m m m v G G G G G G G G E v n                                                                                                                                                                                           ",
"                                                                ] ] ] ] > $ ; , I , , ] ] ] > $ ; , , I , , , , , , , , , I I ) ) q ! - ) 1 k k 1 ) ) ) ) ) ) ) ) ) ) ) ) I - - - ! k _ 1 _ 1 1 _ _ _ _ _ _ _ k i p p p l B t s s t t t x G G G F F F F F F F G G x w s s s w C E G F F E n                                                                                                                                                                                       ",
"                                                                1 { ] ] > $ ; , I , , ] ] ] > $ ; , , , , , , , , , , , I I I ) ) q ! - ) 1 q k 1 ) ) ) ) ) ) ) ) ) ) ) ) I I - - I ! ! 1 1 1 1 1 ) ) ) ) ) ) ) 1 1 1 k p l n n B B B m m m m m t s s s s s t r r r r r r r r r t w x G F E n                                                                                                                                                                                     ",
"                                                                % ) ] ] > $ $ ; , , , ] ] ] > $ ; , , , , , , , , , I , , I I ) ) 1 q ) - ) 1 k q 1 ) ) ) ) ) ) ) ) ) ) ) ) I I , I I ) ! ! ! 1 1 1 1 1 1 1 1 1 1 1 1 k k q i p p ^ n n n n n n n n n n n n n n n n n n m B r r r r t v v v v l                                                                                                                                                                                   ",
"                                                                % > ] ] ] > $ ; , I , ] ] ] > $ ; , , , , , , , , , , , , , , I ) ! q ! - ) 1 k k 1 ) ) ) ) ) ) ) ) ) ) ) ) ) { { - I I I ) ) ! ! 1 1 1 1 1 1 1 1 _ _ _ 1 _ k k k k p j l l l l l l l l l l l ^ ^ ^ ^ ^ ^ ^ ^ l l l l l r r r r j                                                                                                                                                                                 ",
"                                                                  1 ] ] ] > $ ; , , , ] ] ] > $ , ; , , , , , , , , I I , I I I ) ) q ! - I 1 _ k q ) ) 1 ) ) ) ) ) ) ) 1 ) ) ) { I I I I I I ) ) ) ! ! ! ! 1 _ _ _ _ _ q q k q q k k k k p p p j j j p p p p p p p p p p j ^ ^ l l l l l l l n i                                                                                                                                                                                 ",
"                                                                  1 ] ] ] > $ ; , , , > ] ] ] > $ ; , I I , , , , , , , I , I I ) ) q q ) - ) _ k q ) ) 1 1 ) ) ) ) ) ) ! ) ) ) ) I I I - I I I I I ) ) ! ! ! 1 1 1 _ _ q k q 1 1 _ _ _ q k k i i k k k i k k k i p p p p p p p p p p p j p p i _ i                                                                                                                                                                               ",
"                                                                  % ] ] ] > $ ; , , , $ ] ] ] > $ ; , , , , , , , , , , , , , I ) ) 1 q ) - ) 1 _ q ! ) 1 i 1 1 ) ) ) ) q ) ) ) ) ) { I - - I I I I I , ) ) ) ) 1 1 ! ! ! ! _ _ ) I ) ) _ _ _ _ q _ _ k i k q q q k k k k k k k k k k k k k q _ _ k                                                                                                                                                                               ",
"                                                                  & ] ] ] > $ ; , , , , ] ] ] > $ ; , , I , , , , , , , , , , , I ) ! q 1 I - ) _ q k j l j i ) ) ) ) 1 k 1 ) ) ) ) ) I I I - - I I I I I I , ) ) ) ) ) ) ) ) ) I I I ) I ) ) ) ) 1 _ _ q 1 1 1 1 1 _ _ _ _ _ _ _ _ _ _ _ ! ) ) ) )                                                                                                                                                                               ",
"                                                                  & % ] ] > $ $ ; , , , > ] ] > $ ; , , I I , , I , , , , , , I I ) ! 1 q I - ) 1 q i m s C r i 1 ) ) q ^ i ! ) ) ) 1 ) { I I I - - I I I I I I I , I I ) ) I I I I I I I I , ) ) ) ) ) ) ) 1 1 1 1 1 1 1 1 1 1 1 1 1 ) ) ) ) I ) !                                                                                                                                                                               ",
"                                                                  & % ] ] ] > $ ; , , , > ] ] > $ ; , , , , , , , , , , , , , I I ) ) 1 q 1 - - ) 1 p t C F x r ^ q 1 k t n k ) ) ) k 1 ) I I I I - - - I I I I I I I I I I , I I I I I I I I I I I , ) ) ) ) ) ) ) ) ) ) ) ) ) ) ) ) ) ) , I I ) 1                                                                                                                                                                               ",
"                                                                  & % ] ] ] > $ ; , , , > ] ] > $ , ; , , , , , , , , , , I I I I ) ) 1 q 1 I - ) ) k B H W W F v ^ ^ ^ C t p q ) ) p i ) ) I I I I I - - - I I I - - - I I I I I I , I I I I I I I I I I I , ) ) ) ) ) ) ) , , ) ) ) , I I I I ) _                                                                                                                                                                               ",
"                                                                  & & ] ] ] > $ ; , , , > ] ] ] > $ ; , , I , , , , , , , , , , I I ) 1 q u ) - ) ) 1 p G W W W F v r n G E n i ! ) p j 1 ) ) ) I I I I I I - - - - - - I I I I I I I I I I I I I I , I I I I I I , , , , , , , , , I I I I I I ) q                                                                                                                                                                               ",
"                                                                    & ] ] ] > $ ; , , , > ] ] ] > $ ; , , , , , , , , I , I , I , I ) 1 q u 1 - I ) ) k C U W W W F v r G X v n i 1 p n p q q ! ) ) I I I I I - - - - - I I I I I I I I I I I I I I , I I I I I I I I , , , I I I , , I I I I ) 1 q                                                                                                                                                                               ",
"                                                                    = ] ] ] > $ ; , , , $ ] ] ] > $ ; , , , , , , , , , I , , I , , ) ) q d k ) I ) ) _ B H W W Y W F v E W W G r i l r n p k q 1 ! ) I I I I - - - - - - - - I I I I - - I I I I I I I I I I I I I I I I , I I I I I I I I I ) _ q                                                                                                                                                                               ",
"                                                                    = ] ] ] > $ , ; , , I ] ] ] > $ ; , , , I I , , I , , , , , , , , ) q f d u - ) ! _ p G Y V W W W x E W W H G l B s r m p p k q ! ) ) I I I I - - - - - - - - - - - - I I I I I I I I I I I - I I I I I I I I , I I I I I ) q                                                                                                                                                                                 ",
"                                                                    = % ] ] ] > $ ; , I I > ] ] > $ ; , , , I , , , , , , , , , , , , ) q f g d I I ! ) p C H V W W V G H W Y Y H s B s s s B j p k q 1 ) I I I I I - - - - - - - - - - - - I I I I I I I I I I - - I I I I I I I I I I I , ) ! q                                                                                                                                                                                 ",
"                                                                    = % ] ] ] > $ ; , I I ] > ] > $ , ; , , , I , , , , , , , , , , , ) 1 T e T ) - ! ) p B G W W W V W U U W W H G B s x s t m l p k i 1 ) I ) ) I - - - - - - - - - - - - - I I I I I - - - - - - I I I I I I I I I I I , ) 1 q                                                                                                                                                                                 ",
"                                                                    & % ] ] ] > $ ; , I I $ ] ] ] $ , ; I , , , , , , , , , , , , , , ) 1 f c Z u - ! ) p p C U V Y W V X X W U U H x s x v s B l j p i k 1 ) ) ) ) I - - - - - - - - - - - - - - - - - - - - - - - - - I I I I I I I , I ! ! _ q                                                                                                                                                                                 ",
"                                                                    & % ] ] ] > $ ; , I I $ ] ] ] > $ ; I , , , - , , , , , , , , , , ) 1 f c ` d I ! ) p k B H V W W W Y H H X X H G s x C v B m l j j i k ! ) ) ) ) - - - - - - - - - - - - - - - - - - - - - - - I I - - - I I I I ! ! ! ! q                                                                                                                                                                                   ",
"                                                                      % ] ] ] > $ ; , , I $ ] ] ] > $ ; - , , , , , , , , , , , , , , , 1 u `  .g I - - q 1 p G W V W W Y U U Y H H G w x C x s B m n j ^ p k 1 ) ) 1 ) - - - - - - - - - - - - - - - I I I I I I I - I I I - - I I I I I ! ! q                                                                                                                                                                                   ",
"                                                                      & ] ] ] > $ , ; , I $ > ] ] > $ , I , , I , , , , , , , , , , , , ) 1 `  ...u I - 1 1 k B H Y Y W Y U U U U U H C x C E s B m n n ^ j p k _ ) 1 ) - - - - - - - - - - - - - - - - I I I I I I I I I I I I I I I I I ) ! q                                                                                                                                                                                   ",
"                                                                      & 1 ] ] ] > $ ; , I $ > ] ] > $ , , , , I , , , ) > { , , , { , , ) 1 `  .+.d I - ! 1 q p G X Y X X U U U X F H G C C G C t B m n l ^ j p k 1 1 q ) - - - - - - - - - - - I I - - - I I I I I I I I I I I I I I I ! ) ! q                                                                                                                                                                                   ",
"                                                                      % 1 ] ] ] > $ ; , I $ > ] ] > > { , I - , , { , , - - - - I , { { I 1 g  . .e > - ) ! q p w U U U U U U U F F F F C v G C t B m n l ^ j p i q 1 q 1 - - - - - - - - - - - I I I - - - I I I I I I I I I I I I ! ! 1 1 1 q                                                                                                                                                                                   ",
"                                                                      1 1 ] ] ] > $ ; , I $ > ] ] ] > > , - , , , - - - - - - - - - - ) , ) u  . ...h - ) ) k q n x U U H H H F F F E E C v G C s t B m n l ^ j p i q 1 q 1 - - - - I I - - - I I ) I I I - - I I I I I I I I I I I I I ) ! _ q                                                                                                                                                                                   ",
"                                                                      % ) ] ] ] > $ $ ; , , > ] ] ] > $ ; , , , , , , , , , , , , , I , , I 1 `  .+.f I - ! k _ i w X H H H H F U F C C w w E C v B B m n l ^ j p i q 1 q 1 ) - - I I I I I - I I I ) I I I I I I I I I I I I I I I I I ) ! _ q                                                                                                                                                                                   ",
"                                                                      % > ] ] ] ] > $ ; , I $ ] ] ] > $ ; , , , , , , , , , , , , , , , , , 1 g  .@.e I - 1 k q i B x H H H F F G G C C C w C C C w B B m n l ^ j i i q q k 1 - - I I I I I - I I I I I ) I I I I I I I I I I I I I ) ) ! 1 _                                                                                                                                                                                     ",
"                                                                      % > ] ] ] ] > $ ; , I $ ] ] ] > $ ; , , , , , , , , , , , , , , , , , 1 u  .@...h I 1 i ) 1 p w F H H F F E E C C G w C w E w s B B m n l ^ p i q q q k ) - I I I I I I - I I I I I I I I I I I I I I I I ) ) ! _ _ _ 1                                                                                                                                                                                     ",
"                                                                        1 ] ] ] ] > $ ; , , $ ] ] ] > $ , ; , ; , , , , , , , , , , I I , I ) 1  .@.+.d I ! 1 ! q k B x F F F G G E E E C w C t C s s B B B m n l j i i q q k 1 - I I I I I I I I I I I I I ) ) ) I I I I I , I I I ) ! 1 1 1                                                                                                                                                                                     ",
"                                                                        1 ] ] ] ] > $ ; , , $ > ] ] ] > $ ; , ; , I I I , , , , , , , , I , ) 1 c @.@.g I - 1 % > q i t E E G G E C U w C C C r C w t B r B m n l ^ i k q q q k ) I I I I I I I I I I I I I ) ! 1 1 ) I I I ) ) I I I ) ! 1 1                                                                                                                                                                                     ",
"                                                                        % ] ] ] ] > $ ; , , , > ] ] ] > $ ; , ; , , , , , , , , , , , , , , , , d @.@.` > - ) { I 1 p n x E E G x C G G t C G B w s t r B B r m n ^ p k i q q k 1 - I I I I I I I I I I I I I I ) 1 q _ ) I I ) ) ! ) I ) ! 1                                                                                                                                                                                     ",
"                                                                        & ] ] ] ] > $ ; , , , $ ] ] ] > $ ; , ; , , , I , , , , , , , , , , , , 1 +.@.+.u > - I - 1 q p v G E x x v E t r s s n t s t r s t n m n l p i k q q k q - - I I I I I I I , , , , I ) ) ! i p i 1 ) , , 1 1 ) I ) 1                                                                                                                                                                                     ",
"                                                                        & % ] ] ] > $ $ ; , , $ ] ] ] > $ ; , ; , , , I I , , I , , , , , , , , ] ` @.@.d > - ) - 1 1 p t v C x x v s m l t s n l B s r s B n m n j j p k k q q k ) - I I I ) ! ! ! ) ) I , , I ) 1 _ q j l j _ ) I 1 1 ) I )                                                                                                                                                                                     ",
"                                                                        & % ] ] ] ] > $ ; , , $ ] ] ] > $ ; , ; , , , , , , , , , , , , , , , , ] d +.@.T > - - - 1 1 1 m s v C s r m k 1 k l ! 1 i m r s n l B m j j p i k q q k 1 - I I I ) 1 1 1 1 1 ! ) , , , ) ) 1 _ i n j _ 1 I 1 k ) I                                                                                                                                                                                     ",
"                                                                        & % ] ] ] ] > $ ; , , $ ] ] ] > $ ; , ; , , , , , , , , , , , , , , , , I ] < @.` > > - - 1 { 1 p n B n j p ! ! ! ! ! ! ! _ j j n n j B m j j p i k q q q k ) I I ) ) 1 1 1 _ q q q ) ) { , , ) ) _ q p j q 1 ) 1 k -                                                                                                                                                                                     ",
"                                                                        & % ] ] ] ] > $ ; , , $ ] ] ] > $ , ; ; ; , , , , , , , , , , , , I I I I ] + o D # > , I - - 1 1 p i q ! ! ! I I I I - - - ! _ p j _ j r j i p p i k q q k ) I I ! q q q _ k k i i p p p q ) , , ) _ k p p q ! ) !                                                                                                                                                                                       ",
"                                                                        & & ] ] ] ] > $ ; , , , ] ] ] ] > $ ; ; ; , , , I , , , , , , , , , , , I ] & D a # > , - - - , 1 ) I - I - ) ! I I I I I I - - ! ) - p j j i p p p k 1 q k 1 I I ! ! ! q i i i i i p ^ n l j q ) , ) 1 k p i 1 ) )                                                                                                                                                                                       ",
"                                                                          & ] ] ] ] > $ ; , , , ] ] ] ] > $ ; ; ; , , , , , , , , , , I , I , ) , - ] 5 3 < > , - - - , 1 I I - I I - - - - - - - I - - - - - ! _ p _ z p j k 1 q q q I I ! ! ! q k p k k q k p ^ n j j 1 ) , ) 1 i i q ) -                                                                                                                                                                                       ",
"                                                                          = ] ] ] ] > $ ; , , , ] ] ] ] > $ ; ; ; , , , , , , , , , , , I , , , , I ] : 3 D # , I - - I ) I - - - ] ] % % % % ] $ - - - - - - I I ! I ( j n i 1 1 q i ) I ! ! ! q q k p q 1 _ q p ^ i q i 1 ) , ) _ k q ) -                                                                                                                                                                                       ",
"                                                                          = ] ] ] ] > $ , ; ; , ] ] ] ] > $ ; ; ; , , , , I I , , , I , , , , , , , ] * a a # > I I I - , $ ] ] % & % % ] ] ] ] % % % > $ - - - I I I _ i n k ) 1 q k 1 I I ! ! q q _ q k _ 1 ! ! _ _ k q q ! , I _ _ ) -                                                                                                                                                                                         ",
"                                                                          = ] ] ] ] > $ , ; ; , $ ] ] ] > $ ; ; ; , , , , I I , , , I , , , , , , , ] # 2 3 + > , I I - I ] % . . % > ] ] > ] ] ] % > % % % $ - - I I ! q i ) ) 1 k q q I I ! ! ! q 1 _ q q _ 1 ! ) ! 1 ) 1 ! , , ) ) )                                                                                                                                                                                           ",
"                                                                          = % % ] ] ] > $ ; ; , $ ] ] ] ] $ ; ; ; , , , , I , , , , , , , , , , , I I ] : 3 < . , I I I > % . % % > > > > ] ] ] ] ] > > ] ] % % $ - I ) ! q ) ) ) q q k ) I ! ! ! 1 1 1 _ _ q _ 1 ! ) ! ! ! ! ) , I )                                                                                                                                                                                             ",
"                                                                          = % % ] ] ] > $ ; ; , $ ] ] ] ] > ; ; ; ; ; , , , I , , , , , , , , , I , I ] ' [ D # , - - , > . % % > > > , , > > > > ] > > $ > > ] > $ - - ) I ) - ) 1 q k 1 I ! ! ! 1 1 1 1 1 _ _ _ 1 ! ) ) ! ! ) , -                                                                                                                                                                                               ",
"                                                                            % % ] ] ] > $ ; ; , $ ] ] ] ] > $ ; ; ; ; I , , , , , , , , , , , , , , , ] # [ #.+ > - - - > % > $ > , > > > > ; $ > > ) $ $ > > $ ) > > $ - I I - ) 1 q k q I ) ! 1 1 1 1 ! ! 1 _ q q ! ) { ) ) ) , -                                                                                                                                                                                               ",
"                                                                            % % ] ] ] > $ ; ; , $ ) > ] ] > $ ; ; ; ; I , , , - , , , , , , , , , , , , . / #.< # - - - - % $ $ > > > > > ; ) > ; ) ) > , ) ) $ $ $ ] > > - - - ) ! q p q ) ) ! ! 1 ! ! ! ! ! ! 1 q q ) { { ) ) , -                                                                                                                                                                                               ",
"                                                                            % % ] ] ] > $ ; ; , $ > > ] ] > $ ; ; ; ; - , , , , , , , , , , , , , , ) , ] + #.[ # - - - - ; $ $ > , , > ; > > > ; > ; $ { > ) ; ; $ $ > ] $ - - I ! q p q ! ) ! ! ! ! ! ! ! ! ! ! q q ) ) { { ) - -                                                                                                                                                                                               ",
"                                                                            % % ] ] ] > $ ; ; , , > > ] ] > $ ; ; ; ; - , , , , , , , , , , , , , ) , , ] . [ b # - - - - I ; $ $ > I > > $ $ > ; ; ; ; > { { ; 1 > $ $ $ $ ] - I I ! q ! ! ) ) ! ) ) ) ! ! ! ! ! ! ) ) ) { - - -                                                                                                                                                                                                 ",
"                                                                            & & ] ] ] > $ , , ; , > ) ] ] ] $ ; ; , , I , , I , , , , , , , , , , ) ) , I . 2 b < > - - - - ; $ $ I ; > ; > > ; ; $ $ { ; ) , ) ; ; $ $ > ) ] ] $ I I I ) ! ) ) ! ) ) { ) ) ! ! ! ) ) ) ) { - - ,                                                                                                                                                                                                 ",
"                                                                            & & 1 ] ] ] > $ $ ; , > ] ] ] ] $ ; ; , , , , , I , , , , , , , , , , , I ) I . + @.D # - - - - ; $ ; ] $ > > { { $ > ; > $ ; ; { ) > ; ; > > $ $ > > > - ) ) ! - I ! ) ) { { ) ) ) ) ) ) ) ) { - I                                                                                                                                                                                                   ",
"                                                                            % % 1 ] ] ] > $ $ ; , $ ] ] ] ] > $ ; { { , I - , , { { , , - - , , - I , , I % * b a # > - - I ; ; $ { $ ; $ > $ ; ; $ ; ; ; $ ; ; ; ; ; ; $ ; $ , > ] ] I I ) - I ) ) { - { { ) ) ) ) { { { - -                                                                                                                                                                                                     ",
"                                                                            & % ] ] ] ] > $ ; , , $ ] > > ] > $ ; ; ; , - , , , - - - , - - , , - - - ) , ] & 5 3 < > - - - ; ; ; $ > $ > $ $ > ; $ $ ; ; ; $ > ; ; > ; ; ; ; $ $ > > ] - - - I ) ) { - - { { { { { { { - -                                                                                                                                                                                                       ",
"                                                                            & & ] ] ] ] > $ ; , , $ ] ] ] ] > $ ; $ $ - , , , I , , , , , - , , - - - , , I % 2 3 D # - - - - ; $ $ $ ; ; ; $ I > $ $ ; > ; ; { > ; ; > ) , ; $ I $ > > $ - - I ) ) { - - - - { { { - -                                                                                                                                                                                                           ",
"                                                                              & ] ] ] ] > $ ; , , $ ] ] ] ] > $ , , , , - I , , , , , , , - , , , - - , , , % : a a # > - - - ; ; ; $ ; > ; $ ; $ $ $ ; ; ; ; ; ; ; - , ; I - $ $ $ 1 ] > % - I { ) { - - - - - - - - -                                                                                                                                                                                                           ",
"                                                                              = ] ] ] ] > $ ; , , $ ] ] ] ] > $ ; ; ; , , I , , , , , , - , , , , - - , , , % # 2 3 # > - - - ; ; ; $ ; $ $ ; ; ; $ $ $ $ $ ; $ > ; > ; $ ; ; $ $ ; > $ $ > % - I ) { - - - - - - - -                                                                                                                                                                                                             ",
"                                                                              = ] ] ] ] > $ , ; ; , ] ] ] ] > > ; ; ; , , , , , , , - , - - - - , - , , , I I & : 3 < . - - - - ; ; ; $ $ ; ; ; ; ; ; $ - ; ; ; $ ; ; $ $ ; ; ; $ > $ $ $ > ] % I { { - - - - - - -                                                                                                                                                                                                               ",
"                                                                              = ] ] ] ] > $ , ; ; I $ ] ] ] ] > ; ; ; , , , } - - - - , - - - - , - , , I , I & ' [ D # - - - - ; ; $ ; $ $ ; ; ; ; ; $ ; ; > > $ $ ; $ ; ; ; > ; ; $ $ ; $ > ] % - - - - -                                                                                                                                                                                                                       ",
"                                                                              = % % ] ] ] > $ ; ; I $ ] ] ] ] > > ; ; , , , , , , , , , , > - - - , , , , , , & # [ #.# > - - - - - - - - - - - - - - - - - - - $ $ ; $ ; ; $ $ $ ; ; ; ; $ $ $ % % - - -                                                                                                                                                                                                                         ",
"                                                                              = % % ] ] ] > $ ; ; - $ ] ] ] ] ] > ; ; ; ; , , , , , , I , I , - - , I , , , , % # / #.< # - - - - - - - > % % . @ + + @ . % ] ; - - - - - $ ; ; $ $ ; ; ; ; $ $ ] % % - {                                                                                                                                                                                                                         ",
"                                                                              = % % ] ] ] > $ ; ; I $ ] ] ] ] ] > ; ; ; ; , , , - - - - - - - - , , , , , , I , & + #.[ # - - - - ; > % . % > $ $ ; $ $ ; > % . . % % > - - - ; ; ; $ ; ; ; $ $ $ ] %                                                                                                                                                                                                                             ",
"                                                                                % % ] ] ] > $ ; ; I $ ) > ] ] ] > ; ; ; ; , , , - - - - - - , - , , , , , I I I & # [ b # > - - > . % ] ; $ ; ; ; ; ; ; - ; ; $ $ > % # % > - - - ; ; $ ; ; ; $ $ > ] .                                                                                                                                                                                                                           ",
"                                                                                & % ] ] ] > $ ; ; $ $ > > ] ] ] > ; ; ; ; , - - - - - - - - - - - , , , - , I I % # + b < > - > . % > ; ; $ ; $ ; ; ; ; ; > > $ $ $ ; ; ; > # > ; - - ; ; ; ; ; $ $ ] .                                                                                                                                                                                                                           ",
"                                                                                & % ] ] ] > $ ; ; $ , > > ] ] ] > ; ; ; ; - - - - - - - - - - - - - - , , , I I I & + 3 D # > . % > $ ; $ $ ; $ ; ; ; ; ; ; $ ; ; ; ; ; ; $ ; ; ] > ; - - ; ; ; ; $ ] ] .                                                                                                                                                                                                                         ",
"                                                                                & & ] ] ] > $ , , $ , > ) ] ] ] > > ; , , - - - - - - - - - - - - - - , , , , , I & = o a # > . % > $ $ ; ; ; ; ; ; ; ; ; ; ; ; ; ; ; ; ; ; ; ; ; ; ] ] ; - - ; ; $ $ ] .                                                                                                                                                                                                                         ",
"                                                                                = & 1 ] ] ] > $ $ $ , > ] ] ] ] > > ; , , - - - - - - - - - - - - - - , , , , ) , % = 5 3 < > % > { ; $ ; ; ; $ ; ; ; ; ; ; ; ; ; ; ; > ; ; $ ; ; ; ; ; > > ; - ; ; $ ] % .                                                                                                                                                                                                                       ",
"                                                                                = % 1 ] ] ] > $ $ $ , $ ] ] ] ] > > ; { { , - - - - - - - - - - - - - - , , , , , I = : 3 D # % > { ; ; ; ; ; $ ; , , , ; ; ; > ; ; ; ; ; ; > ; ; ; ; ; ; ; ] ; - ; $ $ ] ] .                                                                                                                                                                                                                     ",
"                                                                                = 1 1 ] ] ] > $ $ $ , $ ] > > ] ] > ; ; ; , - - - - - - - - - - - - - - - , - , , , & j [ a # > > ; ; ; ; ; ; ; ; ; $ ; ; ; ; ; ; $ $ ; ; ; ; ; ; $ $ ; , , , ] > - ; $ ] ] .                                                                                                                                                                                                                     ",
"                                                                                = 1 > ] ] ] > $ $ $ , $ ] ] ] ] ] > ; $ $ , - - - - - - - - - - - - - - , , - , , , & k 2 3 # > > ; ; ; ; ; ; ; ; ; ; ; ; ; ; ; ; ; ; ; ; ; ; ; ; ; ; ; I ; ; ; > ] - $ > ] ] .                                                                                                                                                                                                                   ",
"                                                                                  & > ] ] ] > $ $ $ , $ ] ] ] ] ] > , , , , - - - - - - - - - - - - - - , , , , , I I q : 3 < . > { ; ; ; ; $ ; ; ; ; ; ; ; ; ; ; ; ; ; ; ; ; ; ; ; ; ; I ; ; ; ; $ ] - ; $ ] .                                                                                                                                                                                                                   ",
"                                                                                  & > ] ] ] > $ $ $ , $ ] ] ] ] ] ] > , , ; - - - - - - - - - - - - - - - - , , , , I q ' [ D # > { ; ; $ $ ; ; ; ; ; ; ; ; > ; ; ; ; ; ; ; ; ; ; ; ; ; ; ; , - - ; ; ] - ; ] ] .                                                                                                                                                                                                                 ",
"                                                                                  & > ] ] ] > $ $ $ ; , ) ] ] ] ] ] > , , ; , - - - - - - - - - - - - - - - , , , , , 1 j < #.# > { ; ; ; $ ; $ ; ; ; ; ; ; ; ; ; ; ; ; ; $ $ ; ; ; ; ; ; ; , I - ; ; ; ] ; ; ] .                                                                                                                                                                                                                 ",
"                                                                                  = % ] ] ] ] $ $ $ ; I ] ] ] ] ] ] > , , ; , - - - - - - - - - - - - - - - , - , , , 1 j / #.< # { { ; ; ; ; ; ; ; ; ; ; ; $ ; ; ; ; ; $ ; ; ; ; ; ; $ $ ; ; ; ; ; ; ; ; % ; ; ] ]                                                                                                                                                                                                               ",
"                                                                                  = % > ] ] ] > > $ $ $ ] ] ] ] ] ] > > $ ; , - - - - - - - - - - - - - - - - , , , , 1 i + a [ # > { ; ; ; ; ; ; ; ; ; ; $ ; ; ; > ; ; ; ; ; ; ; $ ; ; ; $ ; ; ; ; ; ; ; ; % ; ; ]                                                                                                                                                                                                               ",
"                                                                                  = & % ] ] ] > $ $ ; ; $ > > > ] ] ] > ; ; ; ; - - - - - - - - - - - - - , , , - , I I % # + b < > - ; ; ; ; ; ; ; ; ; ; ; ; ; ; ; ; ; ; ; ; ; ; ; ; ; ; ; ; ; ; ; ; ; ; ; ] % ; ] ]                                                                                                                                                                                                             ",
"                                                                                    & % ] ] ] > $ $ ; ; $ > > > ] ] ] > ; ; ; ; , - - - - - - - - - - - - , , , - , I I % # + b < > - ; ; ; ; $ ; ; ; ; ; ; ; ; ; ; ; ; ; ; ; ; ; ; ; ; ; ; ; ; ; ; ; ; ; ; ; ] % ] ]                                                                                                                                                                                                             ",
"                                                                                    & % ] ] ] > $ $ ; ; $ > > > ] ] ] > ; ; ; ; - - - - - - - - - - - - - - - , , , I I I & + 3 D # > ; ; ; ; ; ; ; $ ; ; ; ; ; ; ; ; ; ; ; ; ; ; ; ; ; ; ; ; ; ; ; ; ; ; ; ; $ ] ] ] ]                                                                                                                                                                                                           ",
"                                                                                    & & ] ] ] > $ $ , , $ , > ) ] ] ] > > ; , , - - - - - - - - - - - - - - - , , , , , I & = o a # > ; ; ; ; ; ; ; $ ; ; ; ; ; ; ; ; ; ; ; ; ; ; ; ; ; ; ; ; $ $ $ ; ; ; ; ; ; $ ] ] ]                                                                                                                                                                                                           ",
"                                                                                    = & 1 ] ] ] > > $ $ $ , > ] ] ] ] > > ; , , - - - - - - - - - - - - - - - , , , , ) , % = 5 3 < > ; ; ; ; ; ; ; ; ; ; ; ; ; ; ; ; ; ; $ $ ; ; ; ; ; ; $ ; ; ; ; $ ; ; ; $ ; ; $ > ] ]                                                                                                                                                                                                         ",
"                                                                                    = % 1 ] ] ] > > $ $ $ , > ] ] ] ] > > ; { { , - - - - - - - - - - - - - - - , , , , , I = : 3 D # ; ; { ; ; ; ; ; ; ; ; > ; ; ; ; ; ; ; ; $ ; ; ; ; ; ; ; ; ; ; ; $ ; $ ; ; ; $ > ] ]                                                                                                                                                                                                         ",
"                                                                                    = 1 1 ] ] ] > > $ $ $ , > ] > > ] ] > ; ; ; , - - - - - - - - - - - - - - - - , - , , , & j [ a # > ; ; ; ; $ ; ; ; ; ; ; ; ; , ; $ ; ; $ ; ; ; ; $ $ ; ; ; ; ; ; ; ; ; $ ; $ ; $ > ] .                                                                                                                                                                                                       ",
"                                                                                    = 1 > ] ] ] > > $ $ $ , > ] ] ] ] ] > ; $ $ , - - - - - - - - - - - - - - - , , - , , , & k 2 3 # > ; ; ; ; $ ; ; ; ; ; ; ; ; I ; ; $ $ ; $ $ $ ; ; ; ; ; ; ; $ ; ; ; ; $ ; $ ; $ > ] .                                                                                                                                                                                                       ",
"                                                                                      & > ] ] ] > > $ $ $ , > ] ] ] ] ] > , , , , - - - - - - - - - - - - - - - , , , , , I I q : 3 < . ; { ; ; ; ; ; ; ; ; ; ; ; ; $ ; ; ; $ $ $ $ ; ; ; $ $ ; ; $ ; ; ; ; $ ; $ ; ; $ > ] ]                                                                                                                                                                                                     ",
"                                                                                      & > ] ] ] > > $ $ $ , > ] ] ] ] ] ] > , , ; - - - - - - - - - - - - - - - - - , , , , I q ' [ D # > { ; ; ; ; ; ; ; ; ; ; ; ; $ $ ; ; ; ; ; ; $ $ ; ; ; ; ; ; ; ; ; ; ; ; ; ; ; $ > ] ]                                                                                                                                                                                                     ",
"                                                                                      & > ] ] ] > > $ $ $ ; , ) ] ] ] ] ] > , , ; , - - - - - - - - - - - - - - - - , , , , , 1 j < #.# > { { ; ; ; ; ; ; ; ; ; ; ; ; ; ; ; ; ; ; $ ; ; ; ; ; ; ; $ ; ; ; ; $ ; ; ; ; ; $ > ] ]                                                                                                                                                                                                   ",
"                                                                                      = % ] ] ] ] ] $ $ $ ; I ] ] ] ] ] ] > , , ; , - - - - - - - - - - - - - - - - , - , , , 1 j / #.< # { { ; ; ; ; ; ; ; ; ; ; ; ; ; ; ; ; ; ; ; ; ; ; ; ; ; ; ; $ ; ; $ ; ; ; ; ; ; $ > ] ]                                                                                                                                                                                                   ",
"                                                                                      = % > ] ] ] ] > > $ $ $ ] ] ] ] ] ] > > $ ; , - - - - - - - - - - - - - - - - - , , , , 1 i + a [ # > { ; ; ; ; ; ; ; ; ; ; ; ; $ ; ; ; ; ; ; $ $ ; ; ; ; ; ; ; ; ; ; ; ; ; ; ; ; ; $ > ] ]                                                                                                                                                                                                 ",
"                                                                                      = % > ] ] ] ] > > $ $ $ ] ] ] ] ] ] > > $ ; , - - - - - - - - - - - - - - - - - - - - - - ' ' a D # > > { ; ; ; ; ; ; ; ; ; ; ; ; $ ; ; ; ; ; > > ; $ ; ; ; ; ; ; ; ; ; ; ; ; ; ; ; $ > ] ]                                                                                                                                                                                                 ",
"                                                                                        & ) ] ] ] ] > > $ $ $ > ] ] ] ] ] ] > $ $ ; - - - - - - - - - - - - - - - - - - - - - - ' : [ D < # % ; ; ; ; ; ; ; ; ; ; ; ; ; $ ; ; ; ; ; ; $ ; ; ; ; ; ; $ ; ; ; ; ; ; ; ; ; ; ; ; ; ; ;                                                                                                                                                                                               ",
"                                                                                                                                                                                                                                                                                                                                                                                                                                                                                  ",
"                                                                                                                                                                                                                                                                                                                                                                                                                                                                                  ",
"                                                                                                                                                                                                                                                                                                                                                                                                                                                                                  ",
"                                                                                                                                                                                                                                                                                                                                                                                                                                                                                  ",
"                                                                                                                                                                                                                                                                                                                                                                                                                                                                                  ",
"                                                                                                                                                                                                                                                                                                                                                                                                                                                                                  ",
"                                                                                                                                                                                                                                                                                                                                                                                                                                                                                  ",
"                                                                                                                                                                                                                                                                                                                                                                                                                                                                                  ",
"                                                                                                                                                                                                                                                                                                                                                                                                                                                                                  ",
"                                                                                                                                                                                                                                                                                                                                                                                                                                                                                  ",
"                                                                                                                                                                                                                                                                                                                                                                                                                                                                                  ",
"                                                                                                                                                                                                                                                                                                                                                                                                                                                                                  ",
"                                                                                                                                                                                                                                                                                                                                                                                                                                                                                  ",
"                                                                                                                                                                                                                                                                                                                                                                                                                                                                                  ",
"                                                                                                                                                                                                                                                                                                                                                                                                                                                                                  ",
"                                                                                                                                                                                                                                                                                                                                                                                                                                                                                  ",
"                                                                                                                                                                                                                                                                                                                                                                                                                                                                                  ",
"                                                                                                                                                                                                                                                                                                                                                                                                                                                                                  ",
"                                                                                                                                                                                                                                                                                                                                                                                                                                                                                  ",
"                                                                                                                                                                                                                                                                                                                                                                                                                                                                                  ",
"                                                                                                                                                                                                                                                                                                                                                                                                                                                                                  ",
"                                                                                                                                                                                                                                                                                                                                                                                                                                                                                  ",
"                                                                                                                                                                                                                                                                                                                                                                                                                                                                                  ",
"                                                                                                                                                                                                                                                                                                                                                                                                                                                                                  ",
"                                                                                                                                                                                                                                                                                                                                                                                                                                                                                  ",
"                                                                                                                                                                                                                                                                                                                                                                                                                                                                                  ",
"                                                                                                                                                                                                                                                                                                                                                                                                                                                                                  ",
"                                                                                                                                                                                                                                                                                                                                                                                                                                                                                  ",
"                                                                                                                                                                                                                                                                                                                                                                                                                                                                                  ",
"                                                                                                                                                                                                                                                                                                                                                                                                                                                                                  ",
"                                                                                                                                                                                                                                                                                                                                                                                                                                                                                  ",
"                                                                                                                                                                                                                                                                                                                                                                                                                                                                                  ",
"                                                                                                                                                                                                                                                                                                                                                                                                                                                                                  ",
"                                                                                                                                                                                                                                                                                                                                                                                                                                                                                  ",
"                                                                                                                                                                                                                                                                                                                                                                                                                                                                                  ",
"                                                                                                                                                                                                                                                                                                                                                                                                                                                                                  ",
"                                                                                                                                                                                                                                                                                                                                                                                                                                                                                  ",
"                                                                                                                                                                                                                                                                                                                                                                                                                                                                                  ",
"                                                                                                                                                                                                                                                                                                                                                                                                                                                                                  ",
"                                                                                                                                                                                                                                                                                                                                                                                                                                                                                  ",
"                                                                                                                                                                                                                                                                                                                                                                                                                                                                                  ",
"                                                                                                                                                                                                                                                                                                                                                                                                                                                                                  ",
"                                                                                                                                                                                                                                                                                                                                                                                                                                                                                  ",
"                                                                                                                                                                                                                                                                                                                                                                                                                                                                                  ",
"                                                                                                                                                                                                                                                                                                                                                                                                                                                                                  ",
"                                                                                                                                                                                                                                                                                                                                                                                                                                                                                  ",
"                                                                                                                                                                                                                                                                                                                                                                                                                                                                                  ",
"                                                                                                                                                                                                                                                                                                                                                                                                                                                                                  ",
"                                                                                                                                                                                                                                                                                                                                                                                                                                                                                  ",
"                                                                                                                                                                                                                                                                                                                                                                                                                                                                                  ",
"                                                                                                                                                                                                                                                                                  # # # # # #                                                                                                                                                                                     ",
"                                                                                                                                                                                                                                                                              & . & . = = = # %                                                                                                                                                                                   ",
"                                                                                                                                                                                                                                                            % % . . % ]     ] % % % % & . # * # >                                                                                                                                                                                 ",
"                                                                                                                                                                                                                                                          % % & & & % ] $ ] & ] ] ] ] % & # * = >                                                                                                                                                                                 ",
"                                                                                                                                                                                                                                                        > % % % % % ] > $ & % > > > > ] % . # . > -                                                                                                                                                                               ",
"                                                                                                                                                                                                                                                        = & % % % ] $ $ % % > $ { { > ] ] . = . ; -                                                                                                                                                                               ",
"                                                                                                                                                                                                                                                      % % ] ] ] ] ] $ $ & ] > $ $ { { ] ] . . ] ; -                                                                                                                                                                               ",
"                                                                                                                                                                                                                                                    > % > > > > > $ $ % % > , $ { { { > ] . % - -                                                                                                                                                                                 ",
"                                                                                                                                                                                                                                                    > > > > ; $ , $ $ % ] , , $ { { { ] % & % - -                                                                                                                                                                                 ",
"                                                                                                                                                                                                                                                  & % - $ $ $ , $ $ % % { , { { { { { ] % & > - )                                                                                                                                                                                 ",
"                                                                                                                                                                                                                                                - > - { { { $ , $ % % > , , { { { { > ] & ] - -                                                                                                                                                                                   ",
"                                                                                                                                                                                                                                                & ] - { { { , , $ % ] { , , { { { { > ] & > - -                                                                                                                                                                                   ",
"                                                                                                                                                                                                                                              $ ] - { { { $ , $ % % > , , $ { { { { ] % & - - )                                                                                                                                                                                   ",
"                                                                                                                                                                                                                                            - $ - - { { { , , $ % ] { , , { { { { > % % ] - -                                                                                                                                                                                     ",
"                                                                                                                                                                                                                                            ] ] - { { { , , , % % $ , , { { { { { ] % % > - -                                                                                                                                                                                     ",
"                                                                                                                                                                                                                                          ] > - { { { { , , , % > , , , { { { { > % % ] - - )                                                                                                                                                                                     ",
"                                                                                                                                                                                                                                        I > - - { { { , { , % % $ , , { { { { { > % % ] - ;                                                                                                                                                                                       ",
"                                                                                                                                                                                                                                      , > $ - { { ; { , , ] % $ , , , { { { { > ] % % > - -                                                                                                                                                                                       ",
"                                                                                                                                                                                                                                      ] ] - - { { ; , , $ ] ] { , , { { { { { > % % % - - )                                                                                                                                                                                       ",
"                                                                                                                                                                                                                                    - { - - { { { $ , , ] % $ , , , { { { { > ] % % > - -                                                                                                                                                                                         ",
"                                                                                                                                                                                                                                  - { - - { { { $ , , ] % ] , { , { { { { { > % % % - - -                                                                                                                                                                                         ",
"                                                                                                                                                                                                                                - { { - - { { $ { , $ ] % { , , , { { { { > ] % % > - ; )                                                                                                                                                                                         ",
"                                                                                                                                                                                                                                , , - - { { { $ , - ] % ] , { , { { { { { > % % % > - -                                                                                                                                                                                           ",
"                                                                                                                                                                                                                              - $ - - - { { { , { > ] % { , , { { { { { > ] % % % - - -                                                                                                                                                                                           ",
"                                                                                                                                                                                                                            - $ $ - - { { { $ , - ] % ] , , , , { { { { > % % % > - - )                                                                                                                                                                                           ",
"                                                                                                                                                                                                                            - I - - $ { { $ , - $ ] % { , , { { { { { $ ] % % % $ - -                                                                                                                                                                                             ",
"                                                                                                                                                                                                                          - I - - - { { $ { , $ > % $ , , , { { { { { > % % % > - - -                                                                                                                                                                                             ",
"                                                                                                                                                                                                                        - - $ - - { , { { , - ] % ] , , , , { { { { $ ] % % % ] - - )                                                                                                                                                                                             ",
"                                                                                                                                                                                                                      - - I - - - { , { { , $ ] % $ , , , { { { { { > % % % % $ - -                                                                                                                                                                                               ",
"                                                                                                                                                                                                                      , - - - - , , { , , , ] % ] , , , { { { { { $ ] % % % > ; - -                                                                                                                                                                                               ",
"                                                                                                                                                                                                                    - - , - - , { { , , , { ] % , , - , , { { { { > % % % % > - - ) 1                                                                                                                                                                                             ",
"                                                                                                                                                                                                                  - { , - - - , , , , , , ] % ] , , , { { { { { $ ] % % % ] $ - - 1 k i                                                                                                                                                                                           ",
"                                                                                                                                                                                                                  - - - - - - , , , , , $ % ] - , , , , { { { { ] % % % % > ; - ) 1 p i                                                                                                                                                                                           ",
"                                                                                                                                                                                                                - - { - - - I , , , , , ] % , , , , { { { { { $ ] % % % % $ - - 1 k ^ i                                                                                                                                                                                           ",
"                                                                                                                                                                                                              - - - - - - - , , - , , , % ] , , , , { { { { { > % % % % % ; - - 1 p ^ i q                                                                                                                                                                                         ",
"                                                                                                                                                                                                            - - , - - - , I , , - , , ] % , , , , , , { { { $ ] % % % % > - - - p n ^ i q                                                                                                                                                                                         ",
"                                                                                                                                                                                                            - , - - - - , , , - , , $ % > , , , , { { { { { > % % % % % $ - - 1 p n ^ i q                                                                                                                                                                                         ",
"                                                                                                                                                                                                          - , , - - - , , , , - , , % ] , , , , , { { ) { $ ] % % % % > ; - - 1 m m l i q 1                                                                                                                                                                                       ",
"                                                                                                                                                                                                        - - I - - - - , , , ; , , $ % $ , , , , { { { { { > % % & % % $ - - 1 p m l p q 1 1                                                                                                                                                                                       ",
"                                                                                                                                                                                                        , , - - , - , , , ; - , , % > , , , , , { { { { $ ] % % & % % ; - - 1 n t l i 1 ) )                                                                                                                                                                                       ",
"                                                                                                                                                                                                      , - I - - - , , , , , , - $ % $ , , , , { { { { { > % % & & % > - - - p n m p ! ! ! 1                                                                                                                                                                                       ",
"                                                                                                                                                                                                    - I - - - - - - , , $ , , , % $ , , , , , { ) { { $ ] % % & & % $ - - 1 n n p 1 q q k t                                                                                                                                                                                       ",
"                                                                                                                                                                                                  - , , - - , - - - , , - , , > > - , , , , { { { { { > % % & & & > ; - - i n n ) q i q n w E                                                                                                                                                                                     ",
"                                                                                                                                                                                                  , , , - - - - , , , , , - , % > , , , , , { { { { $ ] % % & & % $ - - 1 l m l - ) q 1 i t C E                                                                                                                                                                                   ",
"                                                                                                                                                                                                { { { - - - - - , , , , , , > > , , , , , { { { { { > % % & & & % ; - - q l m i - ) ) ) q l t G v                                                                                                                                                                                 ",
"                                                                                                                                                                                              - { - - - , - , , , , , , - , % } , , , , , { { { , $ ] % % & & % > - - - i l k i ! q l i ) k n v G x                                                                                                                                                                               ",
"                                                                                                                                                                                              I - , - - - - , , , , - , , % > , , , , , { { { { { ] % % % & & % $ - - 1 p p ! p ! l r B i ) k n C G x                                                                                                                                                                             ",
"                                                                                                                                                                                            - I - - - - - , , , , , , - > > , , , , , , { { { { $ ] % % & & & ] ; - - k p p - ! { ^ r B B i P p m v G v                                                                                                                                                                           ",
"                                                                                                                                                                                          - ) I - - - - - , , , , - , , % $ , , , , , { { { { { ] % % % & & % $ - - 1 p p q - - - _ n r s j q i j n t B n                                                                                                                                                                         ",
"                                                                                                                                                                                          - ) - - - - - - , , , , , - > > } , , , , , { { { { $ ] % % . & & % ; - - 1 p q 1 q q q p 1 n m v n q q p n v r i                                                                                                                                                                       ",
"                                                                                                                                                                                        - ) - - - - - I , , , - , , > % $ , , , , , { { { { { ] % % % . & % > - - ) p k 1 k q ! ^ j - ) ^ B v n q q ^ r ^ p                                                                                                                                                                       ",
"                                                                                                                                                                                      ! - - - - - - - I , , , , , $ % $ , , , , , , { { { { $ ] % & . . & % ; - - 1 p q ! q 1 1 p n j - - ^ B v r q 1 1 1 1                                                                                                                                                                       ",
"                                                                                                                                                                                    1 - - - - - - - , , , $ I , , % > ; , , } , , { { { { $ ] % & . = . % > - - ) k p ! { q ! 1 p n n P - ) l s v t i 1 1 -                                                                                                                                                                       ",
"                                                                                                                                                                                    , - , - - - - - I , $ , - , $ % $ , , , , { , { { { { ] % % . = = . % > - - 1 p p ! - ! ) { _ l l j - ) k l r G m 1 - -                                                                                                                                                                       ",
"                                                                                                                                                                                  - ) - - - - - - I I , $ , , $ % > ; , , , , , { { { { $ ] % & = = = & % ; - - k l p ! - - - { 1 p l p i - 9 p B E w k -                                                                                                                                                                         ",
"                                                                                                                                                                                - ) , - - - - - - , , ; ; , , > % $ , , , , , , { { { { ] % . = * = . % > - - ) p l p ! { - - - ) 1 p p p ) - P ^ x G l k                                                                                                                                                                         ",
"                                                                                                                                                                              - ) { , - - - - - , , , ; , , $ % > , , , , , , { { { { $ ] % . # * = & % - - - 1 l l p ! ) { - _ 1 ) k p p i - { k B w w k                                                                                                                                                                         ",
"                                                                                                                                                                              ) { , - - - - - I , , , , , , % > { , , , , , , { { { { ] & . = @ * = & > - - - k l j q ) ! I _ ^ l 1 q p p p _ - _ j r w B k                                                                                                                                                                       ",
"                                                                                                                                                                            - ! { - - - - - - - , ; ; , , $ % ) , , , , , , 7 { { { > ] & = * @ * = % > - - ) p l p q ) ! I _ n B i ! i i j ^ ) P k l n B k                                                                                                                                                                       ",
"                                                                                                                                                                          - ! { , - - - - - , , ; , , , ; % > { , , , , , , { { { { ] & . * + @ * = ] - - - 1 l l p q ) ) I _ ^ B l 1 1 p l B ^ ) P ( p p )                                                                                                                                                                       ",
"                                                                                                                                                                          ! { , - - - - - - , , ; , , , > % ) , , , , , , I { { { ] & . # ' + @ = % > - - - q l l k ) ) ) I q p n B p ) p l t v i - ) _ P -                                                                                                                                                                       ",
"                                                                                                                                                                        ! ) { - - - - - - , , , , , , $ % > { , , , , , - { { , > ] & # ' / + * = > - - - ) k l j ! ) ) ) I 1 ( p ^ l q k j t v x u - - { -                                                                                                                                                                       ",
"                                                                                                                                                                      - ) { , - - - - - , , , , , , , % ) ) , , , { { , { { , { ] & = ' : / + = & > - - - k p l k ! ) ) ) ) ! _ i j B ^ ! i B v x x P - } -                                                                                                                                                                       ",
"                                                                                                                                                                    - ) { , - - - - , - , , , , , , $ % ) { , , , , { , { { { > ] & * : 2 / + = > > - - - k l l k ! - ! ) ) 1 _ ( p j l k ( j B s x r - - -                                                                                                                                                                       ",
"                                                                                                                                                                    ) { - - - - - - - , , , , , , , % > ) , , , , ) { , { { { ] & = + 2 < / ' = > - - - ) p l l 1 ! - ! ) , ) 1 q k p B l ) k j n r v r - -                                                                                                                                                                       ",
"                                                                                                                                                                  - ) { - - - - - - - , , , , , , > % ) { , , , { ) { , { { > ] & * / 8 < / * % > - - - k l l j 1 ! - - ! ) ) 1 _ _ p n r p ! k j n v v ^ -                                                                                                                                                                       ",
"                                                                                                                                                                - ) { - - - - - - - , , , , , , , % > ) , , , , ) { { { { { ] & = : [ [ < ' = ] - - - ) k l l p 1 ) - - ! ) , ) q _ p l t r p 1 i j m r r p                                                                                                                                                                       ",
"                                                                                                                                                              - ) ) { - - - - - - , , , , , , , > % ) { , , , { ) { { { { ] & = * < D [ 2 * & $ - - - k j l l p 1 ) I - - ! I , I ) _ i n B t p ) i l m r k                                                                                                                                                                       ",
"                                                                                                                                                              ) ) { - - - - - , - , , , , , , $ % > ) { , , , ) ) { { { > ] & # / D o [ : = & { - ; - k l l j p 1 ) I - - ! ) , , { ) _ l B v s p k p j p k k                                                                                                                                                                     ",
"                                                                                                                                                            - ) { - - - - , - - , , , , , , , % ] ) { , , , { ) { { { { ] & = @ < o J [ + & > - - ; ) j l l p p 1 ) I - - - ! I , , { P p n t v s p _ k q P )                                                                                                                                                                     ",
"                                                                                                                                                          - ) ) { - - - - - - , , , , , , , > % ! ) { , , { ) ) { { { > ] & R 2 [ J J < * & { - ; - k j l j p p 1 1 ) I - - ! ) , , I ! i j l t w v p ! ! ) ,                                                                                                                                                                     ",
"                                                                                                                                                          ) ) { - - - - - - - , , , , , , , % ! ) { , , , { ) { { { { ] & = ' 6 o 4 a / = > - } $ $ k i i j p p 1 q ) I - - - ! ) ! ! q _ i j n t t B p 9 { ,                                                                                                                                                                     ",
"                                                                                                                                                        ) ) ) { - - - , - - , , , { { , , > 1 ! { , , , { ) ) { { { > & = @ < a 4 K a * & { - ; ; > ) ) q q i p k k ) ) I - - - ! I I ) ! q i j l n r w p - ,                                                                                                                                                                     ",
"                                                                                                                                                      { ) ) { - - - - - I - , , , { { , ) % 1 ) { , , { ) ! ) { { > ] & = + 6 b N K < = % } - $ - { { ) ) ) q q p k 1 ) I - - - ! , I { ) P q i p ^ B G r p -                                                                                                                                                                     ",
"                                                                                                                                                      ) ) ) - - - - - - - , , , , { { ) % q 1 ) { , { ) 1 ! { { { ] & = @ 2 D K N a ' & > - ; $ - , , { { { ) 1 q p 1 k ) I - - ! , I I ) 9 P q i p B C G r p                                                                                                                                                                     ",
"                                                                                                                                                    ) ) ) { - - - , - - , , , , { { { ) q 1 ) { , { ) ! 1 ! { { > & = = : 6 K N 4 < = & { - $ ; $ > > > , , { ) 1 q k k ) ) I - ! ) , , ) 9 P 1 ( p ^ B C r l k                                                                                                                                                                   ",
"                                                                                                                                                  { ) ) ) - - - , - , - , , , { { { ) % q 1 ) { { ) ) 1 1 ) { { ] & = @ < a L N a ' & % - ; $ - > > > % % > , - { 1 q k ! ) I - - ) ) ) 1 ! ! 1 q k p ^ B r l k                                                                                                                                                                   ",
"                                                                                                                                                  { ) ) - - - - - - - , , , , { { ) > q 1 ! ) { ) ) 1 q 1 { { > & = @ : [ K N 4 < = & > - $ ; - > > ] % & % ] - - { 1 q q ) ) - - - ) ) ) ) ! 1 P _ k j r B l k                                                                                                                                                                   ",
"                                                                                                                                                - ) ) { - - - - - ~ - , , , { { { ) % q ! ) { ) ) 1 k q 1 { { ] & = ' 2 o 4 N a 2 & % { - $ - $ ] > % . & & % $ , , { 1 k ) 1 - I - I I I I ) ) 9 ! _ k l l l k                                                                                                                                                                   ",
"                                                                                                                                              ) ) ) ) - - - - - - - - - { { { { ) % q 1 ! ) { ) ) 1 q 1 ) { > & = @ ' D b N K < + & > - ; $ - $ > ] % & & . & % > - , ) q ) 1 I ) I - I , I I ) ) ) 9 _ i p p k                                                                                                                                                                   ",
"                                                                                                                                            - ) ) ) ) { , , I I - , { { { { { ) > % q ! ! ) { { ) ) 1 ) { { & = * ' < K L N 3 2 = & { - $ ; - $ > % & & & . & & % > , , ) 1 1 ! ) I ) - - , I I I { { ) 1 q i k                                                                                                                                                                   ",
"                                                                                                                                          - ] ] ] % % % ] $ $ $ $ { { { { { ) ! 1 q 1 ! > & * + + @ # . & % & # ' 2 a L N K [ ' & ] - ; $ - $ $ > % . = . & & & . % $ , { 1 1 ! ) I ) - - - - - , I I I I ! k k                                                                                                                                                                   ",
"                                                                                                                                          > - - - - ; % = = % { { { { { ) ) ! ! q q & = # ] > > > > > % . # # @ ' < K N N 3 2 * & > - $ ; - $ $ $ $ . . & . & . . & % , , ) 1 ! ) I I - - - , , , , I ) ) ) k                                                                                                                                                                     ",
"                                                                                                                                        > > - - - - - - - - - = ] ) ) ) ) ! ! 1 q # # ] ; ; - - - - - - - - % . @ ' o M N [ / # & ; - $ - - $ $ $ $ $ % & . . . . . & > , { 1 1 ) I - I - , I I I I ) q _ ) k                                                                                                                                                                     ",
"                                                                                                                                      > - - - - - - - - - - - - ] # ) ! ! ! ! 1 # . ; - - - - - - - - - - - - > % @ < J 3 < ' # ] - ; $ - $ $ $ $ $ $ $ ] % & . . . # & > , ) 1 ) I - I ! ! I I ) ) ) q i _                                                                                                                                                                       ",
"                                                                                                                                    % > - - - ~ - - - - - - - - - ] # . % ! ! # . $ - - - - - - - - - - - - - - - $ + < D : # . ; - $ ; - - - - $ $ $ $ $ ] % . . . # # & , { 1 ) I - I I q ! ) ) ) q q i                                                                                                                                                                         ",
"                                                                                                                                    % - - ; ; $ - - - - - - - - - - ] ' + 2 2 ' ] ; - - - - - - - - - - - - - - - - % + < : # % - - $ - - - - - - - $ $ $ $ ] % . . # = # % , ) ) I - - I ! q ! ! q i i q                                                                                                                                                                         ",
"                                                                                                                                    % - - ; $ $ - - - - - - - - - - - # ' + + # ] ; - - - - - - - - - - - - - - - - $ . / : . ] - ; ; - - - - - - - - - $ $ $ ] % . . = # & , { ) I - - I I ! q q i q q                                                                                                                                                                           ",
"                                                                                                                                  = % - ; ; $ $ $ ; - - - - - - - - - ] # ' ' # > $ $ - - - - - ~ - - ~ - - - - - - - > + : & ; - $ - - - - - & ' ' @ # & - $ $ ] . . = # # % , ) - - I I ) q q ! q                                                                                                                                                                               ",
"                                                                                                                                  = % ] > > > > > $ ; - - - - - - - - ] . # * . % > > $ ; } } ~ ~ } } ~ - - - - - - - > * * ] - - $ - - - ] & # = * * ' : : % $ $ ] . = = # & , { I I ) I _ ! ) q                                                                                                                                                                                 ",
"                                                                                                                                  = > ] ] ] ] > > $ ; - - - - - - - - - . . # . & % > $ ; } } ~ ~ } } ~ - - - - - - - - # # $ - ; ; - - > > % & # * * @ ' @ : : $ $ ] . = # . , { I I 1 1 1                                                                                                                                                                                       ",
"                                                                                                                                  = % % % % % > > > $ ; ; - - - - - - - = & % . . . % ] ] ; } } } } } - - - - - - - - - = # $ - $ - - - > % % & # = # # # * ' ' : ; ; ] & # # , { I 1 1                                                                                                                                                                                           ",
"                                                                                                                                p = & & & & & % > $ $ ; ; - - - - - - - # & % # # . . % ] ] $ } } } } - - - - - - - - - & # $ ; ; - - - > ] & . . = . . # # * * ' : > > & # = 1 1 1                                                                                                                                                                                               ",
"                                                                                                                            q p ^ m # # # # . & $ $ $ ; ~ } } } ~ ; - ] # = = @ + = = . % $.%.&.%.&.%.&.%.*.- - - - - - & & $ $ ; - - - $ ] ] & & % & & . = # = * ' # } % . =                                                                                                                                                                                                     ",
"                                                                                                                          q p n n r + + =.-.k =.] $ $ ; ; ~ ~ ; $ - - & # * * ' + ' = *.%.-.%.&.%.;.%.>.%.&.%.*.- - - > & % $ $ - - - $ ] % % . & % & & . # * * # * ' ] - % #                                                                                                                                                                                                     ",
"                                                                                                                      1 q p n m s w ,.=.-.%.&.&.%.-.] ; ; ~ ; ; $ - % * # # @ + : 2 ' =.%.-.%.&.%.;.%.>.%.;.%.-.- - - ] & > ] - - - - $ ] % & . . . & . . # = # * * * # - % #                                                                                                                                                                                                     ",
"                                                                                                                    1 1 n t t s x ,.=.-.) &.;.%.=.%.-.=.] $ ] ] ] % * & % ~ ~ ~ & * '.=.%.-.%.&.%.;.%.>.%.;.%.-.,.- ] & % $ ; - - - $ ] % & & & & & . % . . # = = * * ' ] > #                                                                                                                                                                                                     ",
"                                                                                                                  1 u n n w w t ,.=.-.%.&.;.%.=.%.-.=.%.-.& & & & * & % ~ - - - - - '.=.%.-.%.&.%.;.%.>.%.;.%.-.,.] % % ] ; - - - - ] % . . & & & = & . & . . = = # R ' = > .                                                                                                                                                                                                     ",
"                                                                                                              1 1 ).n r r r s ,.=.-.!.&.;.!.>.%.>.=.%.%.~.. & * & & $ ~ ~ - - - - - '.=.%.-.!.&.!.;.!.>.!.;.%.-.,.% > $ - - - - - ] . % . . . . . = & & . . = = = * R ' @ - -                                                                                                                                                                                                     ",
"                                                                                                            1 1 p m r v v {.,.=.-.,.&.;.'.].!.-.^.%.%.~.=.$.% % $ ; - - - - - - - - '.=.!.-.'.&.'.;.'.>.'.;.%.-.,.$ $ - - - - - - # . % . . & & . . & . & = . . = . * * @                                                                                                                                                                                                         ",
"                                                                                                          { f n ^ r w v {.= $ > ] % ~.=./.'.-.(.%.%.~.%.-.-.] > - - - - - - - - - - '.=.'.-.,.&.,.;.,.>.,.;.!.-.,.- - - - - - ] . @ . % & & & & & & & & . . = # = = . * @                                                                                                                                                                                                         ",
"                                                                                                      , u t n r s w w = $ $ > ] % = = = *.-._.'.!.(.%.-.>.=.] - - - - - - - - - - - '.=.,.-.=.&.=.;.*.>.=.;.'.-.,.- - - - - ] . ' + % & & & & & & & . . & = = = = = = * #                                                                                                                                                                                                         ",
"                                                                                                    ! ! l t m r w x : / < < / + * = = * * :.,.'.(.!.-.>.=.$.] { - - - - - - - - - - '.=.=.> % & . = = = % *.,.-.,.%.- $ $ % . ' : @ % . & & . * . & . . . . . = = . . * R                                                                                                                                                                                                         ",
"                                                                                                ) ( ( p m m r x v + @ @ + / / 8 5 5 = * * * =.:.'.-.>.=.>.-.{ { - - - - - - - - - %.'.$ > % % % & . = # * @ # & ,.!.- $ % . * : 2 # % . . & . . = & . % & & = . = . . = R                                                                                                                                                                                                         ",
"                                                                                              ( p p l l m r w w + * & > > > & = + #.#.* @ ' + =.-.>.=.>.-.] { { - - - - - - - - - %.$ $ > > % % & . = # * : * = & '.- % . * : [ < % & . . & & . . & % & . . & & . = . = #                                                                                                                                                                                                         ",
"                                                                                            ! T j j j t r r r + * % > & % & = % > = M b ' + ' * >.=.>.-.,.] { { - - - - - - - - - %.$ $ % ' / 5 b M #.5 / * * * = ] > . # ' < 8 ' % . & . & . & . & . . & . & . . . = = =                                                                                                                                                                                                         ",
"                                                                                        { ( j p j r r t w t x @ = % % > > > # + ' > = b 5 * @ * =.$.-.,.% { { { - - - - - - - - - % $ ' / [ [ + = & = + ' [ / ' * & . # ' 2 2 / = % & . & & = . & . % & . & & = . . = = =                                                                                                                                                                                                         ",
"                                                                                      _ u p p p t m m s w v 2 @ # % & & % % > @ o ' > 2 5 ' * = &.-.,.# ] { { { - - - - - - - - - % ' < < + = % > > > % = + < < ' & # ' : : : @ = % . & & . . & . . . . & & . . & . = = .                                                                                                                                                                                                         ",
"                                                                                    ! T j l l l r r r x x x 2 + @ @ . % . % . # @ [ % = 2 / = = -.,.' & ] { { { - - - - - - - - - ' / + = > # + [ o + # = > = + / ' * ' ' ' ' # & & . . & . & & & . & . . & . & & & . . =                                                                                                                                                                                                         ",
"                                                                                { ( l l p l r m w t x x x v 2 / + @ . + . . . ' > ' > % / / = = !.!.* % { { { { - - - - - - , , { : @ & > & & > > > > > & & > % # : @ @ @ @ @ # % . & . . = . & . % . & . . = . . . & . .                                                                                                                                                                                                         ",
"                                                                              { _ u l r l t m m s w v E E w : 2 / ' # + % 2 . % % # % > : : = = !.* = ] { { { { - - - - - - , , { + * > & % > % ' # . % > % & > & + # # # # # = % & . & & & . . & . & . & & & . . . . . .                                                                                                                                                                                                         ",
"                                                                            ( f q s l s t r n t w v G G t E F : < < = @ a % . . % % > % + ' = = * = = ] { { { { - - - - - , , , , @ & > & > % > % . % ] % > & > & * = = = = = = % . . & & & = & & & . . & & & = . % & & &                                                                                                                                                                                                         ",
"                                                                                                                                                                                                                                                                                                                                                                                                                                                                                  ",
"                                                                                                                                                                                                                                                                                                                                                                                                                                                                                  ",
"                                                                                                                                                                                                                                                                                                                                                                                                                                                                                  ",
"                                                                                                                                                                                                                                                                                                                                                                                                                                                                                  ",
"                                                                                                                                                                                                                                                                                                                                                                                                                                                                                  ",
"                                                                                                                                                                                                                                                                                                                                                                                                                                                                                  ",
"                                                                                                                                                                                                                                                                                                                                                                                                                                                                                  ",
"                                                                                                                                                                                                                                                                                                                                                                                                                                                                                  ",
"                                                                                                                                                                                                                                                                                                                                                                                                                                                                                  ",
"                                                                                                                                                                                                                                                                                                                                                                                                                                                                                  ",
"                                                                                                                                                                                                                                                                                                                                                                                                                                                                                  ",
"                                                                                                                                                                                                                                                                                                                                                                                                                                                                                  ",
"                                                                                                                                                                                                                                                                                                                                                                                                                                                                                  ",
"                                                                                                                                                                                                                                                                                                                                                                                                                                                                                  ",
"                                                                                                                                                                                                                                                                                                                                                                                                                                                                                  ",
"                                                                                                                                                                                                                                                                                                                                                                                                                                                                                  ",
"                                                                                                                                                                                                                                                                                                                                                                                                                                                                                  ",
"                                                                                                                                                                                                                                                                                                                                                                                                                                                                                  ",
"                                                                                                                                                                                                                                                                                                                                                                                                                                                                                  ",
"                                                                                                                                                                                                                                                                                                                                                                                                                                                                                  ",
"                                                                                                                                                                                                                                                                                                                                                                                                                                                                                  ",
"                                                                                                                                                                                                                                                                                                                                                                                                                                                                                  ",
"                                                                                                                                                                                                                                                                                                                                                                                                                                                                                  ",
"                                                                                                                                                                                                                                                                                                                                                                                                                                                                                  ",
"                                                                                                                                                                                                                                                                                                                                                                                                                                                                                  ",
"                                                                                                                                                                                                                                                                                                                                                                                                                                                                                  ",
"                                                                                                                                                                                                                                                                                                                                                                                                                                                                                  ",
"                                                                                                                                                                                                                                                                                                                                                                                                                                                                                  ",
"                                                                                                                                                                                                                                                                                                                                                                                                                                                                                  ",
"                                                                                                                                                                                                                                                                                                                                                                                                                                                                                  ",
"                                                                                                                                                                                                                                                                                                                                                                                                                                                                                  ",
"                                                                                                                                                                                                                                                                                                                                                                                                                                                                                  ",
"                                                                                                                                                                                                                                                                                                                                                                                                                                                                                  ",
"                                                                                                                                                                                                                                                                                                                                                                                                                                                                                  ",
"                                                                                                                                                                                                                                                                                                                                                                                                                                                                                  ",
"                                                                                                                                                                                                                                                                                                                                                                                                                                                                                  ",
"                                                                                                                                                                                                                                                                                                                                                                                                                                                                                  ",
"                                                                                                                                                                                                                                                                                                                                                                                                                                                                                  ",
"                                                                                                                                                                                                                                                                                                                                                                                                                                                                                  ",
"                                                                                                                                                                                                                                                                                                                                                                                                                                                                                  ",
"                                                                                                                                                                                                                                                                                                                                                                                                                                                                                  ",
"                                                                                                                                                                                                                                                                                                                                                                                                                                                                                  ",
"                                                                                                                                                                                                                                                                                                                                                                                                                                                                                  ",
"                                                                                                                                                                                                                                                                                                                                                                                                                                                                                  ",
"                                                                                                                                                                                                                                                                                                                                                                                                                                                                                  ",
"                                                                                                                                                                                                                                                                                                                                                                                                                                                                                  ",
"                                                                                                                                                                                                                                                                                                                                                                                                                                                                                  ",
"                                                                                                                                                                                                                                                                                                                                                                                                                                                                                  ",
"                                                                                                                                                                                                                                                                                                                                                                                                                                                                                  ",
"                                                                                                                                                                                                                                                                                                                                                                                                                                                                                  ",
"                                                                                                                                                                                                                                                                                                                                                                                                                                                                                  ",
"                                                                                                                                                                                                                                                                                                                                                                                                                                                                                  ",
"                                                                                                                                                                                                                                                                                                                                                                                                                                                                                  ",
"                                                                                                                                                                                                                                                                                                                                                                                                                                                                                  ",
"                                                                                                                                                                                                                                                                                                                                                                                                                                                                                  ",
"                                                                                                                                                                                                                                                                                                                                                                                                                                                                                  ",
"                                                                                                                                                                                                                                                                                                                                                                                                                                                                                  ",
"                                                                                                                                                                                                                                                                                                                                                                                                                                                                                  ",
"                                                                                                                                                                                                                                                                                                                                                                                                                                                                                  ",
"                                                                                                                                                                                                                                                                                                                                                                                                                                                                                  ",
"                                                                                                                                                                                                                                                                                                                                                                                                                                                                                  ",
"                                                                                                                                                                                                                                                                                                                                                                                                                                                                                  ",
"                                                                                                                                                                                                                                                                                                                                                                                                                                                                                  ",
"                                                                                                                                                                                                                                                                                                                                                                                                                                                                                  ",
"                                                                                                                                                                                                                                                                                                                                                                                                                                                                                  ",
"                                                                                                                                                                                                                                                                                                                                                                                                                                                                                  ",
"                                                                                                                                                                                                                                                                                                                                                                                                                                                                                  ",
"                                                                                                                                B m m m m                                                                                                                                                                                                                                                                                                                                         ",
"                                                                                                                        m l l l B B B r s s s                                                                                                                                                                                                                                                                                                                                     ",
"                                                                                                                      l l t t s v s s s s w x w w                                                                                                                                                                                                                                                                                                                                 ",
"                                                                                                      l l l l       l t t t s s v v s s s E E E w w r                                                                                                                                                                                                                                                                                                                             ",
"                                                                                                  n s v v v B m l l t v v s s v v v s t s C E G E C w r                                                                                                                                                                                                                                                                                                                           ",
"                                                                                                p s C v v v v v v v v s t s v s v t t t s C E E F X w w                                                                                                                                                                                                                                                                                                                           ",
"                                                                                      l v v p p l r C C s s t s s v s s s x G G x s t t s s s E F X X w w                                                                                                                                                                                                                                                                                                                         ",
"                                                                                  p l s r s p l r C C C s B B r r t w w w x G G x s t t s s s s E F X X w w                                                                                                                                                                                                                                                                                                                       ",
"                                                                                  p r B B k k l r C C s B B B r r r t w C x x x x s s m m s B B t E E F X w r                                                                                                                                                                                                                                                                                                                     ",
"                                                                              p l l r B q p l r C C s s B B B r r B B w w w w C C s m m m s m B B C E E F F w                                                                                                                                                                                                                                                                                                                     ",
"                                                                  B B s s B n p l m n q p l m r C C s B B B B B r B B t B t t w w v l l m s p j r w C E E F v w                                                                                                                                                                                                                                                                                                                   ",
"                                                              B B B B n p k p l n n n k p l r v v s s r r B B r B B B B B B B s s C i z l s p i n w w C C E F v w                                                                                                                                                                                                                                                                                                                 ",
"                                                              B B n ^ p q q p l m l k p l r s v v s B r r r r r B B B B t s s C v C j - q m ) n t v w t t C E F w t                                                                                                                                                                                                                                                                                                               ",
"                                                            B r n ^ p k k p l t B p i p l r v v s B B r r t r B B B B B t n j n v t j - q m 1 ^ v E v t B v v E E t                                                                                                                                                                                                                                                                                                               ",
"                                                            B m n p k k p j l t m i p l r s v v s B B r t r r m m B B B B n n j n B l 1 q j 1 r s E v t B B C C E x t                                                                                                                                                                                                                                                                                                             ",
"                                                          B m m ^ k k p l B t n i i p l r v v s r B B B t r m B B B B B B v s n ^ r n - q i 1 ! i n r v B B C C E F t                                                                                                                                                                                                                                                                                                             ",
"                                                          l l n i k k l l B t l i p l r s v v s B r B s t r r B B t t t w x v m p m j ) q ) , , ! ! ^ r l r s v C E F t                                                                                                                                                                                                                                                                                                           ",
"                                                        l p n ^ k k p l B t l i i p l r v v t B B B B s t t r B m t t s r m x B q n ) q q ) ; ; , , 1 i n r t s C C E F t                                                                                                                                                                                                                                                                                                         ",
"                                                        l p n i k k l l B t j i p l r v v v t B B B B s s r r m t m v v x r m r ) q ) q ) - - ; ; 1 q n r m p l s s E E E t                                                                                                                                                                                                                                                                                                       ",
"                                                      n p n ^ k k p l t t l i i i l r v s r B B B B B B s t m t t s s w x E r m ) ; - - ) - - - ! q l p q ! - 1 l t s x x t n                                                                                                                                                                                                                                                                                                     ",
"                                                      i p n i k k l t t B j i i l r s v s B B B B B B B t t t t t t s w C E v j p ; - ) - - - ! 1 1 1 ) - - ! 1 m t t w x x n                                                                                                                               ' ' ' ' ' ' ' '                                                                                                                                                       ",
"                                                      p n ^ k k p l t B l i i p l r v s r B B B B B B B t t t t t t s s s s F t i - - - - - - - - - - - - - ! k j m t w w x t n                                                                                                                         = = # . . . . = @ * *                                                                                                                                                     ",
"                                                    q p n i k k l B B l j i i j r s v t B B B t B B B B B B B B t t s s s s F B i - - - - - - - - - - - ! ! ! q j m t t t w C n                                                                                                                     = = & % { - - - - ] & @ * * *                                                                                                                                                 ",
"                                                    p n ^ k k p l B l l i i p l B t t r r t t t B B t B B m m m B t t t E F B i - - - - - - - - - - - ! i l k j m m j k ! m C t p                                                                                             ' ' @ * =           * * . > { - - - - - - ] * @ * # *                                                                                                                                               ",
"                                                  q p n i k k l B n l p i i p m t t t t t w v t t B B m B m m m m m t r C E F B i - - - - - - - - - - ~ - - ! ! ! k 1 ! - m w w p                                                                                         * * = * ' ' * . = = = * * . % { - - - - - - - - & @ * # # *                                                                                                                                             ",
"                                                  p n ^ k k p l B l l p i p m m t B r r r r v v s t B B m B B m m m r r s C C x ^ i 1 - - - - - - - - - , ! - - - - - - - k m w p                                                                                     * * . % > . + : + @ # * * * = % { - - - - - - - - - % ' * / + # *                                                                                                                                           ",
"                                                  p n i k k j B n l l i i j m t t B m m m m t v v v t m m m m B m B B r s w C x v B n p 1 - - - - - ! k k p p p p 1 1 - 1 p t m i                                                                                   * * . - - - - > ' : + * ' * . % > - - - - - - - - - - - ' * / / + # *                                                                                                                                         ",
"                                                p ^ ^ k k p j B l l p i i n t t B n n n n m B t v v s t m m m m B m m r s s s t t v v r n 1 - - - ! ! q ^ m m m n p p - p m m m i                                                                                 * * % - - - - - - . / + ' * = & > - - - - - - - - - - - - + ' < a 2 + * *                                                                                                                                       ",
"                                                p i k k k ^ B n l l k i j n t B B n n n n m m B s v v s t r m m B r r r r t t t t t t C r n 1 - - ! i ! q j m m n n n n m m m i                                                                                 * * % - - - - - - - ] 2 + + * & > ~ - - - - - - - - - - - - + : < 3 3 2 + * *                                                                                                                                     ",
"                                              p i k k k i n n l l p k p n B B B n n j j B B t s s s s s s t r m B r r r r r t t t t t v C r p 1 - ! i ) ) q p j j j j j j i !                                                                                 * * % - - - - - - - - - / / + = % { ; ~ - - - - - - - - - - % 2 : 5 3 K 3 2 + * *                                                                                                                                   ",
"                                              i k k k i ^ n l l p k p j m n m n n j j j l B B B r t t t t t r B m m r r t t t t t t t B r t r p 1 1 ! ! ! ! ! i i i i i q ! l                                                                                 * . % - - - - - - - - - + < + % > > $ ; ~ - - - - - - - - - . 8 6 a a K L 3 < + * *                                                                                                                                 ",
"                                            ! p k k i ^ n n l l p p j j n n n ^ j p p j l n n n n n n n n n n l l l m m t B B B t t B m l l r r l p p k ! ! ! ! ! ! ! ! ! i m l l                                                                           * * % - - - - - - - - - - * 5 * & % ] > $ ; ~ - - - - - - - - * 5 6 5 [ [ K N L < + * *                                                                                                                               ",
"                                          ! ^ p k i ^ n n l l l p l ^ j j ^ ^ j p p j l n n m m B B B B B B B n l n n n m m B B B B n n l l n B l n j j n n B B B t v v C G G G r l l                                                                       * . > } - - - - - - - - - * < = & & % ] > $ ; ~ - - - - - - > + 6 + @ @ < a K N L < + * *                                                                                                                             ",
"                                      ! p ^ n ^ i j n n n l p l l n n n ^ j j j j j l n m m m B B r r r r r r r B r m m m m m m B B n l l n B B m m m m B t t t t t v v E F H U X E r q                                                                   * . ] ] ~ } - - - - - - - - # / = & . & % ] > $ ; ~ - - - - - > 2 + & & q = : 5 K N 4 < 2 * *                                                                                                                           ",
"                                    , k k p ^ p k i j j j j j j j n l j j l n n n n n B B B B B B t t s s s s s s r r r r r r r r r r r r r r r r s s s t s t t t s v C F H H U X X G r q                                                                 * . ] $ ; ~ } - - - - - - - # : = * = . & % ] > $ ; ~ - - - - + < # 9 9 9 q = : < K N 4 3 2 * *                                                                                                                         ",
"                                    ! i i k k k k k k i j j j j j j j l l n m t t t t t m m m m m r r t r s s s s s s s s s s s s s s s s s s C C C C v v C t r t s v C F F F U U F E r q                                                                 * % ] > $ ; ~ } - - - - - > * @ @ * # = . & % ] > $ ; ~ - - = < ' % 9 9 9 9 q = @ : 5 N K 3 2 * *                                                                                                                       ",
"                                  i i l l l l n n n n n n n n n n n n n m r r r r r r r B B m m m m m B B r s s s s s s t s s t w s w w C E E E E E E x C v s r r t s C E G F F F F x r p ,.                                                            * * % % ] > $ ; ~ } - - - - % ' @ ' * * # = . & % ] > $ ; ~ = / + > { - - - 9 9 q = * : 5 K L 3 < * *                                                                                                                     ",
"                              p p l l B B r t m m m n n n n n m r r r r r r r r r r r r r m B t t r m m m r s s s t t t t t t s s w C C E E F F E E E x C v s r B m t s C C E E x x v r l q ,.                                                          * # % & % ] > $ ; ~ } - - - # ' ' + * @ * # = . & % ] > $ = + @ % > - - - - - 9 9 q i # ' [ K N L < * *                                                                                                                   ",
"                            i j m t t w v t r m n n n n n n n n m B r r s s s s s s s s s t m B t s t r m t r r t t s s s s s s C E E E E F U X U F E E v s s r B m m t t s C C v v v r l q '.,.                                                        * # % . & % ] > $ ; ~ } - % ' @ + : ' @ @ * # = . & % ] = @ * % { { - - - - - - 9 9 q i # < a K N L < * *                                                                                                                 ",
"                        i j n n r B B r B n l l l l l l l l j j j j j n n r r s v v v C s s t B m t s v t r m m r r s s s s s C x E E E F H U X X U E E v s t B n n n m m t s v s t v t l q ,.-.,.                                                      * * % = . & % ] > $ ; ~ } : @ @ ' < + ' @ @ * # = . & = * . ] { { { { - - - - - - 9 9 1 i = : 5 K N L < * *                                                                                                               ",
"                      k i p j j n n B r B n l ^ ^ ^ ^ ^ ^ ^ ^ ^ ^ ^ p j j j n B t t w C C C s t r m t v x v t m m m r r r s s C E E E G F F H U H F E E s s t B n n m m B t t s t n t m j 1 *.&.-.,.                                                    . * % # = . . % ] > $ ] : @ @ @ @ / < : + ' * * * = * . % { { 1 ) { - - - - - - - - - 9 1 q = : < K N 4 < + *                                                                                                             ",
"                      k i p p m t C C C t t t t v r r r ^ ^ ^ ^ ^ l m m r r r m m B t s w C C s t r m t C G v t m m m m r r s s w C x x x x E E F F E E s t r n n n m m B t r t n n n m 1 , &.=.$.-.,.                                                    * ' # # = . . % ] ] ' # . % . = ' + : < 5 < ' ' . % { { ) 1 k 1 { - - - , , - - - - - 9 9 q = @ < K N 4 3 2 *                                                                                                           ",
"                    k k l l l l m t s s s w v C x F F E E E v t n ^ p p l l m r r r B B r w C C s t m m t C G v t r m m n n r t s w C C x x x x E G E v t t r n n m m B l l l m p n m j , !.-.>.'.>.-.,.                                                  . # # # # # # = * = . > - { { ! % . = * * = . % > { { ) ) ! 1 q ) { , , , , , - - - - - 9 9 q = @ : 5 N K 3 2 *                                                                                                         ",
"                1 k p j j l l l l l l l n B r t v x F F F F G x C t m n n j j l l l m m B r w C x s r m t v G E v r r n n n n n r s s w C C x x x G x v r B n n n n m l l p l p i m l q , !.=.-.>.!.>.-.                                                    > # ' ' ' = = % > - { ) ! 1 { ! 1 1 1 ) { , , , { , , { { ) ) 1 ) { , , , , , - - - - - - 9 q = * : 5 K L 3 < *                                                                                                       ",
"            1 ) ! 1 k p j j p p k k i i k k k k p l n t t v v v v v v t m l j j ^ ^ ^ m n B r v x w r m m s x E v t m r B j j n n r s s w C C C x E x v r B n n n n l j p p i ! i m i , !.=.*.'.-.>.) >.-.                                                    { ) ) ) ) ) ) { { { { ) ! 1 , ! q i 1 ) { , { , , , , , { ) ) ! ) , , , , - , - - - - - - 7 q i # ' [ K N L < *                                                                                                     ",
"            { ) ) ) 1 k k k k k n n n n n j j j k k { { k l m n r w v v w t B n p k ^ ^ m m B t v C t m l t C x x v m m r n k i n l t s s w C C C C x s B B n n n l j i i k ! ! i l ! - '.,.'.&.!.-.>.! $.                                                      { { ) ! ! ) ) { { - { { ) 1 { ! 1 i 1 ) { { { { , , , , , { ) ) { , , , , , , , , - - - - 7 q i # < a K N L < *                                                                                                   ",
"          { { { { { { { q i r r l r t t t t B B B B j k 1 { { i i n r w v C w t B j k ^ ^ m m t s C r m l m w v v v r l l B j 1 i j l B t t s w w w s t B B n l l j i q q q ! q p k , %.'.,.'.!.&.%.-.>.k                                                           { ) ! 1 ! ) { - , { { { ) { ) 1 k 1 ) { , { { , , , , , { { ) { , , , , , , , - - - - - - 9 i = : 5 K N 4 < *                                                                                                 ",
"          { { { { ) i n r w x w l t t t t x x G x s w r j i 1 1 { { i n r v w C w B j k ^ j l B t v r m ^ m t v s v r l p n n 1 ) k i j B B B s s s B m n n ^ l l p k q ! ! ! i p ) , %.'.,.&.%.%.;.! -.~.                                                            { { ! 1 ! ) { , , , { { ) , ) 1 q 1 ) { { { { { , , I , { { ) { , , , , , , , - - - - - - 1 q = : < K N 4 5 *                                                                                               ",
"          { { { i n r v r w x w l t t t t x x G x s w r B B l i 1 { { { n m w w w w t j k p i n r s r m p n m w r t t m p j j k ) ) 1 i j m m m m m m ^ l ^ j ^ p k ! ! $ ! q p ) , %.!.&.!.-.;.) ! ^.1 $.                                                                { ! 1 ! ) { , , , { { , , { 1 q 1 ) { { { , { I I , - { { ) { , , , , , , , - - - - - - 7 q = @ : 5 N N a *                                                                                             ",
"          { i i n x w l r t t x B r w w v v x C E w r r t t m j p ! ! { { i n B s w x t j i q n r s r B p l m t m m r r p p p k ) { ) 1 p j j ^ ^ ^ ^ ^ ^ p i i k ! ! $ - $ k ) , %.%.&.!.&.%.-.^.1 1 ~.                                                                    { 1 1 ! ) { , , , - { , { { ! 1 1 ) { { , { { , , - , { { ) { , , , , , , , - - - - - - 9 q = * : 5 4 N < *                                                                                           ",
"      k i i n r w x w l t m G w r s s s x G C E v r m v t t n j p k 1 ! { { i n B t s v n 1 1 l r s r n i l m r n l r B p k i q ! , { 1 k p j j p p p p i k k k ) ) - - - ! ) - %.'.'.=.~.%.(.! -.^.k -.                                                                      { 1 1 ! ) { , , - - , , , , ! 1 ! ) ) { { , { { , , , { { ) { , , , , , - , - - - - - - 7 q i # ' 5 N L < *                                                                                         ",
"  k k i n n r r w x w l m l C w w r w w E G E x v B r s v v B n j p k k ! { { i n B t s s l ) n r s r l k l m r l l n m ^ k k q ! , , { q i i i p p i z _ _ 1 1 - , , ! ! ) , %.,.%.-.,.&.;.! <.1 -.&.                                                                          { 1 1 ! ) { , - - , , , , , ) ! ! ) ) { { { , { , , , , { ) { , , , , , , , - - - - - - 7 q i # : 5 N L < *                                                                                       ",
"k i n v G r r m r r t r r v E v r w x w x x t t t x x G x s w n B B l l i ! { { i m B t v r ) i n s B l k l m r l j n m ^ q ! q ) , , , ) _ _ q _ _ _ _ _ 1 1 , , , , , , , %.%.%.,.%.-.,.&.&.1 -.                                                                                  { 1 ! ) { - , , , , , , , { ! ) ) ) { , { { , , , , , { ) { - , , , , , , , , - - - - - 9 i j : K N 4 < *                                                                                     ",
"i n v t t m m r m m r r C x w l r t t x x r w w v v x C E w r n t t m m p k ! { { i j B t w i - ^ B n j k n m n j p j m ^ q ) 1 { , , , ) ) ) ) ) ) ) ) ) q ) !             %.%.%.%.%.%.-.k &.                                                                                        { 1 1 ) ) , , , , , , , , , ! ) ) ) { , , { , , I , , { { { , , , , , , , , - - - - - - 1 i j < K N 4 5 *                                                                                   ",
"w r v t m m m w w x r r w x w l t m G w x s s s x G C E v r n v t t v j p k 1 { { { i n B t l - q n n p q p m l p q i l p 1 { 1 { ) - , { { { { { { { - k ) 1                                                                                                                           { ) ) ) ) , , , , , , , , , ! ) ) ) { { { { - I I , - { { { , , , , , , , , - - - - - - 9 i @ : 5 N N a +                                                                                 ",
"G v m s w m w w w G r r w x w l m l C w w r w w E G E x v B r s v v t n j p k ! { { { ^ n B m q 1 p j k ) i p i ! q i ^ p 1 } { { 1 - ~ , ~ ~ - - q i i ) 1                                                                                                                                 ) 1 ) ) , , , , - - , , { { ! ) ) { , { { { , , - , { { { - , , , , , , , - - - - - - 7 i * : 5 4 N a +                                                                               ",
"x s s r G B r C G x r r t t x B t B x G v C C C x E x x s r n s B B B n j p i q ! { { i n n r i ) q k 1 - ! i q ! 1 i p j ! } } ! k - - , q l m l i ) ! 1                                                                                                                                     { 1 ) ) , , , , , , , , , { ! ) ) { { { { , , , , , { { , , , , $ , , , , - - - - - 7 q i # ' 5 N N a *                                                                             ",
"v s r r C v x x v r m t m G w r r t x x G G G s s t E x x C m B t l j j ^ j n p { { { { n n r i ) ! 1 ) - ) ! ! - k p j j ) ) 1 k 1 , , , 1 1 1 1 1 1                                                                                                                                           { ! 1 ) { , , , , , , , , , ! ) ) { { { { , , , , , , { , , $ ] $ , , - , - - - - - 7 q i # : 5 N N a *                                                                           ",
"s s C C w C x v t x x m l C w w n v x F G E v r v x G x s r n t n j j j l m l ( { { { { ^ n r i - - ) ) - - ! - q j m j q ) ) ! k k k k 1                                                                                                                                                         { 1 1 ) { , , , , , , , , , ! ) ) ) { , , { , , I , , - - $ ] ] $ , , , , , , , , - 7 9 i j : D N S D *                                                                         ",
"s E v x G F G x x G G t B x G v B C s x E x v B v E x w s r r B n j j ^ t l i i ! { { { i n m i - - - ! - - ! ! k 1 1 )                                                                                                                                                                               { 1 ) { { , , , , , - - , ! ) ) ) { { { { - I I , - $ ] & . % ] $ $ $ - - - - - - - 1 i j : 5 S S D :                                                                       ",
"C x E E x F x s G v s r t x x G r v x t E x v n t E x v r t r m n ^ m m m l p p ! { { { i n l q - - ! q - j j k                                                                                                                                                                                         { ) ) { { , , , - - , , { { ! ) ) { , { { { , , $ > % # ' * . ] ] ] > $ ; - - , , , 9 i j : 5 a S D '                                                                     ",
"G x x G G E x F v v v n v x F G s s v G v v v r t C v s t B n l m m l j j p ( k ! { { { i ^ i 1 - - j j ) p k                                                                                                                                                                                             - ) ) { { , - - , , , , , { ! ) ) { { { { , $ > % & ] > - - - - - ; $ > ; - , , , - 7 i j @ 2 5 N 8 .                                                                   ",
"E F E E E E G E C t n B C s x E x v B v E x w s r r B n j j n s ^ ^ i j p i ( q ! { { , i i 1 ) - - 1 k k                                                                                                                                                                                                   - { ] { , , , , , , , , , , ! ) ) ) { $ $ ] ] $ - - ] & . # # = ] - ; $ ; - - - - - 7 i j @ : 5 L 2 .                                                                 ",
"G x G G E v E G E s m r v x t E x v n t E x v r t r l n B s n B l j n m p ( ( ! { { { ! 1 1 ) q - 1                                                                                                                                                                                                           - { # ] , , , , , , , , , { { ! ) ) { $ $ $ % . # # # = . . & . * ; ; > ; - - - - - ) q j j 8 8 K : .                                                               ",
"C G E E C x C F E s F r s v G v v v r t C v s t B l l l m t n l ^ j m p p q q ! { { - q ) ) i ! - 1                                                                                                                                                                                               ' ' = ] ]     - { # ] , , , , , , , , , , { ! ) ) { % . # # # # & & ] % & & . ' % - $ ; - - - - - ) [.j ^ 8 [ K : .                                                             ",
"t E G E G G t x G G G x r v x v v v s t v s s t B t t m n B n l ^ n p j q ! ! { { { ! k i j ! - 1                                                                                                                                                                                             ' ' = % - - - - ]   - { & , , , , , , , , - - - - ! % . # # # # & % ] % % & ] % % . 2 % - $ , , - - - - ) 0 i j : < o : .                                                           ",
"C F H H E v C E E G F x C t x v v v s s C v s s v w B B ^ j p p ( i p p ! ) { { { - - - - - )                                                                                                                                                                                             ' ' = % - - - - - - - ]   , , , , , , , - - - - - - * ' ' ' @ * = % ] % % % % % ] % % % . 2 % - $ { , - - - - ) 0 i j @ < o : %                                                         ",
"x H H G G x C F E F F v w t w v v r t t v v t t v w B n j j i p q p p _ ) { { { { {                                                                                                                                                                                                   ' ' = % - - - - - - - - , , ] , , , , , - - - - - - * + + + ' @ = . % ] ] ] % ] ] % ] ] ] % % * ' - { { ) { - - - - - ) i j @ < [ 2 %                                                       ",
"x E E F C v F G x F w t r r s r v v s t s v t t s t m j p i k ( i ( ! ) ) { { { {                                                                                                                                                                                                 ' ' = % - - - - - - - - , , , , , , , , - - - - - - * : / / ' # i i ] ] ] ] ] ] ] ] ] ] > ] % > % % ' . { ) % ) - - - - - - ) 0 i @ : 2 ' %                                                     ",
"x F U U t s F x v E w w w s t r v x C C C v t t s m ^ j ^ i i p i ! { ) { { { {                                                                                                                                                                                               ' ' = % - - - - - - - - , , , , , , , - - - - - - - + 2 2 2 : # i i ] ] $ $ > > > ] > > > > > ] ] % > % = # ] % . . ) - - - - - - ) 0 p @ ' 2 ' %                                                   ",
"x F }.F C m F H C s s w w s r w v s C s s s t t B n n p p p ( k P { ) { { ) {                                                                                                                                                                                             ' ' = % - - - - - - - - , , , , , , , - - - - - - - + 2 < < < * i i ] $ $ > $ > > $ $ $ > > > > > > > % ) % % . ] % . * . { - - - - - - ) [.[.p ' 2 ' %                                                 ",
"x E G x x G x t t w s r l t l s t t s s s t r t n n j j p j k 1 { ) ) ) ) )                                                                                                                                                                                           ' ' = % - - - - - - - - , , , , , , , - - - - - - - + < 8 8 < @ = i $ $ $ ; $ $ $ $ $ $ $ $ $ $ $ $ ] $ $ $ % $ % & # - , , - ) { - - - - - - ) [.[.p ' 2 : &                                               ",
"v G C G x x s B m r t G w t s t m B s t s s r t ^ n ^ j j p q ) { ) ) ) P {                                                                                                                                                                                       ' ' = % - - - - - - - - , , , - - - - - - - - - - - 2 < 6 6 6 : = q ; ; ; ; $ $ $ $ $ $ $ $ $ $ $ $ ; ; ] ] $ ] $ % ] % # . = ' = - { { - - - - - - ) 1 [.[.' 2 ' &                                             ",
"C U H G x s v v s r t E v v s v s t t B t v m m m n ^ ^ p q ) { ) { ) ) P                                                                                                                                                                             - - - - - - - - - - - - - - - - , , - - - - - - - - - - - - 2 [ [ [ [ : = & ; ; ; ; $ ; > $ $ $ ; ; $ ; ; $ $ ; ; $ $ ] ] ] ] ] ] > # % & & = ; - { , - - - - - - ) 1 [.[.' 2 ' )                                           ",
"s F F F x C C x v r E E v t s t s t B t B s n ^ j ^ ^ p P ! ) { ) ) ) ) {                                                                                                                                                                         - - - > ; ] ] ] ] $ $ - - - - - , - - - - - - - - - - - - - 2 5 5 5 5 < = q ; ; > ; ; , ; ; $ ; > $ ; $ ; ; $ $ $ $ $ $ ; $ $ $ ] ] > ] . & & % = ; $ - { , - - - - - - - ) [.[.* 2 : %                                         ",
"s H G C x C v x r w C t t v t B B t n m ^ l ^ ^ p ^ p 1 ) ) ) ) ) ) ) ,                                                                                                                                                                       - - - > - - - ; $ > & = & ] $ - - - - - - - - - - - - - - * < D D D [ # i q ; ; ; ; ; ; $ ; ; ; ; ; $ $ ; ; $ $ ; ; $ > > > ; ) ) ; ] ] ] ] & = ] % = ; ; ; - { - - - - - - - - ) [.[.* / : %                                       ",
"m H G C v C C v v x t t m r s E s t m B j j n n l ^ k ! { ) ) { ) ) ) {                                                                                                                                                                     - - $ $ - - - - - - ; $ & # * = ] - - - - - - - - - - - * < a a a [ # i i ; ; ; ; ; ; ; $ $ $ ; ; ; $ $ ; ; ; ; ; ; ; $ ; ; ; ; ; > $ $ ] ] ] % # > % = ; ; ; ; - , - - - - - - - - 7 0 [.# + 8 %                                     ",
"w x G F C x G r x s s s t B s x t t B r l ^ ^ p i j 1 ) ) ) ) ) { ) {                                                                                                                                                                     - $ ! ) - - - - - - - - - ; % = ' * ] - - - - - - - - * < o o o [ * i q ; ; ; ; ; ; ; ; , ; ; $ ; $ $ ; $ $ ; $ ; ; ; ; $ ; $ $ ; ; ; ; ] ] ] ] % # ; % . ; ; ; $ ; - , - - - - - - - - 7 0 & # : 8 =                                   ",
"w U G C s F r r x v x w s r r m r B r ^ ^ ^ p p p k 0 { ) ) { { ~ {                                                                                                                                       - - - - - - -                 - $ 1 ) - - - - - - - - - - - $ % = / 2 $ - - - - - * < 3 3 3 3 / = q q ; ; $ ; ; ; > ; $ ; ; ; $ ; $ $ $ ; { ; $ $ $ ; $ ; ; $ $ $ $ $ $ $ ] $ > > # ; % . ; $ ; $ $ { - , - - - - - - - - ) 0 . # + < =                                 ",
"v U G E s G r s C v x C B s t r B t n ^ n p j p k k ) ) ; { , , { {                                                                                                                                   - - - - - - > > > - -           - $ 1 ! $ - - - - - - - - - - - - $ = ' a / $ - - * < #.#.#.#.: = q q ; ; ; ; ; ; ; ; ; ; ; $ ; ; ; $ > > > ; ) ; $ ; ; $ ; $ ; $ $ ; $ $ > ] $ > > > # ; % . ; > $ ; ; { ; - - - - - - - - - - 7 0 0 . @ / =                               ",
"v G G E m G m t s v v s s s B B l m m t ^ p p p k ! ) { ) { ~ ) }                                                                                                                                 - - - - - - - - - - % % . -         - 1 ! $ - - - - - - - - - - - - - - % * J M = * D 3 J J b : = q q ; ; ; ; ; ; ; ; ; $ $ ; ; ; ; ; ; $ ; $ $ ; ; ; $ ; ; $ ; $ ; ; $ ; ; $ > $ ] ] $ ] # ; % . ; $ > $ ; ; ; ; - - - - - - - - - - 7 0 0 . @ : =                             ",
"v U G E w v v x s s C r t r B m l ^ n ^ j i i ( 1 ! ) ) , { , ,                                                                                                                                 - - - - - - - - - - - - . / . -     - ; $ $ ; - - - - - - - - - - - - - - $ = / J [ 2 L K b : = q q ; ; ; ; ; ; ; $ ; > > ; ; ; ; ; ; ; ; $ ; ; ; $ ; ; $ ; $ ; $ ; ; I $ $ ; $ $ $ ] ] > > # ; % & ; > > > $ ; ; { ; - - - - - - - - - - 7 9 0 . @ / =                           ",
"x U G E w F t t t C B t t m s n n l p i i i ( 1 ! ) ; { { ~ ) }                                                                                                                               - - - - - - - - - - - - - - . / . - - - ; ; $ - - - - - - - - - - - - - - - - & + D [ [ b [ + q 7 ; ; ; ; ; > ; ; , ; ; ; ; > $ ; $ $ $ ; $ ; ; $ $ > > ; ; $ $ ; ; ; $ $ $ $ $ $ $ ] ; ] > > = I & & ; $ > > > $ ; ; ; - - - - - , { { , - - { 9 0 . * / =                         ",
"x F E v v E t t t s B s t m s B l l p j p i _ 1 ) ) ! { , , ,                                                                                                                               - - - - - - - - - - - - - - - - . % - - - ; ; ; - - - - - - - - - - - - - - - - % ' D [ < + i 1 7 ; ; ; ; ; ; ; ; $ ; ; ; ; ; $ { ; $ ; ; $ ; $ ; $ , ; ; ; ; $ $ ; ; ; ; $ $ $ $ $ > $ $ > $ ] . - . & ; $ > > > > $ ; ; - ! ! ! 1 ! - ) { { , - - 9 0 . @ / =                       ",
"x E v v v C C v m v B B n B m n n ^ p ( i k _ 1 ) ) ) { , ,                                                                                                                                 - - - - - - - - - - - - - - - - % - - - - - - - - - - - - - - - - - - - - - - - > = D [ + = ; ; ; ; ; ; ; ; ; ; $ $ $ ; ; ; ; ; ; ; $ ; ; $ ; $ ; ; ; ; $ $ > > $ ] $ ; $ $ $ ; ; $ $ ; $ ; $ ) & ; = & ; $ $ $ > > > $ ; ~ q q ^ l q ! - ! ) { , - - { 9 . * / =                     ",
"C v v B v E v m t s n m m ^ l l p k p p _ ! ! ! ) { , , , ,                                                                                                                               - - - - - - - - - - - - - - - - - - - - - - - - - - - - - - - - - - - - - - - - $ > + 5 2 . = - ; - ; ; ; ; ; ; , ; ; $ ; ; ; ; $ ; ; $ ; ; ; ; ; ; I I ; $ ; $ ) $ ] ; ; $ ; $ ; $ $ $ ; > $ $ > % ; # % ; $ > $ $ $ > > ; ) q q n m p q ! - ! ) { , - - { { % * + =                   ",
"w r n E x E v B s t l m m l n n i k p k 1 ! ! ! ) { , , ,                                                                                                                                 - - - - - - - - - - - - - - - - - - - - - - - - - - - - - - - - - - - - - - - $ % = 2 2 * ] * ; ; ; $ ; ; ; ; $ ; ; ; $ ; $ $ $ ; { ; ; ; ; ; ; ; $ $ $ $ ; $ $ ] $ $ $ $ ; ; $ $ $ $ ; ; $ $ $ > > ] * % ; $ $ $ > $ > ; ~ ! q p r r n p q ! - ! ) { , - - { { % * + =                 ",
"t r w F x x s r s m n n m j l l i k p q _ ! ! ! ) { , , ,                                                                                                                                 - - - - - { ) ! ! ) , - - - - - - - - - - - - - - - - - - - - - - - - - - - $ % = + ' # ] $ @ - ; ; ; ; ; ; ; ; $ ; ; ; $ > > > ; $ $ ; $ $ ; ; ; ; $ $ $ $ , > ; ] $ $ ; $ $ $ $ ; ; ; > $ $ $ > $ ] @ % ; $ $ ; $ $ $ ; ~ q q ^ r m r n p q ! - ! ) { , - - { > % * ' *               ",
"m n E C x v t s m n n ^ l ^ j i i i q _ ! ! ) ) ) { , ,                                                                                                                                   - - - { ! ! ) ) , - - - - - - - - - - - - - - - - - - - - - - - - - - - $ $ % = . % > { $ ) . - ; ; ; - ; $ ; ; ; ; ; ; $ ; ; ; ; ; > $ $ ; $ I , ; ; ; ; ; ; ; $ ; ; $ ; $ ; ; ; ; ; $ > > $ ] > $ & ' ] ; $ $ ; $ $ > ~ ) q q n m l l r n p q ! - ! ) { , , - - > ] * ' =             ",
"j E C E C t t m n n j p j l i i i ( _ ! ! ) ) ) { , , ,                                                                                                                                 - - - ) ! ) ) { , - - - - - - - - - - - - - ~ - - - - - - - - - - - - - - - - - - - - { ) ! ! ) ; ; ; ; ; $ ; ; ; ; ; ; ; $ ; ; ; ; ; ; ; > $ $ ; ; ; ; ; ; ; ; ; $ ; ; ; ; ; ; I I ; ; ; $ ) $ $ > $ # ' ] ; ; $ $ ; ; ; ~ ! q p r m j ^ l m n p q ! - ! ) { - , - - ] ] * ' =           ",
"j C v C w m l t r n ^ j l i i ( ( ( q ! ) ) ) , , , ,                                                                                                                                   - { ) ! ) { , - - - - - - - - - - - - - - - - - - - - - - - - - - - - - - - - - - - ) ! 1 q ! - ; ; - ; ; ; ; ; $ $ $ ; $ ; ; - - > > ; ; $ $ $ ; $ ; ; $ ; ; ; ; ; ; ; ; ; ; $ - - ; ; $ $ ] ; > $ ] ' # ; ; ; $ $ ; $ ~ ) 1 i ^ r l ^ p j ^ m n p q ! - ! ) { - , - - { & . ' =         ",
"^ x x s t n l B B m p p l p i q ( ( q ! ) { ) , , , ,                                                                                                                                 - ! ! ! ) { - - - - - - - - - - - - - - > % % > - - - - - - - - - - - - - - - - - - ) ! q q 1 ) - ; ; ; ; ; - - ; $ ; ; $ ; $ ; , , ; ; ; > $ $ > $ ; ; ; $ $ ; ; ; ; $ $ ; ; ; ; $ $ $ $ , > ; ] > $ & : . ; ; ; ; ; $ $ ~ 1 1 p l r m ^ k p j ^ l n p i ! - ! ) { - , - - > . . ' =       ",
"E x E v B s t l m m l n n i k p k 1 ! ! ! ) { , , ,                                                                                                                                 - ! ! ) { { - - - - - - - - - - - - - - > ] & . . > - - - - - - - - - - - - - - - - - ) q i 1 ! - - ; ; ; - ; ; ; ; $ ; ; $ ; $ ; ; ; ; ; $ > > $ ] $ ; $ ; $ ; ; ; ; ; $ $ ; ; ; ; $ $ $ $ > ; ; % ; ] ' ' ; ; ; ; ; ; ; ; ) 1 i ^ r m l m j k p j j l n p i ! - ! ) { - , - - > . . = =     ",
"F x x s r s m n n m j l l i k p q _ ! ! ! ) { , , ,                                                                                                                             - - ! ! ) { { - - - - - - - - - - - - ; ; ; $ $ ] & . . . > - - - - - - - - - - - - - - ) ) ) ) ) - - - ; ; ; ; ; - - ; $ ; ; ; ; ; ; I I ; ; ; $ ) $ ] ; $ $ $ $ ; ; ; ; $ ; ; ; ; ; ; $ $ > > ; ; % $ ] # : # ; ; ; ; ; ; ; - 1 1 p l r l ^ l m j i i j j l n p i ! - ! ) { - , - - - . . = =   ",
"C x v t s m n n ^ l ^ j i i i q _ ! ! ) ) ) { , ,                                                                                                                           - - - ! ! ) { { { - - - - - - - - ; ; $ $ $ $ > > ] ] ] & . . . . > - - - - - - - - - - - - ) ) ) ) - ; - - ; - ; - ; ; - ; ; ; ; ; ; ; $ - - ; ; $ $ ] ; $ $ ; ; ; ; ; ; ; ; $ ; ; ; $ ; ; 1 1 > > ] % ; ] # : ' ; ; > ; ; $ ; - ! 1 i l r l l ^ i l m j i i l j l n p ^ ! } ! ) { - - - - - ] . . . ",
"                                                                                                                                                                                                                                                                                                                                                                                                                                                                                  ",
"                                                                                                                                                                                                                                                                                                                                                                                                                                                                                  ",
"                                                                                                                                                                                                                                                                                                                                                                                                                                                                                  ",
"                                                                                                                                                                                                                                                                                                                                                                                                                                                                                  ",
"                                                                                                                                                                                                                                                                                                                                                                                                                                                                                  ",
"                                                                                                                                                                                                                                                                                                                                                                                                                                                                                  ",
"                                                                                                                                                                                                                                                                                                                                                                                                                                                                                  ",
"                                                                                                                                                                                                                                                                                                                                                                                                                                                                                  ",
"                                                                                                                                                                                                                                                                                                                                                                                                                                                                                  ",
"                                                                                                                                                                                                                                                                                                                                                                                                                                                                                  ",
"                                                                                                                                                                                                                                                                                                                                                                                                                                                                                  ",
"                                                                                                                                                                                                                                                                                                                                                                                                                                                                                  ",
"                                                                                                                                                                                                                                                                                                                                                                                                                                                                                  ",
"                                                                                                                                                                                                                                                                                                                                                                                                                                                                                  ",
"                                                                                                                                                                                                                                                                                                                                                                                                                                                                                  ",
"                                                                                                                                                                                                                                                                                                                                                                                                                                                                                  ",
"                                                                                                                                                                                                                                                                                                                                                                                                                                                                                  ",
"                                                                                                                                                                                                                                                                                                                                                                                                                                                                                  ",
"                                                                                                                                                                                                                                                                                                                                                                                                                                                                                  ",
"                                                                                                                                                                                                                                                                                                                                                                                                                                                                                  ",
"                                                                                                                                                                                                                                                                                                                                                                                                                                                                                  ",
"                                                                                                                                                                                                                                                                                                                                                                                                                                                                                  ",
"                                                                                                                                                                                                                                                                                                                                                                                                                                                                                  ",
"                                                                                                                                                                                                                                                                                                                                                                                                                                                                                  ",
"                                                                                                                                                                                                                                                                                                                                                                                                                                                                                  ",
"                                                                                                                                                                                                                                                                                                                                                                                                                                                                                  ",
"                                                                                                                                                                                                                                                                                                                                                                                                                                                                                  ",
"                                                                                                                                                                                                                                                                                                                                                                                                                                                                                  ",
"                                                                                                                                                                                                                                                                                                                                                                                                                                                                                  ",
"                                                                                                                                                                                                                                                                                                                                                                                                                                                                                  ",
"                                                                                                                                                                                                                                                                                                                                                                                                                                                                                  ",
"                                                                                                                                                                                                                                                                                                                                                                                                                                                                                  ",
"                                                                                                                                                                                                                                                                                                                                                                                                                                                                                  ",
"                                                                                                                                                                                                                                                                                                                                                                                                                                                                                  ",
"                                                                                                                                                                                                                                                                                                                                                                                                                                                                                  ",
"                                                                                                                                                                                                                                                                                                                                                                                                                                                                                  ",
"                                                                                                                                                                                                                                                                                                                                                                                                                                                                                  ",
"                                                                                                                                                                                                                                                                                                                                                                                                                                                                                  ",
"                                                                                                                                                                                                                                                                                                                                                                                                                                                                                  ",
"                                                                                                                                                                                                                                                                                                                                                                                                                                                                                  ",
"                                                                                                                                                                                                                                                                                                                                                                                                                                                                                  ",
"                                                                                                                                                                                                                                                                                                                                                                                                                                                                                  ",
"                                                                                                                                                                                                                                                                                                                                                                                                                                                                                  ",
"                                                                                                                                                                                                                                                                                                                                                                                                                                                                                  ",
"                                                                                                                                                                                                                                                                                                                                                                                                                                                                                  ",
"                                                                                                                                                                                                                                                                                                                                                                                                                                                                                  ",
"                                                                                                                                                                                                                                                                                                                                                                                                                                                                                  ",
"                                                                                                                                                                                                                                                                                                                                                                                                                                                                                  ",
"                                                                                                                                                                                                                                                                                                                                                                                                                                                                                  ",
"                                                                                                                                                                                                                                                                                                                                                                                                                                                                                  ",
"                                                                                                                                                                                                                                                                                                                                                                                                                                                                                  ",
"                                                                                                                                                                                                                                                                                                                                                                                                                                                                                  ",
"                                                                                                                                                                                                                                                                                                                                                                                                                                                                                  ",
"                                                                                                                                                                                                                                                                                                                                                                                                                                                                                  ",
"                                                                                                                                                                                                                                                                                                                                                                                                                                                                                  ",
"                                                                                                                                                                                                                                                                                                                                                                                                                                                                                  ",
"                                                                                                                                                                                                                                                                                                                                                                                                                                                                                  ",
"                                                                                                                                                                                                                                                                                                                                                                                                                                                                                  ",
"                                                                                                                                                                                                                                                                                                                                                                                                                                                                                  ",
"                                                                                                                                                                                                                                                                                                                                                                                                                                                                                  ",
"                                                                                                                                                                                                                                                                                                                                                                                                                                                                                  ",
"                                                                                                                                                                                                                                                                                                                                                                                                                                                                                  ",
"                                                                                                                                                                                                                                                                                                                                                                                                                                                                                  ",
"                                                                                                                                                                                                                                                                                                                                                                                                                                                                                  ",
"                                                                                                                                                                                                                                                                                                                                                                                                                                                                                  ",
"                                                                                                                                                                                                                                                                                                                                                                                                                                                                                  ",
"                                                                                                                                                                                                                                                                                                                                                                                                                                                                                  ",
"                                                                                                                                                                                                                                                                                                                                                                                                                                                                                  ",
"                                                                                                                                                                                                                                                                                                                                                                                                                                                                                  ",
"                                                                                                                                                                                                                                                                                                                                                                                                                                                                                  ",
"                                                                                                                                                                                                                                                                                                                                                                                                                                                                                  ",
"                                                                                                                                                                                                                                                                                                                                                                                                                                                                                  ",
"                                                                                                                                                                                                                                                                                                                                                                                                                                                                                  ",
"                                                                                                                                                                                                                                                                                                                                                                                                                                                                                  ",
"                                                                                                                                                                                                                                                                                                                                                                                                                                                                                  ",
"                                                                                                                                                                                                                                                                                                                                                                                                                                                                                  ",
"                                                                                                                                                                                                                                                                                                                                                                                                                                                                                  ",
"                                                                                                                                                                                                                                                                                                                                                                                                                                                                                  ",
"                                                                                                                                                                                                                                                                                                                                                                                                                                                                                  ",
"                                                                                                                                                                                                                                        m m r v v w w r r                                                                                                                                                                                                                         ",
"                                                                                                                                                                                                                                      m r s C x E E C C w r                                                                                                                                                                                                                       ",
"                                                                                                                                                                                                                                    B B s v x E E G G F F E w w r                                                                                                                                                                                                                 ",
"                                                                                                                                                                                                                                  l B s s s v x E C C E F X F F E w r                                                                                                                                                                                                             ",
"                                                                                                                                                                                                                                l B v v s v v v C v s s t v C x E E E w r                                                                                                                                                                                                         ",
"                                                                                                                                                                                                                              m l t v v x E v s v s s s t s v C x E E E x w                                                                                                                                                                                                       ",
"                                                                                                                                                                                                                            m l t v v x G E v m B m B B p t s w C C x E E x t n                                                                                                                                                                                                   ",
"                                                                                                                                                                                                                          B l s v x E G G x v t n m m m j n t t s w v C v E E E t n n                                                                                                                                                                                             ",
"                                                                                                                                                                                                                        l l s v x x E E E x C l l m j p i n n B B B s C s v v C E C t n n n                                                                                                                                                                                       ",
"                                                                                                                                                                                                                      l r v v s w w C x E E C l z z l q ) p n n n l l B B B m s s w x x w B n                                                                                                                                                                                     ",
"                                                                                                                                                                                                                n r v G G x s s w w w w C x x m i - q l ) i i i i p p l j p i t t t t s C C t p                                                                                                                                                                                   ",
"                                                                                                                                                                                                              n s v v x v t r r t t t t t t s v m i - i 1 1 ! ! ! q i p i q k j m m m t s C C w p                                                                                                                                                                                 ",
"                                                                                                                                                                                                              n s C s s t B r r B B t B B B B v s ^ ; q i ) , , , ) ! ! ) - ! k j j l m l m m w j i                                                                                                                                                                               ",
"                                                                                                                                                                                                              p r C s t B B r r B B B B B B m B C p ; 1 i ) ; ; , ) ) ) - ) ! 1 q k j l p i m t l i                                                                                                                                                                               ",
"                                                                                                                                                                                                            p l r C s B B B B r B B B t t s C m ! ! ; ) q ) - - , , , , - ! ! ! ! ! ! 1 1 i m m l i                                                                                                                                                                               ",
"                                                                                                                                                                                                      n B B p l r C s B B B B r B B B t t t s C m ! ; ) q ) - - 1 - - - ) ! ! 9 9 7 7 7 - 7 m m j i                                                                                                                                                                               ",
"                                                                                                                                                                                                    n s v s p l r C s B r B B r B B B B B B t s C n q ) ! ) - - - - - - k i - - - - - 1 i j m j !                                                                                                                                                                                 ",
"                                                                                                                                                                                                    n s s s p l r C s r r r r r t t t t s w v r s r q ; ) - - - - - - q i ~ , ! 1 1 1 - 1 i j i ! l l l l ^ q                                                                                                                                                                     ",
"                                                                                                                                                                                                    p B B B p l r v s B r r t r t t t s w v C w r t q ; - - - - - - - - - - k ^ m m t t i i i q i n s x X H n ^ q                                                                                                                                                                 ",
"                                                                                                                                                                                                  p l B n n p l r v s B B B B r r t t s v C C C v s n q ) - - - - - - - - ! k ^ m m t B ^ ! ! k n w F H X H E t n q                                                                                                                                                               ",
"                                                                                                                                                                                                  p l B n ^ p l r v s r B B B t t r t s w C C E E E v n q - - - - - - - - ! k k ^ ^ ^ ! ! k k n w x G F H F E v t p q                                                                                                                                                             ",
"                                                                                                                                                                                                n p l B l j p l r v s r r B B t t r t t s w v C x E C m p 1 ) ) - - - - - ! ! ! ! ! ! k l m s C E E G F F G E v t l q                                                                                                                                                             ",
"                                                                                                                                                                                              n k k l B m p p l r v s B B B B B s t t t t t t s v t t B n j i i i ! ! - - - - - k k l l r C G G E G G F G E v t r n p ,                                                                                                                                                           ",
"                                                                                                                                                                                            B k q i m B B i p l r v t B B B B B B t t t t t t t s v v C x v v s B l j p p p p p j l r r s C x x v v v C C v s r n m j ,                                                                                                                                                           ",
"                                                                                                                                                                                          B s k q p m t m i p l r v t B B B B B B B B B B B m t r s w v C v v v v v t m m m m B B B r s t s t t t t t t s s t n n m j ,                                                                                                                                                           ",
"                                                                                                                                                                                        B s s k k ^ B t n i p l r v B B B B B B B B B m m m m r B r s s s t t t B m l l j j m r s w v w w s r B m m m t t t t n n m p ,                                                                                                                                                           ",
"                                                                                                                                                                                        s B m k k l B t l i p l r s B B B B B B B B B m m m m B B r s s s t t t B m l j j ^ B r s v C x w s r B m n m B t r m p p m q ,                                                                                                                                                           ",
"                                                                                                                                                                                        s r n k k l B t j i p l r s B B B B B B t t m B B B m m m B r r r t t B B n j j j B B s C C x E v s r B n n m B t l l p i l ! -                                                                                                                                                           ",
"                                                                                                                                                                                        B m n k k l B t j i i l r s B B B B B B B B B m m m m B r r r r t B B B B n j ^ n B s E F F F E C s t B n n m B l p i ! ! p ! , 2 :                                                                                                                                                       ",
"                                                                                                                                                                                        B l n k k l B t j i i l r s B m B B t s s t t m n n n m m m m m m m m m m m m r w C x F U U F E C w t r n n n l p i k , ! k - ] 2 8 2 2                                                                                                                                                   ",
"                                                                                                                                                                                        l l n k k l t B j i i j r t B m m m m t s v t r m m n l l l l n n m m m B r r w C E F U U H G E x v t B n n n j i k q , ! q - - - ] 2 [ +                                                                                                                                                 ",
"                                                                                                                                                                                        l l n k k l t n i i k j B t m m n n m B t t t r m m n n l l n m r r r r t w w C E E F H H G E E E v r B n n ^ p i q ! , ! q - - *.- ] : 2 '                                                                                                                                               ",
"                                                                                                                                                                                        l p n k k l t n i i q p m t m n n ^ n m B t t r B B n n n m m r s s s s t t w E E E F G E x x x x C r B n n ^ p k ! ! , ! q - - ,.=.- ] : ' .                                                                                                                                             ",
"                                                                                                                                                                                        n p l k k l B l i k q i m t m n l j m B t t r B n n n m r s s s s s t t t v x E E E G x x x x x x x s B n n ^ p k ! $ ) q ! - ,.%.,.'.- ' ' % .                                                                                                                                           ",
"                                                                                                                                                                                        i p ^ k k l B ^ i q 1 i m m m n ^ j n n m m m m r r r r t t t r r r t s s v x E E x x x x x x x x x s t m n ^ p q ) , ) ! ) - !.-.%.,.- # / > % .                                                                                                                                         ",
"                                                                                                                                                                                        i p j k q l B j i 1 1 i n m n l j j l l n m B r t t t r s s s s s s s s v C x C C C C C C C C C C C s m n ^ j z ! ) - ) ) - %.%.!.-.%.- # / % > %                                                                                                                                         ",
"                                                                                                                                                                                        q p p k 1 l m p i 1 1 i n n l j j l l n r t t r t t s s s s s s s s s w v v C C C C C C C C C C C C r m l ^ j k ) ) - - %.%.!.*.%.!.*.- . : R % > %                                                                                                                                       ",
"                                                                                                                                                                                        q p i ) 1 l n p k 1 ! p l n ^ j l n r t t B m B r r B B m r r r r r r r r r r t s s v C C C v s s t m ^ m ^ k _ ) ) %.%.%.%.%.!.*.%.!.& ' : 5 R % > .                                                                                                                                     ",
"                                                                                                                                                                                        q i k { ! j l i q 1 ! p j l n l r B t B m t t t t t t t t t m m m m m m n n n n n n r t t t m m m n l j l z _ ) ) ! !.,.%.!.,.%.!.,.> # : 5 J 6 R % %                                                                                                                                     ",
"                                                                                                                                                                                        ) k q { ! ^ l i 1 ! k p p j n B t m m t t s s s s s v v E x v s t r r r s v t n p k k k i i p j j j p p j k _ , 1 - %.!.,.%.!.,.%.> & : : L L J : . % %                                                                                                                                   ",
"                                                                                                                                                                                        , q 1 , ! ^ ^ i ! k j j j n m m t t t r r l j i i j l B v v C C C s t n n r r B l p 1 k k k k p i i k k q ! { { 1 - - %.%.%.%.%.; # ' ' 6 a L L J * . % .                                                                                                                                 ",
"                                                                                                                                                                                        , 1 ) , q ^ p i 1 p j ^ n m m m t B n ^ j p i q q q i p l l m t s v v r m p l ^ p p 1 ) 1 1 1 1 q q q 1 ! { - ) 1 - - - %.%.%.; # ' . % # 6 a L K 6 R . % .                                                                                                                               ",
"                                                                                                                                                                                        , ) { , i ^ i i i p j l n n r s v C C x E G E F F x x s B m l l m t v v v r p k k k 1 ) , , { ) ) ! ! { , - { 1 - - - - - ; > . % , { { ) # 6 a L J : = . %                                                                                                                               ",
"                                                                                                                                                                                        , { , ! p p i p p l n m r s v v v v v v v v v v v v v x x v s m ^ ^ B t v t t p 1 1 ! ) , , , , { { { { - { ) ! - - ; ; $ % % , , , , , , ) # 2 a J 5 ' = % %                                                                                                                             ",
"                                                                                                                                                                                        , , , ! p p j l ^ l n m r r B B m m n r r r r r r r r r r s s s r m l l m r m n p ! ) { , , , { { , ~ - ) 1 1 $ $ ; ; ~ - - - - , , , , ~ , ) # 2 5 5 < ' = % %                                                                                                                           ",
"                                                                                                                                                                                        , ! ! i i p j ^ l n l j p i i p p p j j j ^ l n m m m m r t t s s r r l l l m m ^ q { { , , - ) ) ) ) 1 1 1 , - - ~ ~ - - - - - - , , , ~ ~ , ) # + 5 5 < R . %                                                                                                                           ",
"                                                                                                                                                                                      ! i k k k i i i i i i i j j l m r r r r r r r r r r r r r t t s s s s r m l ^ l m ^ p q { , - { 1 1 1 1 k 1 , , , - ~ - ~ - - - - - ~ , , ~ ~ ~ { ) . + 5 5 / R . %                                                                                                                         ",
"                                                                                                                                                                                    ! i 1 ! q q q ! q i j n B t t v v v v v v v v v v v v v v v v s s s s s s r m l ^ l l p k ) } , ) 1 k k k , , , , , , - ~ ~ ~ ~ - - ~ ~ ~ , ~ ~ ~ , { ) . + 5 5 / . . %                                                                                                                       ",
"                                                                                                                                                                                    ! i 1 ) , { ! i j l B B B m m B r t s w w w w w v v v s s r r r r t r t t t r l ^ j p p k ! } , ! k , , , , , , , , , ~ ~ ~ ~ ~ ~ ~ ~ ~ ~ ~ ~ ~ ~ , , ) ) . + 5 5 ' % % $                                                                                                                     ",
"                                                                                                                                                                                  k ! ) , , { ) q j l l n l n m B B B B B B B t t w w w w w s r m m m m m r r r r m k q q i k ) } ! } , , , , , , , , , , ~ ~ ~ ~ ~ ~ ~ ~ ~ ~ ~ - ~ ~ , , , ) ) . ' 5 6 * % % $                                                                                                                   ",
"                                                                                                                                                                                ) ) , , , ) 1 1 q j j j n l l l l l l l l l l l l m B B r t v w r n l ^ j n m m m m k ) ) q 1 ) } ! - - - - - - - - - , , - } } ~ ~ ~ ~ ~ ~ ~ ~ - - ~ , , , , ) 9 . / 6 6 R % $                                                                                                                   ",
"                                                                                                                                                                                ) , , { ! q i j ^ l n m B t r r m ^ ^ ^ p p p p p j ^ l n B t t w w m ^ j j ^ ^ ^ ^ k ) { ) ! ) ) ! - - - - - - - - - - - - - - - - - - - - - - - - - , , , , ) ) 9 R < 6 < R $ $                                                                                                                 ",
"                                                                                                                                                                            ) ) ) 1 q i l l l m B B r t s v C x x x v t n j i i i i p p j n B r t s s m j p p i i p k ! } { ) ) q ) - - - - - - - - - - - - - - - - - - - - - - - - - - , , , , ) ) P @ 6 5 + . $ $                                                                                                               ",
"                                                                                                                                                                        1 k 1 ) ! 1 q i p p p j l l l n B r t v v v v v v v t B p q k k i i j l m t r t m p p k k k 1 q } } ! q ) - - - - - - - - - - - - - - - - - - - - - - - - - - - - , , , { ) P O ' 5 5 ' % $ $                                                                                                             ",
"                                                                                                                                                                      1 k 1 { ) ! ! ! ! q k k k p p ^ l l l l m t v v v v x C v w B p k k k i i ^ r r r r j i k 1 1 { q ! ) q ) - - - - - - - - - - - - - - - - - - - - - - - - - - - - - - , , , ) 9 q |.+ 5 6 * % $ $                                                                                                           ",
"                                                                                                                                                                      1 k ; { { { { { { ! 1 1 1 1 1 1 1 1 1 1 k k l n m t v v v v w w l p q k k i ^ r r r n k q ) ) { q ) ) - ~ - - - - - - - - , , , , , ~ ~ ~ ~ - - - - - - - - - - - - - - , , , ) P q |.+ 5 < R % ) )                                                                                                         ",
"                                                                                                                                                                    ) k 1 { , , , , { ! q k k k k k k k k k k 1 1 1 1 p ^ n r r v v w w w l q q k i m r r m p q ) { } q ) - - - - - - - - - - - , , , , , ~ ~ ~ ~ - - - - - - - - - - - - - - - , , , ) P q |.+ 6 + % ] )                                                                                                         ",
"                                                                                                                                                                    ) k , { , , q p j n n n n n n n n n n n n n j p i 1 1 1 k j l B v w s s n q q k ^ B l m i ! { , } q - , - - - - - - - - - - - - - - - - - - - - - - - - - - - - - - - - - - - , , , ) P q h + < * > ] )                                                                                                       ",
"                                                                                                                                                                    ) k , q l r r n r w x w l t t t t x x G x s w r B j k 1 1 1 k ^ r s s t r p k q ^ m l l k ) { } ) ! - - - - - - - - - - - - - - - - - - - - - - - - - - - - - - - - - - ; - - - , , , ) P q h ' + = > ! )                                                                                                     ",
"                                                                                                                                                                    ) q t r r v E v r w x w l t t t t x x G x s w r B B l p k ) { 1 k n r B B l p q ^ ^ l p 1 ) ) p q ) - - - - - - - - - - - - - - - - - - - ~ ; $ $ ; ; ; - - - - - - - - $ $ , - - , , ) ) P P h ' ' % $ )                                                                                                     ",
"                                                                                                                                                                  p r m r r C x w C r x t x B r w w v v x C E w r r t t m j p 1 ) { 1 k ^ B m m p p p p p i ) ) q ) - - - - - - - - - - - - - - - - - - - > > > > ; $ > > > > ; - - - - - ; $ ] > - - - , , ) ) P |.= / R % $ )                                                                                                   ",
"                                                                                                                                                            p p p w w n r r w x w C t x G w r s s s x G C E v r m v t t n j p k 1 ) { 1 k ^ n n l p k k k k { q ) - - - - - - - - - - - - - - ~ ~ ; ; > > $ > > $ > ; $ > > > > ; - - - - - - - - - - - - , { 9 9 O h R < # 1.) !                                                                                                 ",
"                                                                                                                                                        ^ p w m w w C n r r w x w C x C C w w r w w E G E x v B r s v v B n j p 1 $ ) { 1 k l n ^ k 1 k 1 1 { q - ; - - - - - - - - - - - - - ; ; ; ; > ; > $ > $ ; $ > > > > > > ; - - - - ; ] ] ] - - - - , { 9 9 O # @ : = 1.) !                                                                                               ",
"                                                                                                                                                      k p r G B r G C r r r t t x x C B x G v C C C x E x x s r n s B B B n j p i q _ ) { k i j i k ) 1 1 { ) ) - - - - - - - - - - - - ~ ~ ; ; ; ; $ > > > $ ; ; $ $ > > > $ > > > - - - % = . = = $ , - - - , { 9 9 O R @ @ . ) )                                                                                               ",
"                                                                                                                                                  i p n r r C v x C t m m t m G w C r t x x G G G s s t E x x C m B t l j j ^ j n p ( 1 { 1 k j k 1 } 1 ) } q ) - - - - - - - - - - ~ ~ ; ; ; ; $ $ ; $ $ $ $ $ $ > $ $ $ ; $ > > > ; - = ' 5 * = % ; ; , - - - , { 9 9 O # * * & ) )                                                                                             ",
"                                                                                                                                              p p ^ ^ t C C w r x C t x x m l C w w n v x F G E v r v x G x s r n t n j j j l m j ( q _ ) ) k p 1 ) } ) { } q - - - - - - - - - ~ ~ ~ ~ ; ; ; ; $ ; $ ; ; ; $ $ ; $ $ $ ; $ > $ > > > - % = ' = & > > $ ; , - - - , { 9 9 & # * = ] ) P                                                                                           ",
"                                                                                                                                              n n t w E v x G F G x x G G t B x G v B C s x E x v B v E x w s r r B n j j r t B p i k ( _ { 1 k ! { } { ) q ) - - ~ - - - - - ~ ~ ~ ~ ~ ; $ $ ; ; $ $ $ $ ; $ ; ; $ ; ; $ > > > > $ > - , % ' % ] % ] > $ ; , - - - , { 9 9 . = # . ) P P                                                                                         ",
"                                                                                                                                        p n m s v s v x E E x F x s G v s r t x x G }.v x t E x v n t E x v r t r l n n l B n j p p k ( _ , ! k { { } ) q q - - - - - - - - - ~ ~ ~ ~ ; ; $ ; $ $ $ $ $ ; $ $ $ ; $ $ $ $ $ $ > > > $ ; ~ > @ ] ] > ] % > $ ; , - - - , { 9 9 . = = $ ) P                                                                                         ",
"                                                                                                                                    p B m s t C v v E x x G G E x F v v v n v x F G s s v G v v v r t C v s t B n l n t l ^ j p ( k p k k , ! k , , } q - - { - - - - - - - ; ~ ~ ~ ; ; ; ; $ ; $ ; $ ; $ ; ; $ $ $ ; $ $ ; $ > $ > $ ; - - @ > ] ] % % % > $ ; , - - - , ) 9 9 . . . { ) P                                                                                       ",
"                                                                                                                                p m r r E t E x E E G F E E E E G E C t n B C s x E x v B v E x w s r r B n j j n s m j i ^ p i ( k p p k , ! ! } } , q - { { - - - - - - - ; ~ ~ ~ ; $ $ $ $ ; $ $ ; ; $ $ $ $ ; $ $ $ $ ; $ > $ > $ ; - - = > > > ] > ] ] > $ ; , - - - , ) 9 9 . . & { )                                                                                       ",
"                                                                                                                                m n s t E C C C G s C x G G E v E G E s m }.v x t E x v n t E x v r t r l n B s n B l j j j p ( ( i p i ! - ! ! ) } q - - { ~ - - - - - - ~ ~ ~ ; ; $ ; ; $ ; $ $ ; ; ; ; $ $ ; ; $ $ $ $ $ ; $ > $ > $ - - . ] > > % % % > > % $ ; - - - - , ) 9 % & & % ) P                                                                                     ",
"                                                                                                                            j ^ s F E E G H U G t H x G E E C x C F E s F s s v G v v v r t C v s t B l l l m t n l ^ j j p p q i p k ! { - ! q q ) - - - , - - - - - ~ ~ ~ ; ; ; ; $ $ ; $ $ ; ; ; $ $ ; $ ; $ $ $ $ $ $ $ ; $ ; > > $ - - . ] ] % % ] ] ] % % % $ - - - - - , ) 9 & & . > ) P                                                                                   ",
"                                                                                                                          ^ l m F E F U H G F G v C x E G E G G t x G G G x x v x v v v s t v s s t B t t m n B n l ^ p p j q q k _ ) 1 - - - - - - - - { ~ - - - - ~ ~ ~ ; ; ; ; $ $ ; $ $ ; $ $ ; $ $ $ ; ; $ ; ; $ $ ; ; $ $ $ $ > > - - . ] ] ] > % % % ] ] % { { { - - - - , ) 9 & & % ) ) P                                                                                 ",
"                                                                                                                      p n s s x G E G X H G x F x G G F H H E v C E E G F x C t x v v v s s C v s s v w B B ^ j p p ( i p p _ ) ! ! ) { - - , , - - - - , ~ - - - ~ ~ ~ ; ; ; ; $ ; ; $ ; ; ; $ ; $ ; ; ; ; ; ; $ $ ; $ $ ; ; $ $ $ > > - - = > > % % % > ] ] % { q k { { - - - - , ) 9 & & P ) ) P                                                                               ",
"                                                                                                                  T B s r C v C H G H H G H U F E C H H H G G x C F E F F v w t w v v r t t v v m t v w B n j j i p q p p _ ) ! ! { ) - - - , { { - - - , ~ - - ~ ~ ~ ; ; $ ; $ $ $ $ $ $ $ ; ; $ ; ; $ ; ; ; ; $ ; $ ; $ $ ; $ > $ > $ - - . % ] % % ] ] ] % { P q ^ k { { - - - - , ) 9 & & P ) P !                                                                             ",
"                                                                                                            T p ^ B v v v G E U G x }.F F F F E m E U E E F C v F G x F w t r r s r v v s t s v t t s t m j p i k ( i ( ! ) ) ) { ) { - - { { { { , ~ - - - - ; ~ ~ ~ ; $ ; ; ; $ $ $ ; $ ; $ ; ; ; ; $ ; ; ; ; $ ; ; $ $ $ ; $ ; > > $ - - . > ] % % % % > { P P ^ p P ! { { - - - , { 9 9 & & P ) P                                                                             ",
"                                                                                                          k ^ l v v x G w C F F H X G E G }.F E v x F F U U t s F x v E w w w s t r v x C C C v t t s m ^ j ^ i i p i ! { ) ) ! 1 P - { - , , , , - - - - - ; ; ~ ~ ~ ; $ ; $ ; ; ; $ $ ; $ ; ; ; ; ; ; ; $ ; ; ; ; ; $ ; ; $ $ $ $ > > - - . % > % % > { { P P ^ p k P ! ) { { - - - , { 9 9 % % 9 ) P                                                                           ",
"                                                                                                      n p n B B G x C G U E G U H U F U U G E E x G x F }.F C m F H C s s w w s r w v s C s s s t t B n n p p p ( k P { ) ) ) ) ) - - , - { , - - - - - - ; ; ; ~ ~ ; ; $ ; ; $ ; ; ; ; ; ; ; ; ; ; ; ; ; ; ; ; ; ; ; $ $ ; ; $ $ $ > > - - . ] > % ] > { P P p p q ( P P ) ) { { - - - , { 9 9 ] ] 9 ! P                                                                         ",
"                                                                                                  p r n B v C G F F F F F G G H U F U U G U G v E F E E G x x G x t t w s r l p l s t t s s s t r n n n j j p j k 1 { ) ) ) ) ) P - , , { , , - , - - - ; ~ ~ ~ ~ ; ; ; ; ; ; ; ; ; ; ; ; ; ; ; ; ; ; ; ; ; $ ; ; $ ; $ ; $ $ $ ; $ > > - - % % > ] > { P P p p k ! q q P ) ) ) { { - - - , { 9 9 > > ! !                                                                         ",
"                                                                                                p n n r v x G U F F G F F G G U G U F U H }.U t r U U G C G x x s B m r t G w C s t m B s t s s r ^ ^ n ^ j j p q ) { ) ) ) P ) - - { , - - , - - - - ; ; ~ ~ ~ ; ; ; ; ; ; ; ; ; ; ; ; ; ; ; ; ; ; $ $ ; ; ; ; $ ; $ ; $ ; ; $ $ $ $ $ - - > % > > { P P k k q k q ! ! P ) ) ) ) { { - - - , { 9 9 > % ! !                                                                       ",
"                                                                                              j n n s r C E U F E F F U E U }.}.G F F U H }.U C m s F U H G x s v v s r t E v v s v s t t B t v m m m n ^ ^ p q ) { ) { ) ) P - - , { , - , , , - - ; ; ; ~ ~ ; ; ; ; ; ; ; $ ; ; ; ; ; ; ; ; ; ; $ ; $ ; ; ; ; ; ; ; $ ; $ $ $ ; $ $ $ - - % > { { P P i P ! P q k P ! ! P ) ) ) ! { { - - - , { 9 9 > % ! !                                                                     ",
"                                                                                          j j n n m t x E x H F E F F U E E U U G U G F F U X G C C G F F F x C C x v r E E v t s t s t B t B s n ^ j ^ ^ p P ! ) { ) ) ) ) ) , , { , , , - - - - ; ; ; $ ~ ; ; ; ; ; ; ; ; ; ; ; ; ; ; ; ; ; $ $ ; ; ; ; $ ; $ $ ; ; $ $ $ $ ; $ $ $ ; - - % { { P P ( k i ! P P P q P P P P ) ) ) ! { { - , - , $ 9 9 > % ! !                                                                   ",
"                                                                                      ^ p ^ r r r C E G E x G G G H H H G x x G F H F x G U X v x U U H v t x C v x r w C t t v t B B j n m ^ l ^ ^ p ^ p 1 ) ) ) ) ) ) ) , - , { { , - - - , - - ; ; $ ; ~ ; ; ; ; ; ; ; ; $ ; ; ; ; ; ; ; $ ; $ ; ; ; ; ; ; ; ; ; ; ; ; $ $ $ $ $ $ ; - - % ! P k q q ( P i P k P P P q P P P P ) ) P { { - , , , $ > 9 > 9 !                                                                   ",
"                                                                                                                                                                                                                                                                                                                                                                                                                                                                                  ",
"                                                                                                                                                                                                                                                                                                                                                                                                                                                                                  ",
"                                                                                                                                                                                                                                                                                                                                                                                                                                                                                  ",
"                                                                                                                                                                                                                                                                                                                                                                                                                                                                                  ",
"                                                                                                                                                                                                                                                                                                                                                                                                                                                                                  ",
"                                                                                                                                                                                                                                                                                                                                                                                                                                                                                  ",
"                                                                                                                                                                                                                                                                                                                                                                                                                                                                                  ",
"                                                                                                                                                                                                                                                                                                                                                                                                                                                                                  ",
"                                                                                                                                                                                                                                                                                                                                                                                                                                                                                  ",
"                                                                                                                                                                                                                                                                                                                                                                                                                                                                                  ",
"                                                                                                                                                                                                                                                                                                                                                                                                                                                                                  ",
"                                                                                                                                                                                                                                                                                                                                                                                                                                                                                  ",
"                                                                                                                                                                                                                                                                                                                                                                                                                                                                                  ",
"                                                                                                                                                                                                                                                                                                                                                                                                                                                                                  ",
"                                                                                                                                                                                                                                                                                                                                                                                                                                                                                  ",
"                                                                                                                                                                                                                                                                                                                                                                                                                                                                                  ",
"                                                                                                                                                                                                                                                                                                                                                                                                                                                                                  ",
"                                                                                                                                                                                                                                                                                                                                                                                                                                                                                  ",
"                                                                                                                                                                                                                                                                                                                                                                                                                                                                                  ",
"                                                                                                                                                                                                                                                                                                                                                                                                                                                                                  ",
"                                                                                                                                                                                                                                                                                                                                                                                                                                                                                  ",
"                                                                                                                                                                                                                                                                                                                                                                                                                                                                                  ",
"                                                                                                                                                                                                                                                                                                                                                                                                                                                                                  ",
"                                                                                                                                                                                                                                                                                                                                                                                                                                                                                  ",
"                                                                                                                                                                                                                                                                                                                                                                                                                                                                                  ",
"                                                                                                                                                                                                                                                                                                                                                                                                                                                                                  ",
"                                                                                                                                                                                                                                                                                                                                                                                                                                                                                  ",
"                                                                                                                                                                                                                                                                                                                                                                                                                                                                                  ",
"                                                                                                                                                                                                                                                                                                                                                                                                                                                                                  ",
"                                                                                                                                                                                                                                                                                                                                                                                                                                                                                  ",
"                                                                                                                                                                                                                                                                                                                                                                                                                                                                                  ",
"                                                                                                                                                                                                                                                                                                                                                                                                                                                                                  ",
"                                                                                                                                                                                                                                                                                                                                                                                                                                                                                  ",
"                                                                                                                                                                                                                                                                                                                                                                                                                                                                                  ",
"                                                                                                                                                                                                                                                                                                                                                                                                                                                                                  ",
"                                                                                                                                                                                                                                                                                                                                                                                                                                                                                  ",
"                                                                                                                                                                                                                                                                                                                                                                                                                                                                                  ",
"                                                                                                                                                                                                                                                                                                                                                                                                                                                                                  ",
"                                                                                                                                                                                                                                                                                                                                                                                                                                                                                  ",
"                                                                                                                                                                                                                                                                                                                                                                                                                                                                                  ",
"                                                                                                                                                                                                                                                                                                                                                                                                                                                                                  ",
"                                                                                                                                                                                                                                                                                                                                                                                                                                                                                  ",
"                                                                                                                                                                                                                                                                                                                                                                                                                                                                                  ",
"                                                                                                                                                                                                                                                                                                                                                                                                                                                                                  ",
"                                                                                                                                                                                                                                                                                                                                                                                                                                                                                  ",
"                                                                                                                                                                                                                                                                                                                                                                                                                                                                                  ",
"                                                                                                                                                                                                                                                                                                                                                                                                                                                                                  ",
"                                                                                                                                                                                                                                                                                                                                                                                                                                                                                  ",
"                                                                                                                                                                                                                                                                                                                                                                                                                                                                                  ",
"                                                                                                                                                                                                                                                                                                                                                                                                                                                                                  ",
"                                                                                                                                                                                                                                                                                                                              # # # # # #                                                                                                                                         ",
"                                                                                                                                                                                                                                                                                                                          & . & . = = = # %                                                                                                                                       ",
"                                                                                                                                                                                                                                                                                                        % % . . % ]     ] % % % % & . # * # >                                                                                                                                     ",
"                                                                                                                                                                                                                                                                                                      % % & & & % ] $ ] & ] ] ] ] % & # * = >                                                                                                                                     ",
"                                                                                                                                                                                                                                                                                                    > % % % % % ] > $ & % > > > > ] % . # . > -                                                                                                                                   ",
"                                                                                                                                                                                                                                                                                                    = & % % % ] $ $ % % > $ { { > ] ] . = . ; -                                                                                                                                   ",
"                                                                                                                                                                                                                                                                                                  % % ] ] ] ] ] $ $ & ] > $ $ { { ] ] . . ] ; -                                                                                                                                   ",
"                                                                                                                                                                                                                                                                                                > % > > > > > $ $ % % > , $ { { { > ] . % - -                                                                                                                                     ",
"                                                                                                                                                                                                                                                                                                > > > > ; $ , $ $ % ] , , $ { { { ] % & % - -                                                                                                                                     ",
"                                                                                                                                                                                                                                                                                              & % - $ $ $ , $ $ % % { , { { { { { ] % & > - )                                                                                                                                     ",
"                                                                                                                                                                                                                                                                                            - > - { { { $ , $ % % > , , { { { { > ] & ] - -                                                                                                                                       ",
"                                                                                                                                                                                                                                                                                            & ] - { { { , , $ % ] { , , { { { { > ] & > - -                                                                                                                                       ",
"                                                                                                                                                                                                                                                                                          $ ] - { { { $ , $ % % > , , $ { { { { ] % & - - )                                                                                                                                       ",
"                                                                                                                                                                                                                                                                                        - $ - - { { { , , $ % ] { , , { { { { > % % ] - -                                                                                                                                         ",
"                                                                                                                                                                                                                                                                                        ] ] - { { { , , , % % $ , , { { { { { ] % % > - -                                                                                                                                         ",
"                                                                                                                                                                                                                                                                                      ] > - { { { { , , , % > , , , { { { { > % % ] - - )                                                                                                                                         ",
"                                                                                                                                                                                                                                                                                    I > - - { { { , { , % % $ , , { { { { { > % % ] - ;                                                                                                                                           ",
"                                                                                                                                                                                                                                                                                  , > $ - { { ; { , , ] % $ , , , { { { { > ] % % > - -                                                                                                                                           ",
"                                                                                                                                                                                                                                                                                  ] ] - - { { ; , , $ ] ] { , , { { { { { > % % % - - )                                                                                                                                           ",
"                                                                                                                                                                                                                                                                                - { - - { { { $ , , ] % $ , , , { { { { > ] % % > - -                                                                                                                                             ",
"                                                                                                                                                                                                                                                                              - { - - { { { $ , , ] % ] , { , { { { { { > % % % - - -                                                                                                                                             ",
"                                                                                                                                                                                                                                                                            - { { - - { { $ { , $ ] % { , , , { { { { > ] % % > - ; )                                                                                                                                             ",
"                                                                                                                                                                                                                                                                            , , - - { { { $ , - ] % ] , { , { { { { { > % % % > - -                                                                                                                                               ",
"                                                                                                                                                                                                                                                                          - $ - - - { { { , { > ] % { , , { { { { { > ] % % % - - -                                                                                                                                               ",
"                                                                                                                                                                                                                                                                        - $ $ - - { { { $ , - ] % ] , , , , { { { { > % % % > - - )                                                                                                                                               ",
"                                                                                                                                                                                                                                                                        - I - - $ { { $ , - $ ] % { , , { { { { { $ ] % % % $ - -                                                                                                                                                 ",
"                                                                                                                                                                                                                                                                      - I - - - { { $ { , $ > % $ , , , { { { { { > % % % > - - -                                                                                                                                                 ",
"                                                                                                                                                                                                                                                                    - - $ - - { , { { , - ] % ] , , , , { { { { $ ] % % % ] - - )                                                                                                                                                 ",
"                                                                                                                                                                                                                                                                  - - I - - - { , { { , $ ] % $ , , , { { { { { > % % % % $ - -                                                                                                                                                   ",
"                                                                                                                                                                                                                                                                  , - - - - , , { , , , ] % ] , , , { { { { { $ ] % % % > ; - -                                                                                                                                                   ",
"                                                                                                                                                                                                                                                                - - , - - , { { , , , { ] % , , - , , { { { { > % % % % > - - ) 1                                                                                                                                                 ",
"                                                                                                                                                                                                                                                              - { , - - - , , , , , , ] % ] , , , { { { { { $ ] % % % ] $ - - 1 k i                                                                                                                                               ",
"                                                                                                                                                                                                                                                              - - - - - - , , , , , $ % ] - , , , , { { { { ] % % % % > ; - ) 1 p i                                                                                                                                               ",
"                                                                                                                                                                                                                                                            - - { - - - I , , , , , ] % , , , , { { { { { $ ] % % % % $ - - 1 k ^ i                                                                                                                                               ",
"                                                                                                                                                                                                                                                          - - - - - - - , , - , , , % ] , , , , { { { { { > % % % % % ; - - 1 p ^ i q                                                                                                                                             ",
"                                                                                                                                                                                                                                                        - - , - - - , I , , - , , ] % , , , , , , { { { $ ] % % % % > - - - p n ^ i q                                                                                                                                             ",
"                                                                                                                                                                                                                                                        - , - - - - , , , - , , $ % > , , , , { { { { { > % % % % % $ - - 1 p n ^ i q                                                                                                                                             ",
"                                                                                                                                                                                                                                                      - , , - - - , , , , - , , % ] , , , , , { { ) { $ ] % % % % > ; - - 1 m m l i q 1                                                                                                                                           ",
"                                                                                                                                                                                                                                                    - - I - - - - , , , ; , , $ % $ , , , , { { { { { > % % & % % $ - - 1 p m l p q 1 1                                                                                                                                           ",
"                                                                                                                                                                                                                                                    , , - - , - , , , ; - , , % > , , , , , { { { { $ ] % % & % % ; - - 1 n t l i 1 ) )                                                                                                                                           ",
"                                                                                                                                                                                                                                                  , - I - - - , , , , , , - $ % $ , , , , { { { { { > % % & & % > - - - p n m p ! ! ! 1                                                                                                                                           ",
"                                                                                                                                                                                                                                                - I - - - - - - , , $ , , , % $ , , , , , { ) { { $ ] % % & & % $ - - 1 n n p 1 q q k t                                                                                                                                           ",
"                                                                                                                                                                                                                                              - , , - - , - - - , , - , , > > - , , , , { { { { { > % % & & & > ; - - i n n ) q i q n w E                                                                                                                                         ",
"                                                                                                                                                                                                                                              , , , - - - - , , , , , - , % > , , , , , { { { { $ ] % % & & % $ - - 1 l m l - ) q 1 i t C E                                                                                                                                       ",
"                                                                                                                                                                                                                                            { { { - - - - - , , , , , , > > , , , , , { { { { { > % % & & & % ; - - q l m i - ) ) ) q l t G v                                                                                                                                     ",
"                                                                                                                                                                                                                                          - { - - - , - , , , , , , - , % } , , , , , { { { , $ ] % % & & % > - - - i l k i ! q l i ) k n v G x                                                                                                                                   ",
"                                                                                                                                                                                                                                          I - , - - - - , , , , - , , % > , , , , , { { { { { ] % % % & & % $ - - 1 p p ! p ! l r B i ) k n C G x                                                                                                                                 ",
"                                                                                                                                                                                                                                        - I - - - - - , , , , , , - > > , , , , , , { { { { $ ] % % & & & ] ; - - k p p - ! { ^ r B B i P p m v G v                                                                                                                               ",
"                                                                                                                                                                                                                                      - ) I - - - - - , , , , - , , % $ , , , , , { { { { { ] % % % & & % $ - - 1 p p q - - - _ n r s j q i j n t B n                                                                                                                             ",
"                                                                                                                                                                                                                                      - ) - - - - - - , , , , , - > > } , , , , , { { { { $ ] % % . & & % ; - - 1 p q 1 q q q p 1 n m v n q q p n v r i                                                                                                                           ",
"                                                                                                                                                                                                                                    - ) - - - - - I , , , - , , > % $ , , , , , { { { { { ] % % % . & % > - - ) p k 1 k q ! ^ j - ) ^ B v n q q ^ r ^ p                                                                                                                           ",
"                                                                                                                                                                                                                                  ! - - - - - - - I , , , , , $ % $ , , , , , , { { { { $ ] % & . . & % ; - - 1 p q ! q 1 1 p n j - - ^ B v r q 1 1 1 1                                                                                                                           ",
"                                                                                                                                                                                                                                1 - - - - - - - , , , $ I , , % > ; , , } , , { { { { $ ] % & . = . % > - - ) k p ! { q ! 1 p n n P - ) l s v t i 1 1 -                                                                                                                           ",
"                                                                                                                                                                                                                                , - , - - - - - I , $ , - , $ % $ , , , , { , { { { { ] % % . = = . % > - - 1 p p ! - ! ) { _ l l j - ) k l r G m 1 - -                                                                                                                           ",
"                                                                                                                                                                                                                              - ) - - - - - - I I , $ , , $ % > ; , , , , , { { { { $ ] % & = = = & % ; - - k l p ! - - - { 1 p l p i - 9 p B E w k -                                                                                                                             ",
"                                                                                                                                                                                                                            - ) , - - - - - - , , ; ; , , > % $ , , , , , , { { { { ] % . = * = . % > - - ) p l p ! { - - - ) 1 p p p ) - P ^ x G l k                                                                                                                             ",
"                                                                                                                                                                                                                          - ) { , - - - - - , , , ; , , $ % > , , , , , , { { { { $ ] % . # * = & % - - - 1 l l p ! ) { - _ 1 ) k p p i - { k B w w k                                                                                                                             ",
"                                                                                                                                                                                                                          ) { , - - - - - I , , , , , , % > { , , , , , , { { { { ] & . = @ * = & > - - - k l j q ) ! I _ ^ l 1 q p p p _ - _ j r w B k                                                                                                                           ",
"                                                                                                                                                                                                                        - ! { - - - - - - - , ; ; , , $ % ) , , , , , , 7 { { { > ] & = * @ * = % > - - ) p l p q ) ! I _ n B i ! i i j ^ ) P k l n B k                                                                                                                           ",
"                                                                                                                                                                                                                      - ! { , - - - - - , , ; , , , ; % > { , , , , , , { { { { ] & . * + @ * = ] - - - 1 l l p q ) ) I _ ^ B l 1 1 p l B ^ ) P ( p p )                                                                                                                           ",
"                                                                                                                                                                                                                      ! { , - - - - - - , , ; , , , > % ) , , , , , , I { { { ] & . # ' + @ = % > - - - q l l k ) ) ) I q p n B p ) p l t v i - ) _ P -                                                                                                                           ",
"                                                                                                                                                                                                                    ! ) { - - - - - - , , , , , , $ % > { , , , , , - { { , > ] & # ' / + * = > - - - ) k l j ! ) ) ) I 1 ( p ^ l q k j t v x u - - { -                                                                                                                           ",
"                                                                                                                                                                                                                  - ) { , - - - - - , , , , , , , % ) ) , , , { { , { { , { ] & = ' : / + = & > - - - k p l k ! ) ) ) ) ! _ i j B ^ ! i B v x x P - } -                                                                                                                           ",
"                                                                                                                                                                                                                - ) { , - - - - , - , , , , , , $ % ) { , , , , { , { { { > ] & * : 2 / + = > > - - - k l l k ! - ! ) ) 1 _ ( p j l k ( j B s x r - - -                                                                                                                           ",
"                                                                                                                                                                                                                ) { - - - - - - - , , , , , , , % > ) , , , , ) { , { { { ] & = + 2 < / ' = > - - - ) p l l 1 ! - ! ) , ) 1 q k p B l ) k j n r v r - -                                                                                                                           ",
"                                                                                                                                                                                                              - ) { - - - - - - - , , , , , , > % ) { , , , { ) { , { { > ] & * / 8 < / * % > - - - k l l j 1 ! - - ! ) ) 1 _ _ p n r p ! k j n v v ^ -                                                                                                                           ",
"                                                                                                                                                                                                            - ) { - - - - - - - , , , , , , , % > ) , , , , ) { { { { { ] & = : [ [ < ' = ] - - - ) k l l p 1 ) - - ! ) , ) q _ p l t r p 1 i j m r r p                                                                                                                           ",
"                                                                                                                                                                                                          - ) ) { - - - - - - , , , , , , , > % ) { , , , { ) { { { { ] & = * < D [ 2 * & $ - - - k j l l p 1 ) I - - ! I , I ) _ i n B t p ) i l m r k                                                                                                                           ",
"                                                                                                                                                                                                          ) ) { - - - - - , - , , , , , , $ % > ) { , , , ) ) { { { > ] & # / D o [ : = & { - ; - k l l j p 1 ) I - - ! ) , , { ) _ l B v s p k p j p k k                                                                                                                         ",
"                                                                                                                                                                                                        - ) { - - - - , - - , , , , , , , % ] ) { , , , { ) { { { { ] & = @ < o J [ + & > - - ; ) j l l p p 1 ) I - - - ! I , , { P p n t v s p _ k q P )                                                                                                                         ",
"                                                                                                                                                                                                      - ) ) { - - - - - - , , , , , , , > % ! ) { , , { ) ) { { { > ] & R 2 [ J J < * & { - ; - k j l j p p 1 1 ) I - - ! ) , , I ! i j l t w v p ! ! ) ,                                                                                                                         ",
"                                                                                                                                                                                                      ) ) { - - - - - - - , , , , , , , % ! ) { , , , { ) { { { { ] & = ' 6 o 4 a / = > - } $ $ k i i j p p 1 q ) I - - - ! ) ! ! q _ i j n t t B p 9 { ,                                                                                                                         ",
"                                                                                                                                                                                                    ) ) ) { - - - , - - , , , { { , , > 1 ! { , , , { ) ) { { { > & = @ < a 4 K a * & { - ; ; > ) ) q q i p k k ) ) I - - - ! I I ) ! q i j l n r w p - ,                                                                                                                         ",
"                                                                                                                                                                                                  { ) ) { - - - - - I - , , , { { , ) % 1 ) { , , { ) ! ) { { > ] & = + 6 b N K < = % } - $ - { { ) ) ) q q p k 1 ) I - - - ! , I { ) P q i p ^ B G r p -                                                                                                                         ",
"                                                                                                                                                                                                  ) ) ) - - - - - - - , , , , { { ) % q 1 ) { , { ) 1 ! { { { ] & = @ 2 D K N a ' & > - ; $ - , , { { { ) 1 q p 1 k ) I - - ! , I I ) 9 P q i p B C G r p                                                                                                                         ",
"                                                                                                                                                                                                ) ) ) { - - - , - - , , , , { { { ) q 1 ) { , { ) ! 1 ! { { > & = = : 6 K N 4 < = & { - $ ; $ > > > , , { ) 1 q k k ) ) I - ! ) , , ) 9 P 1 ( p ^ B C r l k                                                                                                                       ",
"                                                                                                                                                                                              { ) ) ) - - - , - , - , , , { { { ) % q 1 ) { { ) ) 1 1 ) { { ] & = @ < a L N a ' & % - ; $ - > > > % % > , - { 1 q k ! ) I - - ) ) ) 1 ! ! 1 q k p ^ B r l k                                                                                                                       ",
"                                                                                                                                                                                              { ) ) - - - - - - - , , , , { { ) > q 1 ! ) { ) ) 1 q 1 { { > & = @ : [ K N 4 < = & > - $ ; - > > ] % & % ] - - { 1 q q ) ) - - - ) ) ) ) ! 1 P _ k j r B l k                                                                                                                       ",
"                                                                                                                                                                                            - ) ) { - - - - - ~ - , , , { { { ) % q ! ) { ) ) 1 k q 1 { { ] & = ' 2 o 4 N a 2 & % { - $ - $ ] > % . & & % $ , , { 1 k ) 1 - I - I I I I ) ) 9 ! _ k l l l k                                                                                                                       ",
"                                                                                                                                                                                          ) ) ) ) - - - - - - - - - { { { { ) % q 1 ! ) { ) ) 1 q 1 ) { > & = @ ' D b N K < + & > - ; $ - $ > ] % & & . & % > - , ) q ) 1 I ) I - I , I I ) ) ) 9 _ i p p k                                                                                                                       ",
"                                                                                                                                                                                        - ) ) ) ) { , , I I - , { { { { { ) > % q ! ! ) { { ) ) 1 ) { { & = * ' < K L N 3 2 = & { - $ ; - $ > % & & & . & & % > , , ) 1 1 ! ) I ) - - , I I I { { ) 1 q i k                                                                                                                       ",
"                                                                                                                                                                                      - ] ] ] % % % ] $ $ $ $ { { { { { ) ! 1 q 1 ! > & * + + @ # . & % & # ' 2 a L N K [ ' & ] - ; $ - $ $ > % . = . & & & . % $ , { 1 1 ! ) I ) - - - - - , I I I I ! k k                                                                                                                       ",
"                                                                                                                                                                                      > - - - - ; % = = % { { { { { ) ) ! ! q q & = # ] > > > > > % . # # @ ' < K N N 3 2 * & > - $ ; - $ $ $ $ . . & . & . . & % , , ) 1 ! ) I I - - - , , , , I ) ) ) k                                                                                                                         ",
"                                                                                                                                                                                    > > - - - - - - - - - = ] ) ) ) ) ! ! 1 q # # ] ; ; - - - - - - - - % . @ ' o M N [ / # & ; - $ - - $ $ $ $ $ % & . . . . . & > , { 1 1 ) I - I - , I I I I ) q _ ) k                                                                                                                         ",
"                                                                                                                                                                                  > - - - - - - - - - - - - ] # ) ! ! ! ! 1 # . ; - - - - - - - - - - - - > % @ < J 3 < ' # ] - ; $ - $ $ $ $ $ $ $ ] % & . . . & & > , ) 1 ) I - I ! ! I I ) ) ) q i _                                                                                                                           ",
"                                                                                                                                                                                % > - - - ~ - - - - - - - - - ] # . % ! ! # . $ - - - - - - - - - - - - - - - $ + < D : # . ; - $ ; - - - - $ $ $ $ $ ] % . . . . . & , { 1 ) I - I I q ! ) ) ) q q i                                                                                                                             ",
"                                                                                                                                                                                % - - ; ; $ - - - - - - - - - - ] ' + 2 2 ' ] ; - - - - - - - - - - - - - - - - % + < : # % - - $ - - - - - - - $ $ $ $ ] % # . . = # % , ) ) I - - I ! q ! ! q i i q                                                                                                                             ",
"                                                                                                                                                                                % - - ; $ $ - - - - - - - - - - - # ' + + # ] ; - - - - - - - - - - - - - - - - $ . / : . ] - ; ; - - - - - - - - - $ $ $ ] % . . = # & , { ) I - - I I ! q q i q q                                                                                                                               ",
"                                                                                                                                                                              = % - ; ; $ $ $ ; - - - - - - - - - ] # ' ' # > $ $ - - - - - ~ - - ~ - - - - - - - > + : & ; - $ - - - - - & ' ' @ # & - $ $ ] % . = # # % , ) - - I I ) q q ! q                                                                                                                                   ",
"                                                                                                                                                                              = % ] > > > > > $ ; - - - - - - - - ] . # * . % > > $ ; } } ~ ~ } } ~ - - - - - - - > * * ] - - $ - - - ] & # = * * ' : : % $ $ ] . = = # & , { I I ) I _ ! ) q                                                                                                                                     ",
"                                                                                                                                                                              = > ] ] ] ] > > $ ; - - - - - - - - - . . # . & % > $ ; } } ~ ~ } } ~ - - - - - - - - # # $ - ; ; - - > > % & # * * @ ' @ : : $ $ ] . = # . , { I I 1 1 1                                                                                                                                           ",
"                                                                                                                                                                              = % % % % % > > > $ ; ; - - - - - - - = & % . . . % ] ] ; } } } } } - - - - - - - - - = # $ - $ - - - > % % & # = # # # * ' ' : ; ; ] & # # , { I                                                                                                                                                   ",
"                                                                                                                                                                          1 p = & & & & & % > $ $ ; ; - - - - - - - # & % # # . . % ] ] $ } } } } - - - - - - - - - & # $ ; ; - - - > ] & . . = . . # # * * ' : > > & # =                                                                                                                                                         ",
"                                                                                                                                                                        q p ^ m # # # # . & $ $ $ ; ~ } } } ~ ; - ] # = = @ + = = . % % ] ; ~ } } } } - - - - - - - & & $ $ ; - - - $ ] ] & & % & & . = # = * ' # } % . =                                                                                                                                                         ",
"                                                                                                                                                                      q p n n r + + + @ = . ] $ $ ; ; ~ ~ ; $ - - & # * * ' + ' = = . % ] > $ ~ ~ - - - - - - - - > & % $ $ - - - $ ] % % . & % & & . # * * # * ' ] - % #                                                                                                                                                         ",
"                                                                                                                                                                  1 q p m m s w x + / + * = . % ] ; ; ~ ; ; $ - % * # # @ + : 2 ' = = . % ] > $ $ - ; - - - - - - ] & > ] - - - - $ ] % & . . . & . . # = # * * * # - % #                                                                                                                                                         ",
"                                                                                                                                                              1 1 1 j t t s v v x C + < + * = . & % ] $ ] ] ] % * & % ~ ~ ~ & * / @ = = . % % > $ $ ; - - - - - ] & % $ ; - - - $ ] % & & & & & . % . . # = = * * ' ] > #                                                                                                                                                         ",
"                                                                                                                                                              1 u q n w w t v x C C C + < < + @ = . & & & & & * & % ~ - - - - - . / / @ = = = % % > $ $ $ $ $ ] % % ] ; - - - - ] % . . & & & = & . & . . = = # R ' = > .                                                                                                                                                         ",
"                                                                                                                                                          1 1 ).n r r r s v v C C C C x + + < : ' # . . & * & & $ ~ ~ - - - - - - % @ / 2 ' * = = % ] ] ] ] % % > $ - - - - - ] . % . . . . . = & & . . = = = * R ' @ - -                                                                                                                                                         ",
"                                                                                                                                                        1 1 p m r v v v t x C C C C C C v v : : ' ' * % % % $ ; - - - - - - - - - - ~ % . ' : 2 2 + ' # = % $ $ $ - - - - - - # . % . . & & . . & . & = . . = . * * @                                                                                                                                                             ",
"                                                                                                                                                      { f n ^ r w v v x v E G C x C C v v v r j % % % % ] > - - - - - - - - - - - - - - - - - - - - - - - - - - - - - - - ] . @ . % & & & & & & & & . . = # = = . * @                                                                                                                                                             ",
"                                                                                                                                                  , u t n r s w w w E v x G E E C C C C v v B p . . . % ] - - - - - - - - - - - - - - - - - - - - - - - - - - - - - - - ] . ' + % & & & & & & & . . & = = = = = = * #                                                                                                                                                             ",
"                                                                                                                                                ! ! l t m r w x s s E E E E G E x x C C C s m # # # = & ] { - - - - - - - - - - - - - - - - - - - - - - - - - - - $ $ % . ' : @ % . & & . * . & . . . . . = = . . * R                                                                                                                                                             ",
"                                                                                                                                            ) ( ( p m m r x v x x w H x x F G F F x x C C t j * * ' = % { { - - - - - - - - - - - - - - - - - - - - - - - - - - - $ % . * : 2 # % . . & . . = & . % & & = . = . . = R                                                                                                                                                             ",
"                                                                                                                                        { ( p p l l m r w w x x x F x G F E E E E E G F v r p ' + : = ] { { - - - - - - - - - - - - - - - , - - - - - - - - - - - % . * : [ < % & . . & & . . & % & . . & & . = . = #                                                                                                                                                             ",
"                                                                                                                                        ! T j j j t r r r x x x x E E E E E E E G G F G s m + + : : . ] { { - - - - - - - - - - - - - , { , - - - - - - - - - - > . # ' < 8 ' % . & . & . & . & . . & . & . . . = = =                                                                                                                                                             ",
"                                                                                                                                    { ( c j j r r m w t x x x v E E E G E E E E H G E C t m + 2 : ' % { { { - - - - - - - - - - - - - , { , - - - - - - - - - - . # ' 2 2 / = % & . & & = . & . % & . & & = . . = = =                                                                                                                                                             ",
"                                                                                                                                { _ u x r r t m m s w v E E w G E E G E E E G G G G F v r j @ : : # ] { { { - - - - - - - - - - - , { { { , - - - - - - - - - > # ' : : : @ = % . & & . . & . . . . & & . . & . = = .                                                                                                                                                             ",
"                                                                                                                                ! T j j j t r r r x x x x E E E E E E E G G F G G G C s m p ' ' ' & ] { { { - - - - - - - - - - , { { { { , - - - - - - - - - % * ' ' ' ' # & & . . & . & & & . & . . & . & & & . . =                                                                                                                                                             ",
"                                                                                                                            { ( c j j r r m w t x x x v E E E G E E E E H G E F G G v t n * @ @ * % { { { { - - - - - - , , { { { { { { { , - - - - - - - - - . @ @ @ @ @ # % . & . . = . & . % . & . . = . . . & . .                                                                                                                                                             ",
"                                                                                                                          { _ u x r r t m m s w v E E w G E E G E E E G G G G F C v s m j * @ * = ] { { { { - - - - - - , , { { { { { { { , - - - - - - - - - . # # # # # = % & . & & & . . & . & . & & & . . . . . .                                                                                                                                                             ",
"                                                                                                                        ( f q s s s t r n t w v G G t E F E F G F F E E G G F E C C s n p * * = = ] { { { { - - - - - , , , , , , , { { { , - - - - - - - - - = = = = = = = % . . & & & = & & & . . & & & = . % & & &                                                                                                                                                             ",
"                                                                                                                                                                                                                                                                                                                                                                                                                                                                                  ",
"                                                                                                                                                                                                                                                                                                                                                                                                                                                                                  ",
"                                                                                                                                                                                                                                                                                                                                                                                                                                                                                  ",
"                                                                                                                                                                                                                                                                                                                                                                                                                                                                                  ",
"                                                                                                                                                                                                                                                                                                                                                                                                                                                                                  ",
"                                                                                                                                                                                                                                                                                                                                                                                                                                                                                  ",
"                                                                                                                                                                                                                                                                                                                                                                                                                                                                                  ",
"                                                                                                                                                                                                                                                                                                                                                                                                                                                                                  ",
"                                                                                                                                                                                                                                                                                                                                                                                                                                                                                  ",
"                                                                                                                                                                                                                                                                                                                                                                                                                                                                                  ",
"                                                                                                                                                                                                                                                                                                                                                                                                                                                                                  ",
"                                                                                                                                                                                                                                                                                                                                                                                                                                                                                  ",
"                                                                                                                                                                                                                                                                                                                                                                                                                                                                                  ",
"                                                                                                                                                                                                                                                                                                                                                                                                                                                                                  ",
"                                                                                                                                                                                                                                                                                                                                                                                                                                                                                  ",
"                                                                                                                                                                                                                                                                                                                                                                                                                                                                                  ",
"                                                                                                                                                                                                                                                                                                                                                                                                                                                                                  ",
"                                                                                                                                                                                                                                                                                                                                                                                                                                                                                  ",
"                                                                                                                                                                                                                                                                                                                                                                                                                                                                                  ",
"                                                                                                                                                                                                                                                                                                                                                                                                                                                                                  ",
"                                                                                                                                                                                                                                                                                                                                                                                                                                                                                  ",
"                                                                                                                                                                                                                                                                                                                                                                                                                                                                                  ",
"                                                                                                                                                                                                                                                                                                                                                                                                                                                                                  ",
"                                                                                                                                                                                                                                                                                                                                                                                                                                                                                  ",
"                                                                                                                                                                                                                                                                                                                                                                                                                                                                                  ",
"                                                                                                                                                                                                                                                                                                                                                                                                                                                                                  ",
"                                                                                                                                                                                                                                                                                                                                                                                                                                                                                  ",
"                                                                                                                                                                                                                                                                                                                                                                                                                                                                                  ",
"                                                                                                                                                                                                                                                                                                                                                                                                                                                                                  ",
"                                                                                                                                                                                                                                                                                                                                                                                                                                                                                  ",
"                                                                                                                                                                                                                                                                                                                                                                                                                                                                                  ",
"                                                                                                                                                                                                                                                                                                                                                                                                                                                                                  ",
"                                                                                                                                                                                                                                                                                                                                                                                                                                                                                  ",
"                                                                                                                                                                                                                                                                                                                                                                                                                                                                                  ",
"                                                                                                                                                                                                                                                                                                                                                                                                                                                                                  ",
"                                                                                                                                                                                                                                                                                                                                                                                                                                                                                  ",
"                                                                                                                                                                                                                                                                                                                                                                                                                                                                                  ",
"                                                                                                                                                                                                                                                                                                                                                                                                                                                                                  ",
"                                                                                                                                                                                                                                                                                                                                                                                                                                                                                  ",
"                                                                                                                                                                                                                                                                                                                                                                                                                                                                                  ",
"                                                                                                                                                                                                                                                                                                                                                                                                                                                                                  ",
"                                                                                                                                                                                                                                                                                                                                                                                                                                                                                  ",
"                                                                                                                                                                                                                                                                                                                                                                                                                                                                                  ",
"                                                                                                                                                                                                                                                                                                                                                                                                                                                                                  ",
"                                                                                                                                                                                                                                                                                                                                                                                                                                                                                  ",
"                                                                                                                                                                                                                                                                                      + + + + + + +                                                                                                                                                                               ",
"                                                                                                                                                                                                                                                                                  % = = & . * : / 2 : %                                                                                                                                                                           ",
"                                                                                                                                                                                                                                                                                ] % = & % . = . ' / + & -                                                                                                                                                                         ",
"                                                                                                                                                                                                                                                                                $ & = ] % & & % * + ' = %                                                                                                                                                                         ",
"                                                                                                                                                                                                                                                                                ; = @ > ] % % ] . # # . % -                                                                                                                                                                       ",
"                                                                                                                                                                                                                                                                        ] ] ] ; > @ @ ] > ] ] ] % = # # . -                                                                                                                                                                       ",
"                                                                                                                                                                                                                                                                    $ ] ] ] . ; > @ @ ] ; ; ] ] % . = # . -                                                                                                                                                                       ",
"                                                                                                                                                                                                                                                                  - $ ] $ . . ; > @ # ] ; ; ] ] % & . = . ;                                                                                                                                                                       ",
"                                                                                                                                                                                                                                                                  - - > ; . . ; > = # ] ; ; $ > % % & . & $ -                                                                                                                                                                     ",
"                                                                                                                                                                                                                                                                  - - $ ; ] & ; > . = % ; ; $ > % % % & % ] -                                                                                                                                                                     ",
"                                                                                                                                                                                                                                                                  - - ; ; $ ] ~ > ] = % ; ; $ > ] % % % ] % -                                                                                                                                                                     ",
"                                                                                                                                                                                                                                                                  - - { ; $ ; ~ $ > . % ; ; $ > ] % ] % ] % ;                                                                                                                                                                     ",
"                                                                                                                                                                                                                                                                  - - { ; ; ] ~ $ > & % $ ; $ $ ] % > ] > % ] -                                                                                                                                                                   ",
"                                                                                                                                                                                                                                                                  - - { ; ; ] ~ ; > ] % $ ; ; $ > ] > $ > % ] -                                                                                                                                                                   ",
"                                                                                                                                                                                                                                                                  - - { ; ; ~ ~ - > ] % $ ; ; ; $ $ > $ > % % -                                                                                                                                                                   ",
"                                                                                                                                                                                                                                                                  - - { ~ ; ~ - - > > % $ ; ~ ; $ $ > $ $ ] % -                                                                                                                                                                   ",
"                                                                                                                                                                                                                                                                  - - { ~ ~ ~ - - > > % $ ; ~ ; $ $ > $ $ ] % - -                                                                                                                                                                 ",
"                                                                                                                                                                                                                                                                  - - { ~ ~ ~ - - > > ] $ ; ~ ; $ $ > $ $ $ % - -                                                                                                                                                                 ",
"                                                                                                                                                                                                                                                                  - - { ~ ~ ~ - - > > ] > ; ~ ; $ $ $ > $ $ % ; -                                                                                                                                                                 ",
"                                                                                                                                                                                                                                                                  - - { ~ ~ ~ - - > > ] > ; ~ , $ $ $ > $ $ % $ -                                                                                                                                                                 ",
"                                                                                                                                                                                                                                                                  - - { ~ ~ ~ - - > > > > ; ~ , $ , ; > $ $ % ] - !                                                                                                                                                               ",
"                                                                                                                                                                                                                                                                  - - { ~ ~ - - - $ > > > ; ~ , ; , { > $ $ ] % - !                                                                                                                                                               ",
"                                                                                                                                                                                                                                                                  - - { ~ ~ - - - $ > $ > ; ~ , ; , , > $ $ ] % - !                                                                                                                                                               ",
"                                                                                                                                                                                                                                                                  - - - - - - - - ; > $ > ; ~ , ; , , $ $ { $ % - !                                                                                                                                                               ",
"                                                                                                                                                                                                                                                                  - - - - - - - - - > $ $ ; - , , , , $ $ { $ % - ) 1                                                                                                                                                             ",
"                                                                                                                                                                                                                                                                  - - - - - - - - - > $ $ ; - , , , , $ $ { $ % $ , 1                                                                                                                                                             ",
"                                                                                                                                                                                                                                                                  - - - - - - - - - > $ $ ; - , , , { , $ { $ % ] - !                                                                                                                                                             ",
"                                                                                                                                                                                                                                                                  - - - - - - - - - > $ ; ; - , , , , { $ { { ] % - !                                                                                                                                                             ",
"                                                                                                                                                                                                                                                                  - - - - - - - - - > $ ; ; - , , , , , { { { $ % - ! _ p p i u                                                                                                                                                   ",
"                                                                                                                                                                                                                                                                  - - - - - - - - - > $ ; ; - , , , , { { { { { % - ) 1 t H x q !                                                                                                                                                 ",
"                                                                                                                                                                                                                                                                  - - - - - - - - - > $ ; ; - - , , , , { { { { % - { 1 m C t j 1                                                                                                                                                 ",
"                                                                                                                                                                                                                                                                  - - - - - - - - - > $ ; ; ~ - , , , { { { { { % $ , ! p n t l q !                                                                                                                                               ",
"                                                                                                                                                                                                                                                                  - - - - - - - - - $ > ; , ~ - , , , , { { { { % ] - ! k j m l p q                                                                                                                                               ",
"                                                                                                                                                                                                                                                                  - - - - - - - - - $ > ; , ~ - , , , { { { { { ] % - ) 1 i m l k n !       j n n ^ p                                                                                                                             ",
"                                                                                                                                                                                                                                                                  - - - - - - - - - ; > $ ; ~ - , , , { { { { { { & - ) 1 k m m i n 1     i $ q q q i q                                                                                                                           ",
"                                                                                                                                                                                                                                                                  - - - - - - - - - - > $ ; ~ - , , , , { { { { { . - { ! k l m p p 1 1 ! q $ q i i i q q                                                                                                                         ",
"                                                                                                                                                                                                                                                                  - - - - - - - - - - > $ ; ~ - , , , , { { { { { . $ , ! k ^ B l q q $ k ) 1 k n l j i ) )                                                                                                                       ",
"                                                                                                                                                                                                                                                                  - - - - - - - - - - > $ ; ~ - , , , , { { { { { & ] - ) 1 p r n q ) $ ! ) 1 p n j j j q ! )                                                                                                                     ",
"                                                                                                                                                                                                                                                                  - - - - - - - - - - > $ ; ~ - , , , , , { { { { % . - { 1 q B m k ) $ ! ) ) p p p i p j i ^ i q                                                                                                                 ",
"                                                                                                                                                                                                                                                                  - - - - - - - - - - > $ ; ~ - - , , , { { { { { ] # - , ! 1 m B i 1 { - - , 1 i i i k i k l t m l                                                                                                               ",
"                                                                                                                                                                                                                                                                  - - - - - - - - - - > $ ; ~ - - , , , { { { { { { = - - ! 1 n r p _ , - - - ) q k i i i 1 1 i j B j                                                                                                             ",
"                                                                                                                                                                                                                                                                  - - - - - - - - - - > > ; - - - , , , { { { { { { = $ - ! 1 l B l q ) , - - ) j j B 1 ) ) ) ) k i B n                                                                                                           ",
"                                                                                                                                                                                                                                                                  - - - - - - - - - - $ > ; - - - , , , , , { { { { = ] - ) 1 j m l k ) - I k ) p j p p ^ i ) ) ) q k p ^                                                                                                         ",
"                                                                                                                                                                                                                                                                  - - - - - - - - - - $ > ; - - - , , , , { { { { { & . - { 1 p n m i 1 I 1 p ) ! i i i i j i i ) ) k 1 k p                                                                                                       ",
"                                                                                                                                                                                                                                                                  - - - - - - - - - - - > $ - - - , , , , , { { { { % # $ - ! i l B p _ I k q ) ) ! k q k k k q i l ) ) I ) k ^                                                                                                   ",
"                                                                                                                                                                                                                                                                  - - - - - - - - - - - > $ - - - , , , , { { { { { { * ] - ! _ j r l q I q ) ) , 9 ! 1 1 1 1 1 ) i l ) ) I ) q                                                                                                   ",
"                                                                                                                                                                                                                                                                  - - - - - - - - - - - > $ - - - , , , , , { { { { { * & - ) 1 p B n k ) ) ) , , 9 1 i t k 1 ) ) 1 i l l , I I ^                                                                                                 ",
"                                                                                                                                                                                                                                                                  - - - - - - - - - - - > $ - - - , , , , , { { { { { * & - { 1 i m m i 1 , I , , 9 9 i r n l , ) ) 1 i n n I I )                                                                                                 ",
"                                                                                                                                                                                                                                                                  - - - - - - - - - - - > $ - - - - , , , , { { { { { # # $ , ! _ n B p 1 I , ) , , 9 q l ^ j j , , ) 1 i n i I I i                                                                                               ",
"                                                                                                                                                                                                                                                                  - - - - - - - - - - - > $ - - - - , , , { { { { { { & # ] - ! _ l r l 1 I , , ) , 9 q p i k i ^ ) , ) 1 j n ) I , p                                                                                             ",
"                                                                                                                                                                                                                                                                  - - - - - - - - - - - > $ - - - - , , , , { { { { { % * & - ) 1 j t n k { , , ) , , 1 q k q q i ^ ) I ) q q k ) I 1 j                                                                                           ",
"                                                                                                                                                                                                                                                                  - - - - - - - - - - - > > - - - - , , , , , { { { { { * & - ) 1 p s m i { { { , , , ) 1 1 ! 1 q p ^ p I ) ) k q ) I ) ^                                                                                         ",
"                                                                                                                                                                                                                                                                  - - - - - - - - - - - $ > - - - - , , , , { { { { { { * # - { 1 i B B p ! { , ) , , , , ) ) ! 1 1 i j r 1 I , k l l ) ) ^                                                                                       ",
"                                                                                                                                                                                                                                                                  - - - - - - - - - - - $ > - - - - , , , , { { { { { { * # $ , ! q n B l 1 ) { ) ) { { , , ) ) ! 1 1 k n ^ p I , q n m k , n                                                                                     ",
"                                                                                                                                                                                                                                                                  - - - - - - - - - - - ; > - - - - , , , , , { { { { { * # ] - ! _ l r n q ) ) - ) , , , , , ) ) ! 1 1 p p ^ p I I ! j n p 1                                                                                     ",
"                                                                                                                                                                                                                                                                  - - - - - - - - - - - - > - - - - , , , , { { { { { { # * & - ) 1 p t m i ) ) ) - ) , , I , , ) ) ! 1 k k p n p , I q j j j j                                                                                   ",
"                                                                                                                                                                                                                                                                  - - - - - - - - - - - - > - - - - - , , , , { { { { { & * & - { 1 i B B p q ) ) - I 1 , , , ) ! ! _ _ 1 1 k n n t q I 1 q 1 i j                                                                                 ",
"                                                                                                                                                                                                                                                                  - - - - - - - - - - - - > } - - - - , , , , { { { { { % * # - , 1 _ m r l k 1 ) ) - I ) ) I , , , , { ) ) ) i i l ^ ^ i q ) ) i j                                                                               ",
"                                                                                                                                                                                                                                                                  - - - - - - - - - - - - > ~ - - - - , , , , , { { { { { * # $ - ! 1 n t m j k 1 ) ) - I i ) I I I , , { ) ) ) 1 q q j B s j , ) i j                                                                             ",
"                                                                                                                                                                                                                                                                  - - - - - - - - - - - - > ; - - - - , , , , { { { { { { * # ] - ) 1 l s B j p 1 1 ) ) - I i I I I , I , { ) ) ) ) 1 1 j ^ ^ p ) ) k j                                                                           ",
"                                                                                                                                                                                                                                                                - - - - - - - - - - - - - > $ - - - - , , , , , { { { { { # # & - { 1 p r m j j j 1 ) ) ) - I ! I I I I I , { ) ) ) ) ) 1 i k j n ^ i j                                                                           ",
"                                                                                                                                                                                                                                                                - { - - - - - - - - - - - > $ - - - - , , , , { { { { { { & * & - , ! i l B j l j i 1 ) ) ) - I ! ) I , , , , , { { ) ) ) 1 _ k p r r t j                                                                         ",
"                                                                                                                                                                                                                                                                - { , - - - - - - - - - - > > - - - - , , , , , { { { { { % * # - - ! _ j r l l j i k 1 ) ! - - I I ) I I I I , I ) ! 1 1 q q k k p n n w q                                                                       ",
"                                                                                                                                                                                                                                                              ! - { , - - - - - - - - - - $ > - - - - , , , , , { { { { { { * # $ - ! 1 p B n j j i k k 1 ) ) - - - I ) ) I I I , , , , , { ) ) _ q p n n w j                                                                     ",
"                                                                                                                                                                                                                                                              ! - { , - - - - - - - - - - $ > - - - - , , , , { { { { { { { ' # ] - ) 1 i m m j j i i k k 1 ) - - - I I 1 ) I I I I I , I , { ) 1 _ _ p n r n p                                                                   ",
"                                                                                                                                                                                                                                                            1 ! - { , - - - - - - - - - - ; > - - - - , , , , , { { { { { { ' # & - { 1 _ n B j j i i k i q ) ) - - - - ! i ! ! ) , I I I , I { ) 1 _ p l n l )                                                                   ",
"                                                                                                                                                                                                                                                            i ) - { , - - - - - - - - - - - > - - - - , , , , , , { { { { { ' @ # - , ! _ l r l j i i k i q 1 ) - - - - - ) ! I I I I , , I I , 1 _ q k p ^ p )                                                                   ",
"                                                                                                                                                                                                                                                          1 i ) - { , - - - - - - - - - - - > - - - - - , , , , , { { { { { * * + $ - ! 1 j t n j i i k i q 1 1 I - - - - I ! { I I , , I I I , ) 1 1 _ k p k )                                                                   ",
"                                                                                                                                                                                                                                                          k i ) - { , - - - - - - - - - - - > ~ - - - - , , , , { , { { { { # * + ] - ) 1 p s m j i i k p q 1 q I - - - - I ) ! I I I I I , , , I ) 1 k p k _ q                                                                   ",
"                                                                                                                                                                                                                                                          i j ) - ) , - - - - - - - - - - - > ; - - - , , , , , { { { { { { & * / & - { 1 i B B p p i i p q 1 q ) { - - - - I I I I I , I I , , ) q q q 1 _ )                                                                     ",
"                                                                                                                                                                                                                                                        i p j ) - ) , - - - - - - - - - - - > $ - - - - , , , , , { { { { { % ' / @ - , ! q n B ^ p j i p q q q ! { - - - - - I I I I I , , I ) , , , , 1 _ )                                                                     ",
"                                                                                                                                                                                                                                                        i p j ) - ) , - - - - - - - - - - - > $ - - - - , , , , { { { { { { { ' / + - - ! _ ^ ^ ^ p j i p q q q 1 { - - - I I I ) I I I I I I I , I , , 1 _ ]                                                                     ",
"                                                                                                                                                                                                                                                        i p j ) - ) , - - - - - - - - - - - > > - - - - , , , , , { { { { ) { ' / / - - { 1 k k p p j i p q q k 1 ) { - I I ) ) I I I I I I I I , , I ! _ )                                                                       ",
"                                                                                                                                                                                                                                                        i p j ) - ) , - - - - - - - - - - - $ > - - - - , , , , , { { { { ) { * / 2 $ - - - - 1 1 k p i p i q k 1 ) { - - I 1 I I I I I I , , , , ) ! ) _ )                                                                       ",
"                                                                                                                                                                                                                                                        i i l ) - 1 , - - - - - - - - - - - $ > - - - - , , , , , , { { { ) { # / 8 ] - - - - - - - 1 k p i q k 1 1 { { - I 1 I , , , , , ) ) ) ) ) ! 1 _ )                                                                       ",
"                                                                                                                                                                                                                                                        i i l ) - ) , - - - - - - - - - - - ~ > - - - - - , , , , , { { { ) { & + 5 = - - - ] > - - - ) 1 k q i 1 1 ) ) - I ) ) I , , ) ) ) ) 1 1 i p ^ ) >                                                                       ",
"                                                                                                                                                                                                                                                        i k j ) - ) , - - - - - - - - - - - - > - - - - - , , , , { , { { ) { % ' a / - - - = . & $ - - ) 1 1 p 1 q ) ) - I I I I , , , I ) ) ) 1 q i i )                                                                         ",
"                                                                                                                                                                                                                                                        i q p { - { , - - - - - - - - - - - ~ > - - - - - , , , , { { { { ) { { ' a 5 ; - - & # * # > - - ] 1 q 1 q ) ) { - ) ) I , , , I , ) , ) 1 q i )                                                                         ",
"                                                                                                                                                                                                                                                        i ) k ) - { , - - - - - - - - - - - ~ > - - - - - , , , , , { { { ) { { ' a J $ - - % * * * # = - - ) ) 1 k ) ) ) - , ) ) I I I , ) 1 ) ) 1 i q _                                                                         ",
"                                                                                                                                                                                                                                                        k ) ) { - { , - - - - - - - , - - - ~ > ~ - - - , , , , , { { { { ) { { * a K ] - - > = * ' * + = - - ) ) q ) ! ! - , , ) 1 ) I I , ) 1 _ q 1 -                                                                           ",
"                                                                                                                                                                                                                                                          ! ) ) - ) , - - - - - - - , - - ~ ~ > ; - - - - , , , , , { { { ) { { # 5 L & - - - * * * @ @ + # - - ) ! ) 1 1 - I , ) 1 1 ) I I , ) k 1 - I                                                                           ",
"                                                                                                                                                                                                                                                          l ) ) - { , - - - - - - - , - - ~ - > $ - - - - , , , , , , { { ) { { & 5 M / - - - & * * * * * + # - - ) ) q q { I I , ) , 1 ) I I , k ! -                                                                             ",
"                                                                                                                                                                                                                                                        l i q ) - ) , - - - - - - - , - - - ~ > $ - - - - , , , , , { { { ) ) { % < M / ; - - % * * ' ' * * ' = - - ) 1 i ) I I , , , , , , , , k ) -                                                                             ",
"                                                                                                                                                                                                                                                      l i j n ) - { , - - - - - - - , - - ~ ~ > > - - - - - , , , , , { { ) ! { { / N 5 $ - - > * * * ' ' @ / + % - - ] i 1 I , , ) ) , , , , I 1 - I                                                                             ",
"                                                                                                                                                                                                                                                      l i j n k - ! , - - - - - - - , - - ~ - $ > - - - - , , , , , { , { ) ! { { + N 5 ] - - - * * * * * @ ' / 2 > - I q 1 , , , , ) ) , , , { 1 -                                                                               ",
"                                                                                                                                                                                                                                                      l i p p q , ! , - - - - - - - , - - ~ - $ > - - - - , , , , , , { { ) ! { { % N b @ - - $ = * * * * ' ' + / 2 $ - ) k , , , , { ) ) , I ) I -                                                                               ",
"                                                                                                                                                                                                                                                      l i k i ) { ) , - - - - - - , , - - - ~ ; > - - - , - , , , , { { { { 1 { { % N N + - - $ % * * * ' ' ' + : 6 ' - - ! , ) ) { , ) 1 ) , ) - I                                                                               ",
"                                                                                                                                                                                                                                                      l i i n - ) { , - - - - - - , , - - - ~ ~ > - - - - - , , , , , , { { 1 { { % N N / ; - - % @ + : * ' ' + 2 / 6 = - - , 1 _ > { ! k 1 , I -                                                                                 ",
"                                                                                                                                                                                                                                                      i q i i - ) { , - - - - - - , , - - ~ ~ ~ > - - - - , , , , ) , { { { ! ) { % b N 5 $ - - - @ @ * 2 2 * + + 2 < 6 % - , 1 k 1 ) 1 i 1 ) - -                                                                                 ",
"                                                                                                                                                                                                                                                    i ) { O P - ) { , - - - - - - , , - , ~ ~ ~ > ~ - - - - , , , ! { , { { ) ) { { b N o ] - - $ = @ @ @ : 2 * + : < < ' > > ) q k i i k 1 ) - ]                                                                                 ",
"                                                                                                                                                                                                                                                    i ) { { { - ) { , - - - - - - , , - , - ~ ~ > ; - - , - , , , , , { , { ) ) { { 5 Q b & - - $ & @ @ @ @ + 2 R + + 2 < ' > ) 1 q k k q ) , -                                                                                   ",
"                                                                                                                                                                                                                                                  k p p B ) ) - 1 { , - - - - - - , , - , ~ ~ ~ > $ - - ~ - - , , , , , { { ) ) { { 2 Q 4 & ; - - % @ @ @ @ @ @ + @ R + < 8 # > ) _ q q 1 ) -                                                                                     ",
"                                                                                                                                                                                                                                              i k i p j i ) ) - 1 { , - - - - - - , , - , ~ ~ ~ > $ - - ~ - - , , , , , { % ) ) { { 2 Q S # $ - - $ @ * @ @ @ @ ' + = = + < ' % ) 1 ) ) ) , I                                                                                     ",
"                                                                                                                                                                                                                                              k k k k 1 ! ) ) - ) { , - - - - - - , , - , , ~ ~ > > - - - ~ , , , 1 , { ) & ) ) { { + Q Q ' ] - - - @ * * @ @ @ ' + : = . : : R ) ) ) ) ) -                                                                                       ",
"                                                                                                                                                                                                                                            i q k k ! ) { { { - ) { , - - - - - - , , - , , ~ ~ $ > - - ~ - - , ) i ) , ! ' % ) ) { = Q Q 5 ] ; - $ = * * * @ * @ ' + : = % ' R % , , , )                                                                                         ",
"                                                                                                                                                                                                                                            k q q ! { { ) ) ) - ) { , - - - - - - , , - , , ~ ~ $ > - - ~ - - , , 1 { , ! 2 = ) ) ; = Q Q 3 & ] - $ & * * * @ @ @ ' ' : : = . R R , ,                                                                                             ",
"                                                                                                                                                                                                                                            k ! ) { ) k q q q - ) { , - - - - - - , , - , , ~ ~ ; > - - ~ - - , , , , { ! 2 * ) ) $ + Q N Q # ] - - % * * * @ @ * @ + + 2 : % % R                                                                                                 ",
"                                                                                                                                                                                                                                            i ) ) { k p p i i - ) { , - - - - - - , , - , { - ~ ; > - - , - - , , ! , , ! : # & ) $ 2 Q Q Q 5 # ; - $ * * * @ @ * @ ' + : 2 ' % R                                                                                                 ",
"                                                                                                                                                                                                                                            l { { k m m m l i - ) { , - - - - - - , , - , { ~ ~ ; > - - ) ~ - , ! i ! , ! # * = ) = 5 Q N N S 5 # - - = * * * * * @ ' ' + : 2 * %                                                                                                 ",
"                                                                                                                                                                                                                                            l , k B r r r l i - ) { , - - - - - - , , - , { - ~ ; > ~ - ] { - - , ! , { ) ; $ $ > > = * / 5 S Q 2 - - & * + * * @ @ @ @ ' + : : % >                                                                                               ",
"                                                                                                                                                                                                                                            i k ^ x v v x n i - ) ) , , - - - - - , , - , { ~ ~ ; > ; - & { , - , , , ; ; - - - ~ ; > - - - . 2 2 - - % * + * @ * * * + ' @ : + * >                                                                                               ",
"                                                                                                                                                                                                                                            q ^ w x E E x n q - ) ) { , , - - - - , , - , ) ~ ~ ; > $ - = ] - - , , , - - - - - - - - - - - ~ ; $ - % $ * * * @ @ @ * * @ ' ' + : %                                                                                               ",
"                                                                                                                                                                                                                                          q ^ t G E x x x n 1 , ) { { , - - - - - , , - , ) ~ ~ ; > $ - * = - ~ , - - - - - - > % = ' = - - - - - $ - # = * * @ @ @ * @ * @ ' + + * =                                                                                             ",
"                                                                                                                                                                                                                                        q p n v H E x x C n 1 { ) ) { , - - - - - , , - { ) ~ ~ ; > > - * & - ~ , - - - - - > % = ' 5 ' = - - - - $ - ] & * * * @ * * @ # * * * + + =                                                                                             ",
"                                                                                                                                                                                                                                      q i n w E H E x x C t ) ) ! { ) , , , - - - , , - ) ) ~ ~ ; $ > - = ] - - - - - - - - - > % = ' = - - - - ; ] - - % * * * * * + * # * @ @ ' + =                                                                                             ",
"                                                                                                                                                                                                                                    q i n t v G G v C C C t ) ) ! ) { - , , - - - , ] - { ) { ~ ; $ > - ] - - - - - - - - - - - - - - - - - - - $ ] ; - ; * * * * * * * * * * @ ' + '                                                                                             ",
"                                                                                                                                                                                                                                    i j l t x E v x C C G t - ) ! ) { , - , - - - , = ] - { ~ ~ ; ; > - - - - - - - - - - - - - - - - - - - - - $ ] ; - ] @ * # * * * * * * * * ' + ' =                                                                                           ",
"                                                                                                                                                                                                                                  q j ^ m w x E v C H H E t - ! ! ) , , - - - - - = = ] - , ~ ~ ; ; > - - , - - - - - - - - - - - - - - - - - - ] $ - - & @ @ * * * * * * * * @ ' ' ' =                                                                                           ",
"                                                                                                                                                                                                                                q i n n r w x v E C G G G t - ! ! ! ) - - ] - - - - ] - - - ~ ~ ; ; > - - - - - - - - - - - - - - - - - - - - $ $ ; - ; * @ * * * @ @ @ * * @ @ ' ' + *                                                                                           ",
"                                                                                                                                                                                                                              1 q l m m s w x v G x E E G t - ! ! { { { - - - - - - - - ~ ~ - ~ ; $ > - - , - - - - - - - - - - - - - ] - - ; ; - - ; & # @ * * * @ * * @ @ @ * @ ' ' ' @                                                                                         ",
"                                                                                                                                                                                                                            1 1 1 j t t s x v x C x F F x C - ! ! ) { { - - - - - - - - - ~ ~ ~ $ > - ; - , - - - - - - - - - - - - - - - - - { - ; & * # # @ * * * * @ * @ * @ @ ' ' ' '                                                                                         ",
"                                                                                                                                                                                                                            1 u q n w w t E x E x x G G x C - ! ! { { - - - - - - $ # $ - - - - - - - - - , , - - - - - - - , - - ; ; - - { { - ; > # # # # * * * * * @ * @ * @ * ' ' ' ' =                                                                                       ",
"                                                                                                                                                                                                                          1 1 n k r r r s E x x G E x x G C - ) ) { - - - - ~ - $ # + # $ - - - - - - - - , { , - - - - - - , { - - ; - - - - - > % = = # * * * @ * * * * @ * * @ @ ' ' + =                                                                                       ",
"                                                                                                                                                                                                                        1 1 p m m v v v t x E G F E x x G C - ! ) - - - ~ ~ - - - $ # $ - - - - - - - - , - , { { , - - - - - , , - - - - - - - ] % = = # # * * * * * * @ * @ * @ @ ' ' + *                                                                                       ",
"                                                                                                                                                                                                                        u t n r s m w w E v x G E E E E G C - ! { - - - - - - - - - - - - - - } - - - - - - - - - - - - - - - - - - - - ; $ - - % & = # # * # * * @ @ @ * * + + @ * * ' + @ @                                                                                     ",
"                                                                                                                                                                                                                      ! l t m r w x s s E E E E G E G G C E - { - - - - ~ ~ ~ ~ - - - - - - - - } ~ ~ ~ - - - - - - - - - - - - - ; $ % > - - - & & = # * # * * * * * @ @ * * * @ * @ @ + ' '                                                                                     ",
"                                                                                                                                                                                                                    ( ( p m m r x v x x w H x x F G F F x x ) , - - - - - - ~ ~ - - - - - - - - - - - - - - - - - - - - - - - ; $ > % > - - - - & & * = * * # * * * * @ * @ @ @ * @ * ' ' + * =                                                                                   "};
