/* XPM */
static char * chaingun_xpm[] = {
"114 424 122 2",
"  	c #00FFFF",
". 	c #777777",
"+ 	c #939393",
"@ 	c #DBDBDB",
"# 	c #EFEFEF",
"$ 	c #6B6B6B",
"% 	c #8B8B8B",
"& 	c #ABABAB",
"* 	c #E7E7E7",
"= 	c #4F4F4F",
"- 	c #636363",
"; 	c #7F7F7F",
"> 	c #979797",
", 	c #B7B7B7",
"' 	c #D3D3D3",
") 	c #434343",
"! 	c #6F6F6F",
"~ 	c #838383",
"{ 	c #A7A7A7",
"] 	c #5B5B5B",
"^ 	c #B3B3B3",
"/ 	c #575757",
"( 	c #3B3B3B",
"_ 	c #5B6347",
": 	c #9F9F9F",
"< 	c #BFBFBF",
"[ 	c #DFDFDF",
"} 	c #CBCBCB",
"| 	c #C7C7C7",
"1 	c #7B7F63",
"2 	c #BFA78F",
"3 	c #373737",
"4 	c #53573B",
"5 	c #AF977F",
"6 	c #2F2F2F",
"7 	c #4B4B4B",
"8 	c #332B13",
"9 	c #232323",
"0 	c #272727",
"a 	c #474747",
"b 	c #3F472B",
"c 	c #6F7357",
"d 	c #1B1B1B",
"e 	c #131313",
"f 	c #373F27",
"g 	c #000000",
"h 	c #0B0B0B",
"i 	c #937B63",
"j 	c #070707",
"k 	c #C7C7FF",
"l 	c #676B4F",
"m 	c #533F2F",
"n 	c #43331B",
"o 	c #775F4B",
"p 	c #836B57",
"q 	c #9B7F6B",
"r 	c #B79F87",
"s 	c #5F4B37",
"t 	c #6F5743",
"u 	c #13230B",
"v 	c #2B230F",
"w 	c #1F170B",
"x 	c #7B634F",
"y 	c #8B735B",
"z 	c #FFDBDB",
"A 	c #FFEBDB",
"B 	c #67533F",
"C 	c #9F876F",
"D 	c #670000",
"E 	c #9B0000",
"F 	c #8B0000",
"G 	c #A70000",
"H 	c #CB0000",
"I 	c #7F0000",
"J 	c #B30000",
"K 	c #D70000",
"L 	c #CB5707",
"M 	c #D75F0B",
"N 	c #5B0000",
"O 	c #BF0000",
"P 	c #C34F00",
"Q 	c #DF670F",
"R 	c #430000",
"S 	c #872300",
"T 	c #EB6F0F",
"U 	c #FF7F1B",
"V 	c #B74700",
"W 	c #730000",
"X 	c #FF8F3B",
"Y 	c #932F00",
"Z 	c #FFA35B",
"` 	c #FF1F1F",
" .	c #EF0000",
"..	c #FFB37B",
"+.	c #E30000",
"@.	c #FFC79B",
"#.	c #FF5F5F",
"$.	c #FFD7BB",
"%.	c #9F3700",
"&.	c #FF0000",
"*.	c #FFFF8F",
"=.	c #FF3F3F",
"-.	c #F37317",
";.	c #FFFFFF",
">.	c #771717",
",.	c #FF7B7B",
"'.	c #4F0000",
").	c #FFFFB3",
"!.	c #470000",
"~.	c #FFFF6B",
"{.	c #FF9B9B",
"].	c #FFBBBB",
"^.	c #FFFF23",
"/.	c #FFFFD7",
"(.	c #3F2F17",
"_.	c #FFFF00",
":.	c #972F2F",
"<.	c #FFFF47",
"[.	c #8F7753",
"}.	c #D7BB43",
"|.	c #670B0B",
"1.	c #AF4300",
"                                                                                                                                                                                                                                    ",
"                                                                                                                                                                                                                                    ",
"                                                                                                                                                                                                                                    ",
"                                                                                                                                                                                                                                    ",
"                                                                                                                                                                                                                                    ",
"                                                                                                                                                                                                                                    ",
"                                                                                                                                                                                                                                    ",
"                                                                                                                                                                                                                                    ",
"                                                                                                                                                                                                                                    ",
"                                                                                                                                                                                                                                    ",
"                                                                                                                                                                                                                                    ",
"                                                                                                                                                                                                                                    ",
"                                                                                                                                                                                                                                    ",
"                                                                                                                                                                                                                                    ",
"                                                                                                                                                                                                                                    ",
"                                                                                                                                                                                                                                    ",
"                                                                                                                                                                                                                                    ",
"                                                                                                                                                                                                                                    ",
"                                                                                                                                                                                                                                    ",
"                                                                                                                                                                                                                                    ",
"                                                                                                                                                                                                                                    ",
"                                                                                                                                                                                                                                    ",
"                                                                                                                                                                                                                                    ",
"                                                                                                            . + @ # # @ + .                                                                                                         ",
"                                                                                                        $ % & @ * # # * @ & % $                                                                                                     ",
"                                                                                                    = - ; > , ' * # # * ' , > ; - =                                                                                                 ",
"                                                                                                  ) - ! ~ > { ' * * * * ' { > ~ ! - )                                                                                               ",
"                                                                                                ) ] - ! ; > ^ ' ' * * ' ' ^ > ; ! - ] )                                                                                             ",
"                                                                                              / / / / / / / / / ] ] - - $ $ ! ! . . - = (                                                                                           ",
"                                                                                        ! / / / / / / / / _ / - - $ ! ! ! ! ; ; + + + % ~                                                                                           ",
"                                                                    . + @ # # @ ~ . ! $ $ - - - - - - $ . ; > : : & & : > % ; ~ + + + + % ~ ; . . + @ # # @ + .                                                                     ",
"                                                                $ % & @ ~ . ! $ $ $ - - - - - % ^ ' # # # # # # # # # # # # # * * < { % ~ ; . ! $ ! ; + # * @ & % $                                                                 ",
"                                                            ( - ; > ! - - $ $ $ - - ; + ^ [ # # [ ' } } , , , , , | | | | ' ' [ # # # # * } & + . . . . . + ' , > ; - (                                                             ",
"                                                          ) - ! - - $ $ $ - - % , ' * } , > % % + + + : , , | | @ * * @ | < < & & : > , | [ # # [ } % % . . . . ~ ~ ! - )                                                           ",
"                                                        ) ] - - - - - - ; { @ | { % % ; ; . ~ % % + + > ^ < | ' * * # * ' } ' , , & & : : > % : , @ * * } > . . . . . - ] )                                                         ",
"                                                      ( - $ ! ! - - 1 2 < & > % ~ ; ; ; ~ ~ ; . % % + + > : ^ } } @ @ @ } , , & ^ ^ & & : : : : + + : , ' # @ , . . . . . = (                                                       ",
"                                                    3 = ! ! - ; ^ < & > > > + % ~ ; . . ~ . . . ; . ! . . $ ; ; + | & > > + + + > > : : : & { > > : : { ^ , ' * * ^ ; . . . . 3                                                     ",
"                                                  ] ] - ] ! & } { { { { { > + ; ; ; . . ! . ! - ! - - 4 / / . 5 | # # @ + . $ $ $ ~ + { { : : { : : : & ^ , < < < ' [ < ; . ! . 3                                                   ",
"                                                ] - ] / % : : > { ^ { { { > % ; . . . . . . $ - ] = ) 6 = ! > | * # # * @ & % $ 7 = ! + > > : : > : : { , < | | | ' | | | > . ! . .                                                 ",
"                                              ] - _ 1 > + % > : { ^ { & : > % . . . . . ! $ ] ] = 8 8 ) - ; > } [ # # * ' , > ; - ( 3 $ > : : > > : { & < | | ' ' } ' | < ' < % . ! .                                               ",
"                                            ] - - + % + % % % > : ^ ^ & { : % . . . $ ! $ ] - ) 9 6 ) = ! ~ > | [ * * * ' { > ~ ! - ) 6 $ : + > > { & & < } } ' } ' } ' | ^ ^ , + ; ! .                                             ",
"                                          = = ! + ; ; ; % ~ % > : ^ ^ & { : ; . . . $ $ ] - ) 9 9 ( 7 / ! ~ > , ' * * ' ' ^ > ; ! - ] ) 0 - : > + : & ^ , | } ' ' ' ' | < ^ { ^ } & + $ -                                           ",
"                                        a / . . . . . ; ~ ~ % > { ^ ^ { : + . $ $ $ $ ] / ) 0 9 6 ) 7 = $ ~ % + & | ' , : { > ~ ! - - = ( 6 . { % : { & ^ < } ' } ' | < & : : { ^ ^ { ; $ =                                         ",
"                                      b = ! ; . . . . . ; ~ + > { { ^ : + ; $ - - ] - / ) 6 9 0 6 ) 7 / ! ; ; ! . . + + % + > ~ ! - - / a 3 a > > % : : & < ' @ * @ , { { : { ^ ^ { { & % - ]                                       ",
"                                    4 / . ; . $ $ $ ! . ; ; % > : ^ : + + . . $ - / a ) ) 9 9 0 6 ) 7 ] $ ! ! . ! ! + ~ ~ ~ ~ ~ $ - - = a a 3 - & % : : ^ ' @ * # # ' ^ > ^ & ^ : > > { , + / !                                     ",
"                                  = = . ; . . - - - - - $ $ . ; > : + % % . $ ] ] 7 ( ( 3 9 6 6 6 ) 7 ] $ ! $ $ $ $ % % ; . . . . - ] / = a a 3 . + % & ^ @ @ # # # ' ^ > < , & > > : : { ^ + ] !                                   ",
"                                ] = . . ! ! - / / / / 4 / ] 7 - ; ; ~ . - - ] = ) 6 6 6 3 6 6 6 6 ) = ] $ $ $ $ - $ ~ ; . . ! . . - ] / = = = ) b . % ^ ^ } } * * * ' ^ + ' < : > : : { : & , + - !                                 ",
"                                = . . $ $ - / = 4 ) b 6 ) = ] . & @ @ & . - = ) 6 9 6 6 3 3 6 6 ( ) = - - - $ $ $ ! % % ~ . . . . - - / = = = = ) a - ] . > > , , ' , ; % ~ > ~ ~ : { ^ { > & { % - !                               ",
"                              = - ! ! - - ] a 3 6 6 0 6 a - . > ^ ' * , % . = ) 6 6 - = 6 6 6 0 ( 7 ] - $ $ $ $ $ ! ~ ~ ; . . . . ! - - = = - = a ) = ; . % { < @ @ , . . . - - ! ; ~ : ^ { > : & ~ .                               ",
"                            / 4 . - - - = 7 3 0 9 9 6 7 - ! ~ & | @ @ < + . - 3 0 0 c / 6 6 6 6 ) = - - - - - - - - . . . . . . . . ! - / / / 7 ) = / ; . . , # # # * + > ~ - a a - - % & ^ > + : ^ ~ .                             ",
"                            b ! - - - = 7 3 0 9 9 6 ) = - ; ~ , ' @ @ , > . - 6 9 0 ] ( ( ( 0 3 ) ] - - - - - $ - - . ; . . . . . . . - / / = a 7 ] / ; ; + ' * # # # & { > ; - ) 0 a . > : > > % { + ~ .                           ",
"                          ) = ! - - / = 3 0 d 0 6 ) a ] $ ; + ^ @ * @ , + . ] ( e e ) 6 3 ) 6 6 7 - $ $ $ $ $ $ - $ . . . . . . . . . - - = = 7 / / / ; + > ' * # # # ^ , > % . - 7 6 ) $ . ~ % % % > { .                           ",
"                          = ! - / / = ) 6 d 9 f ) = = ] $ . + ^ ' * @ , % ! - 0 g e = b 6 ) 8 3 = - c - - - - - - - . . . . . . . . ! ! - ] a / / _ - ; { : ' # # # # } , { > . $ $ - 0 a $ ; % % ~ ; + ~                           ",
"                        a ] - / = = ) ) 9 9 6 ) 7 = / ] $ . + & } } } & % . - 9 h e c b b 4 6 3 / $ ! - - - - - - - . ; . . ! . . . . . $ ] = / - - $ ; ^ : ' # # # # @ , { > ; . . $ 7 6 a ] . ; % ; . ~ ;                         ",
"                        a - = = = a 7 6 0 0 ( 7 = ] $ ] - - . > , , , & ~ ; - 9 e e + ) ) = 6 ) ] ! ! $ $ $ $ - - $ . ; ; . . . . . . . ! ] = ] $ . . ; ^ : < # # # # @ , { + ~ . . c / a 6 a - . . . . . .                         ",
"                      7 = = = = / a ) 0 9 6 a = - ! ! - - - - ~ { < ^ : % . ] 9 h 9 & ) ) 7 6 7 - ! $ $ $ $ $ $ $ $ . ~ ; . . . . . . . ! / = ] $ ; . ; 2 2 < * # # * ' : + > i . . ! - = ( 6 ] - ! . . . $                         ",
"                      ( / = = a 7 = a 0 0 ( 7 - ! ! $ - - - - . : , ^ : ~ . - 9 g 0 & ( 7 = 6 7 $ c $ - ! $ ! ! ! . ; % ~ . . . . . . ; ! - / - ! . . ! : { , @ # * @ < > ~ ~ . . . . ! / ) 6 ) - - ! . . ! $                       ",
"                      ( / = = a ) = ) 0 6 ) = . . ! - - - - - ! ~ : : + ~ ~ ] 9 j 3 { ) ] - ] . & : ^ } ' < [ } < ' [ [ [ ' < } < , { + ~ ! ] $ ! ! ! ! : 2 , ' ' ' ' ^ % . ; ; . ; . ; = = ( 6 = - ! ! $ ! ]                       ",
"                    b ) = a 7 a a 7 ( 6 3 = - . . ! - $ $ $ $ ! ; > : + ; . ] ( ( . { + : > > > > ! ! . . $ - - - - - - - - $ ; ; > ^ , & : ^ & ~ ~ . $ : : 2 < < < , > ~ . ; ; ; ; ~ ~ - $ a 6 7 - ! ! ! . /                       ",
"                    6 = = = ) a ) 7 ( 6 ) - - . ! $ $ $ $ $ $ $ $ % + % . . . % + . c - - $ > & } ' [ # # # # # # # # # # # # # * [ k ' : ~ % 1 ~ > & % % ; % ^ , , : % ; . . ; . ; ~ % . - ] ( ) - $ ! $ ! $ .                     ",
"                    ( / = a = ) ) ) ( 3 - . $ ! ! ! - $ - - - $ ! . . . ; . - - . > , [ @ | ^ > 1 - l a ) a a 7 7 7 = 7 a 4 _ 1 % { , ' [ # # # } , % ! ! % > > > : + % ; . . . . . ; % . $ - a a ] $ $ $ $ - -                     ",
"                    b = = ) 7 a ) ( 6 ) 1 ; - ! ! c - - - - $ $ $ . ! $ ; : ' [ } > - / m 3 n n 8 b b ) = ] $ ; ~ % > ; . - o _ a m 3 m m m / ~ { } * [ ' > $ $ . ~ + i ; . . . . . ~ ~ ; ~ $ 7 7 ] $ ! ! ! . ]                     ",
"                  / ) = = ) 7 = ) ) 6 / + ! - ! ! $ - - - ! $ $ - ; & @ } ^ ! a 3 8 f 6 6 6 6 6 3 ( ) = - ! ; : , ' @ } & > . ! - / a 7 ( ( ( 3 6 3 a p 5 } * } : $ ! . . . . . . . ~ % 1 ~ . = = ] - $ ! ! . =                     ",
"                  a = = ) ) ) 7 7 6 6 + > - $ ! $ - $ $ $ = - > < ' > / 3 3 3 6 6 6 0 6 6 6 6 6 3 ) = - . ~ { | ' * # ' ' , : % ; - ] a ( ( ( 6 ( ( 3 3 3 b 4 q r ' < ~ / c 1 . . . ; + % . % $ = / - - $ $ . =                     ",
"                  a a ) ) ) ) a b 8 3 ^ > / $ ! - - - = ! : , > a 3 3 8 6 6 6 0 0 0 0 0 6 6 6 3 ) 7 ] $ % + & , ' * * * ' , ^ > ~ ! - / a 3 3 6 6 6 6 6 3 6 3 0 3 / ~ > , > $ ] ! . . % + . > . = / - - - - - ] .                   ",
"                  ) 7 a ) ) ) ) ) 6 = , 1 / - - = = c + + - 6 b 6 6 6 0 0 0 0 0 9 0 9 9 6 6 6 ( 7 ] $ ! . ; ; { | ' * | { : + % % . $ - = ) ( 3 3 6 3 6 6 6 6 0 6 3 6 ) $ > & % ] ] $ ~ % . : . = / - - - $ $ - .                   ",
"                  ) = a ) ) ) a ) 9 ! ^ ! _ _ = ] ~ ~ ] ) 6 6 0 0 0 0 0 9 9 9 6 0 0 8 6 3 ) = / ] ] - - $ - - - . ~ ~ ~ ~ ~ . . . . $ $ - ] 7 ( 3 3 3 6 6 6 6 0 6 6 6 6 6 ) ] % : ~ ] ] . . > % - = ] - $ ! ! - .                   ",
"                  ) a a ) ) ) 7 6 9 + . = ) / . ; = 6 6 6 0 9 9 0 0 0 9 6 6 0 3 a / ] - ] - - - - - - - ] - - $ $ ! ! . . . . . . . ! ! ! ! ! $ - = ) ( 3 6 6 6 0 0 6 6 6 3 3 ) / ; ~ c / / ~ % . / / ] - $ ! - .                   ",
"                  = a ) ) ( ( b 8 b . ] ) / ! - 6 6 6 0 0 0 0 9 0 9 0 0 3 a - $ - - - - - - - - - - - - - - - - - - ! . . . . ! . ! ! ! ! ! ! . . . . - / ) 6 6 0 6 6 6 6 6 6 6 6 7 ] % . ] ] . % ] 7 = / - $ - .                   ",
"                  7 a ( ( ( ( ) 4 = = = - - a 3 6 6 0 0 0 9 9 9 0 6 a - - ! - - - - - - - - _ - - - - - - - - - - - ! . . ! ! ! ! ! ! ! ! $ ! ! . . . . . . - / a 3 6 6 6 6 6 6 3 3 ( ] ! . - / . - a = / / ] - .                   ",
"                  7 ( ( ( 3 3 = = ) = - a 6 6 6 0 0 0 0 0 0 6 7 - / ] - $ - - - o _ _ _ - / / / / = = = ) a a ) ) ) ) 7 a a s s / t o - - - - $ ! ! . . . . . . . $ - ) 3 6 0 6 6 6 3 ( ( / $ - / ] a a = / / /                     ",
"                  _ ( ( 3 3 ) / = = = f 6 6 6 0 9 9 0 0 ) % > ] = = - - - - - - / / = ) ) ) ) ) ) ) ) a ) ) ) ) ) ) ) ) ) ) a a ( ( ( ( ) ) ) 4 = _ - c ! $ $ . . . . . $ 7 ( 6 6 6 6 6 6 ) = - - ] ) a a = / =                     ",
"                  . ( 3 3 ) = = / = 6 6 6 6 0 0 9 9 ) 7 { # # % ) - - - - _ = ) ) ( ) ) ) ) ) a a 7 7 7 / - - $ $ - - - - / / / / 7 a a ) ) ) ) ) 3 ) ) = - $ $ ! $ ! $ . ! ! = ) 6 6 6 6 3 3 ) / - / ) ) = = =                     ",
"                    3 3 ) 7 = = ) 6 6 9 8 9 9 6 ) / = 0 = * # { 0 / / ) ) ) ) ( ( ) ) a / . ~ > ^ < ' [ # # # # # # # # # # # # [ ' } , > ~ $ = a ( 3 6 6 b b 4 / - $ $ $ $ $ $ $ / b 6 6 3 6 3 ( / - ] ) ) = -                     ",
"                    3 3 = = = ) 6 6 9 0 6 9 ) ! ! - 7 m d ! ' . 9 6 ( ( 3 ) a a / ; , ' * # # # * * * * * * # # # # # # # # # # # # # # # # # [ | + - a 3 3 6 6 3 a / - - $ $ ! ! ! ! = 6 6 6 3 ( ( a ] ] ) ) !                     ",
"                    3 ) = a ) 6 9 6 0 0 6 = c c - _ _ - ) ) 7 ) ( ( ( ( = - > ' [ * * [ ' } , , , ^ ^ , } } * * # # # # # * [ [ @ ' } ' ' [ # # # # # ' { ! ) 3 6 3 3 6 b / - ! . . ! ! - = 3 6 6 6 ( a ] ] a p                     ",
"                  ~ 3 7 a 6 6 6 6 0 6 = ! - - - - - = a a ) a ) ) 7 $ & ' ' ' } < , & & : { > > > + > : : , : , ' * # * @ < ^ < < , , < < , , , , } ' @ [ * ' { . ( ( 3 6 6 3 = - ! ! ! ! ! / ) 6 6 3 3 a = ] =                     ",
"                  a a a 3 6 3 6 0 ( - ! $ $ $ - = ) ( a ) ) 7 ! ^ | ' } < < ^ ^ ^ ^ & : > + % ; ~ . ! - c . % , [ # # # * , + ~ ; ; ~ > > > & , , ^ ^ ^ ^ , | ' * } ~ / 3 0 6 6 6 a - ! ! ! . . / ( 6 6 ( 7 ] ] ]                   ",
"                / 3 a ( 0 6 0 6 = ! $ $ $ $ = 7 ) ( ( ( = ~ ^ < ' < , , ^ & & : : : : > + % . . - ] ] ] $ % ^ ' * # # # # * , & % - / - . > { , ^ ^ , , , , , , , , ' } > / 6 6 8 8 3 4 - . . . ! $ / 3 3 ( a / = -                 ",
"              c 6 f f 0 0 0 6 = $ - $ $ - 7 ) a a ) = . , } ' | | < , ^ ^ : : : > + > + % . - = a ) = - . > , } * # # # # * | ^ : ; $ 7 7 - ~ : , ^ ^ ^ ^ ^ , ^ , , , < } | { / 6 0 6 6 ( 7 $ . ! . $ / ( ( ( a = = ]               ",
"              6 3 ( 6 0 0 6 / - - $ - 7 7 7 7 a a ! : , } < < < < < < ^ & { > + > + + ~ . - / 3 ( 7 ] ! % > & } } } } } ' | < , { + . $ 7 ( - + , , ^ ^ & & & ^ ^ ^ , , , | | < . a 0 6 0 0 a - . . . . = ( ( ( a = a               ",
"            = 0 6 6 0 9 6 = ] - - - 7 ) = 7 a / . ^ < | ' } ' } | , ^ ^ : : > > + > ~ . $ ] ( 6 ) = - ! ~ > + + ; ; ; ; ; + + : > % . $ ] 7 m - : ^ ^ { & & & & & ^ < < < < , } , > ] 0 9 6 0 a / . . . - = ( ( ( a ) -             ",
"            6 ( 3 6 9 6 - - = - / 7 7 / 7 / . > { , < ' @ ' ' | < , ^ { : { + > > ~ . $ / f 6 ( 7 = - ! . . / a / ] ] ] ] ] / - ; ; . ! - ] 7 m $ : ^ { & & & & ^ , < } } } | < , < ^ . a 0 0 6 6 = ! . ! ! - 3 3 ( ( =             ",
"          = ) ) 6 0 3 ! ! _ / a 7 = / / - ; { , ^ | } ' * @ @ } | < ^ & { > > % % ; ! - ) 6 ) ) 4 = - - ] 7 7 = ] ] - - - - ] = / - - - - / = 7 a - { { & & & & ^ , < } ' ' ' | < , ^ { > ! ( 0 0 6 ) - ! . . ] ( 3 3 7 -           ",
"          6 ) 6 0 ) . . ! = a = 7 7 / . + : { & < | ' @ * * @ ' | | & & { > + ; ; . - = 3 ( ) a 7 / ] = a a / - - ] ! ! ! $ - - / / - - ] ] / = ) / ~ , ^ { ^ , | } ' @ * * * * ' } , ^ & & ~ a 0 0 6 6 / ! ! ; / ( 6 3 a ~         ",
"        = 6 ( 0 0 . ; ! / ) 7 7 = / . + > : { & , | @ * * * * @ ' < , ^ { > ~ ; ! ! ] = a ) ) ) = = = ) 7 / - ] - - ! ; . ! $ $ - / = ] ] / ] / ] / - : < ^ , | ' ' @ * # # # * * ' < , & : : > - 0 0 0 6 = c . ; - a ( ( -         ",
"        9 ( 0 0 ! % . ] ) = a = $ . + % + + > ^ , } @ * * * * * ' < , & > ~ . . $ ] ] = 7 a ) ) = = ) ) = - - - ] $ ! ; . . ! $ $ - / = ] / / = = ] ] ! : , , | ' @ * # # # # # * ' } ^ ^ & & & { ! 6 9 0 6 a - . ~ - ( ( m         ",
"      = 9 6 6 ! > ; / ( a a = $ ; ~ ~ ; . ~ + : > & } @ * * @ ' < , & > % . $ $ ] ] / / ) ) ( ) a a ) = ] - - - - - ! ; . ! . ; - - / = = ] / 7 / ] - - ! ^ ^ , } @ * # # # # # * * ' < ^ & : > : + ! ) 0 6 6 4 - ! ! a 3 ( .       ",
"      0 6 0 ! { % ] 3 a a = - ; ~ . . $ $ $ $ - $ $ + > , | & : + > ~ . . $ - ] ] = = = ) b f ) ) ) = ] - - - - - - ! ; . $ $ ! ! $ - ] = = 7 7 = ] $ - / ! : : ^ } * * # # # # * [ } , & { : + + > > % ) 9 9 6 4 - _ ] a 3 7       ",
"      9 0 a & : . ( 3 ( 7 . % . ! $ ] 7 a a 7 = ] . { | [ * | , + . - / ] = 7 / 7 a a = ) ) ( ) ) 7 ] ] - - - - - - ! . . . $ - ! $ $ - ] 7 7 7 = ] $ $ / / ~ { : , [ * * # # # * ' < & { : + + + ~ ~ + . f 0 0 3 a - / = a (       ",
"    . e 0 + { ! f 0 3 3 $ ; . - = 4 6 8 6 ) / ! % { | [ * # * ' ^ + . ] ( ) ) = 7 ( ) = ) ) ( ) 7 = ] ] ] - ] ] - - ! ! . ! $ $ ! $ $ - - a 7 a = ] $ $ - = - > ^ { ^ { < } * } ^ > + % ~ ~ ; ~ . . ~ ~ ; . a 0 0 3 a ! ^ , a -     ",
"    4 e - | . ( 9 0 ( - ; ! ] = ( 0 9 9 ) = $ % > , ' [ # # # ' } & + - ) 6 0 7 = ( ( 7 ) ) ( ) 7 = ] ] - - - - - - ! ! . ! ! ! ! ! - - _ = a a 7 ] $ $ - - 7 ] > > > , @ # # # * ' > . . ] ] - - $ . . ; ; ! ( 0 0 6 = @ # > 0     ",
"    0 0 , & ) d 0 0 / . . _ ) 6 9 9 0 ) = ] . ~ : < ' [ # # # ' | { % ! = 6 0 ) = ) ( ) ) ) ( a 7 = ] - - - ] ] - - ! . . ! $ ! ! c ! - - ] 4 a 7 / - $ - ] ] $ { , ^ @ * # # # # * , > % ! ] ) = / / - . ; ; $ 0 9 0 6 % # > h     ",
"    e . ' . u d d ( . . / ) 6 9 9 9 ( 7 / ] $ ; + ^ ' * # # * [ , { % c 4 6 9 ) = ) ) a ) ( ( ) 7 / ] - ] - - - - - ! . . . ! $ $ $ $ - - ] / a a / - - ] ] ! ~ { , < @ # # # # # @ < & > % $ / ) ( 7 ] $ 1 1 . = 0 0 9 3 _ a v     ",
"    w ' < 3 d d 0 ] . - ) 6 9 9 0 6 ) ) 7 = / - . : ' * * # * ' < { % $ 7 9 d ) = ) ) a ) ( ) ) = / / - - - - - - - ! ! . ! $ ! ! - - $ - - - = a a ] ] ] ! . ; > , | @ # # # # # @ , : + ; ! - = ( ( 6 = - . . ! = 0 9 9 ) - (     ",
"    7 * - u d d 7 ! - ) 6 9 u 9 6 ( 3 6 6 6 ) 7 ] . { ' * * * ' , { % $ ) 9 d ) ] a a = ) 3 a 7 = ] ] - _ - - _ _ _ ! . . $ $ ! ! $ $ $ - - - = 7 7 = ] $ $ . ; + , | @ * # # # * @ , > ~ 1 ! - - = ) 6 6 = ] $ ~ + ) 0 6 ( $ ;     ",
"  / > & 0 e d ( $ - a f 0 d 9 6 3 3 3 ( a a a a a ] ; & ' * ' | ^ > ~ - 6 e w a - a = = ) ( ) 7 = ] - - - - - - - - ! . . ! $ $ $ $ $ - - - - / = 7 / ] $ ! ! ; > , < @ * * # # @ ' { % . ! - - - - = ) 0 ) ] ~ > . - 6 0 0 / %     ",
"  $ , a e e 6 / ! = ) 6 9 9 0 3 6 3 a = / / = = = = $ ~ , ' ' < { + . ] 0 e 9 = - a a = ) ( a / / ] - - - ] - - _ - ! $ . . $ ! $ ! ! $ $ - - ] a a = ] $ $ ! . % , , } * * * * ' , % . - ] = 7 = = = = ) ) a ] . . - = 6 9 ( .     ",
"  > + e e 9 7 - / a ( 0 9 9 6 6 3 7 / / ] / / / = / ] $ : | | , : + . 7 0 e $ ! ; + : { 2 2 < | < | | | | } < , | | | , < } | | | | < | < 2 2 { : + ; ! $ ! ! ! % ^ , , ' * * @ < : . ] ] / = = a ) ) 7 / a 0 ) a - - ] ) 9 6 ]     ",
"  | = g e 3 ] / a ) 6 0 0 6 0 6 = _ / / / / / / / / / - ; ^ ] = - ! ; : ^ , ^ , : > % ; ! $ - $ $ ~ + : & , | ' [ [ [ ' | , & : + ~ $ $ - $ ! ; % > : , ^ , ^ : ; ! - = ] < ' } : . - ] - - - - - = ) ) ) ( 6 0 ) ) 7 / = 0 0 ( .   ",
"  , 9 h e ( ] a ) 6 6 9 9 6 6 ) = - / ] = / / / = = - - - ! > ^ ^ * | - - - - - - - - - x ~ % > { & ^ , < < < ' ' ' ' ' < < < , ^ & { > % ~ ~ . . x x - - - - - | * ^ ^ > ! - - - - ] ] $ $ $ $ - - $ - ( 3 ( 6 0 ( ) = = ) 9 9 /   ",
"  . e e 9 7 a f ) b 8 w 9 6 ) = / / / = = / = - $ $ ~ { } @ , & . % ; a - - - $ $ . + > : ^ , < | | } | | < < | | | | | | < | | } | | < , ^ : > + . $ $ - - - a ; % . & , @ } { ~ $ $ % $ $ - - - - ! . = ( ( 6 0 6 ) a = 7 0 0 )   ",
"  ( g d 6 ] ) 6 6 6 9 9 6 b = = = ] ] / - ] - + + : [ } . - = = $ m - - - - - ! = ! @ , > > > > > > > > > > > > > > > > > > > > > > > > > > > , @ ! = ! - - - - - m $ = = - . } [ : + + - ] $ - - - - - - = ( ( 0 0 3 ) a = 6 9 (   ",
"  d h d ( a 6 6 6 3 0 0 3 / - = = = - a ! + . ] = ] q = % { % ( ! m - - $ ; ; 7 m - ! - - $ $ ! ! y ! ! $ ! ! ! . . . ! ! ! $ ! ! y ! ! $ $ - - ! - m 7 ; ; $ - - m ! ( % { % = q ] = ] . + ! a - ] ] - / = / ) 6 0 3 ( a 7 ( 9 0 - ",
"- e e 0 ( ( 6 6 6 6 0 0 ) - - - ~ . ] ! - - ] ] - t - - - + z , [ > & , , { t - ! ! . . . ; ; ; ; ; ; ; ; ; ; ; ; ; ; ; ; ; ; ; ; ; ; ; ; . . . . ! ! - ; { , , & > [ , z + - - - ] - ] ] - - ! y . $ ] ] = = = 6 6 6 ( ) a a 6 9 / ",
") e d 6 ( 6 6 6 6 6 9 0 a - 7 . ; - / - - - - - ! 7 ] } [ } ^ , % $ - $ ; + ; ; ; ; ; ; ; ; ; ; ; ; ; ; ; ; ; ; ; ; ; ; ; ; ; ; ; ; ; ; ; ; ; ; ; ; ; ; ; ; ; $ - $ % , ^ } [ } ] 7 ! - - - - - ] - ; . 7 - / 7 7 ) 3 6 ( ) a 3 0 7 ",
"                                                                                                                                                                                                                                    ",
"                                                                                                                                                                                                                                    ",
"                                                                                                                                                                                                                                    ",
"                                                                                                                                                                                                                                    ",
"                                                                                                                                                                                                                                    ",
"                                                                                                                                                                                                                                    ",
"                                                                                                                                                                                                                                    ",
"                                                                                                                                                                                                                                    ",
"                                                                                                                                                                                                                                    ",
"                                                                                                                                                                                                                                    ",
"                                                                                                                                                                                                                                    ",
"                                                                                                                                                                                                                                    ",
"                                                                                                                                                                                                                                    ",
"                                                                                                                                                                                                                                    ",
"                                                                                                                                                                                                                                    ",
"                                                                                                                                                                                                                                    ",
"                                                                                                                                                                                                                                    ",
"                                                                                                                                                                                                                                    ",
"                                                                                                                                                                                                                                    ",
"                                                                                                                                                                                                                                    ",
"                                                                                                                                                                                                                                    ",
"                                                                                                                                                                                                                                    ",
"                                                                                                                                                                                                                                    ",
"                                                                                                                                                                                                                                    ",
"                                                                                                                                                                                                                                    ",
"                                                                                      $ + | @ | + - / a a                       a a ] ! > } # [ } >                                                                                 ",
"                                                                                  $ . > , * * ' ^ ; ] 7 a = a               a a 3 7 - ~ & } * # ' , : .                                                                             ",
"                                                                              7 - . % { | * * ' & > $ a a ) a a           a 3 6 3 = $ > , ' * * ' ^ & > ! =                                                                         ",
"                                                                            ) ] $ ~ % : < z * ' ^ > $ = ) ) 3 a a       a 3 6 6 ) ] . > , } * * ' < & > ; $ /                                                                       ",
"                                                                          ) = - . ~ + : , { ; . - / - $ ! ! ! ! ! ! ! . . ; ; ; ; ; . ! . ; > { } , { > ; ! ] 7                                                                     ",
"                                                                          7 ] - ! . . - - - - - $ - . ~ > : , } ' ' ' ' ' ' ' , ^ : ; ; . . . $ - - ! . ; . $ /                                                                     ",
"                                                                        ) = $ $ - - ! - - ; : | @ # # * @ } | , , , , , ^ < } ' * # # # * ' , { ; ! . $ - - / = a                                                                   ",
"                                                                      . $ $ $ $ - $ & ' ' # ' } , { : > > > > > > > > > > > > > > : { { ^ ' * # # ' } > . . $ - $ .                                                                 ",
"                                                                  . $ $ $ - ~ | @ ' < < : { & { & & > + % % % % ; ; ; ; ; ~ % + + > : : { ^ | | @ @ [ # # ' > ! ! ! ! $                                                             ",
"                                                              . $ $ $ $ > } } & & : : ^ ^ < , { { > % % ~ ~ ~ ~ . . . . . ; ; ~ ~ % : { { < | ' | , < ^ @ @ [ [ , . $ - - $                                                         ",
"                                                          . $ $ $ ! & | : > > > { { { ^ } ' } ^ { > % % . . . ! ! ! ! ! ! ! . ~ ; % : { & < } ' ' < < | , , & } ' * { . $ - - $                                                     ",
"                                                        $ $ $ - ~ > % ~ ~ ~ + > > > { , ' z < ^ : > % ; . . ! ! ! ! ! ! ! ! ! . . ; % : { ^ | ' ' < ^ ^ , ^ : : > { } } & $ $ $ $                                                   ",
"                                                      $ $ $ ~ + . . ! . . . . . . ~ + : < < & { > + ; . ! ! $ $ $ ! ! ! ! ! ! $ $ $ . % + > , ' } , ^ & > % % > % % . + ^ ^ : ; $ $ $                                               ",
"                                                  - $ - . { ~ $ ! - - - - ] ] ] ] - ] - ~ + ~ ~ . $ $ $ $ $ $ $ - - - - $ $ $ $ - ] ] $ . ; + ^ ^ > ; ; . ] $ $ . . . . . : , , : ! ! $                                             ",
"                                                ] ] - ~ ! - - ] - ] / ] 7 ) ( 6 ( ] $ + | @ | + - / = = / ] - - - - - - - - - / = = a ] ! > } # [ } > . ] = = / ] $ . . ! ! . : & : . - $                                           ",
"                                              = ] ! . ! ] ] ] / ] = 7 ) 6 9 6 7 $ . > , * * ' ^ ; ] 7 a = / ] ] / ] . ] ] / = = a 3 7 - ~ & } * # ' , : . ] ) ) a / - - - $ $ . ; + & ~ - -                                         ",
"                                            ) ] ~ ~ - ] ] ] ] / 7 7 ) 0 9 0 7 - . % { | * * ' & > $ a a ) a = = = / . / = a a 3 6 3 = $ > , ' * * ' ^ & > ! = 3 6 ) = / - $ $ ! . . % > . $ ]                                       ",
"                                          ) = ! ! - / / 7 = / = 7 ) 9 9 6 ) ] $ ~ % : < z * ' ^ > $ = ) ) 3 a = = = - ) ( 3 3 6 6 ) ] . > , } * * ' < & > ; $ / 3 6 ) 7 ] ] - $ ! . ; % > ~ - /                                     ",
"                                        = = ! $ - / / ] 7 7 = = ) 9 9 6 ) = - . ~ + : , } } < { % - = ) ) 3 3 ) a ) / 3 3 3 3 3 3 a ] . > ^ | * * } , { > ; ! ] 7 6 0 ( = ] ] - $ . ; ~ % : ; / /                                   ",
"                                      = a $ . - / = / = 7 = 7 a 0 9 6 ( 7 ] - ! . ~ + : < | , { % ! = ) b 3 3 3 3 7 $ 6 9 0 6 ( ( 7 ] ! + { , ' ' ^ : > % ; . $ / ) 6 9 ) / ] - $ . ; ~ % % > . ] /                                 ",
"                                    = a - - - ] ] / = = 7 = ) 6 9 0 3 ) = - - $ $ . ; + { < < : ~ $ = 7 ) 3 0 6 ( ! > ( 0 9 6 ( ( = ] $ % > & , & : + ~ ; . ! - = a ) 6 6 = / - - . ; % + + + + . = ]                               ",
"                                  = a / ! - - - ] ] / = / = 3 9 9 6 3 ) / - $ $ $ $ . ; > ^ , : ~ - / a ) 6 0 9 m . > ) 6 0 8 ( 3 = ] $ ; > > + % ; ~ . ! ! ! ] ] = ) ( 9 a = - - . ; > + + + + % . =                               ",
"                                  = ] $ - - ] ] - ] / a a = 6 6 0 3 a / - $ $ $ . $ . . + + : > ~ - / a b 6 9 d ) ] - ( 6 0 6 3 ( = ] $ ~ ~ ; ; ; . . ! ! $ $ - - ] a ) 6 a 7 - $ . ~ + + + + + ~ + - ]                             ",
"                                = ] - - ] ] ] - $ - / a 7 ( 0 6 6 ( = - . ! $ $ $ ! $ ! ~ + % % . - / a b 6 9 9 ( ] - ( 9 9 6 6 ( 7 ] $ . . ! ! . ; . ! ! $ $ $ $ ] 7 = ( 3 ) $ . ; + + + % % ~ ; ~ ~ - ]                           ",
"                                ) - - - ] ] - - $ - / a ) 6 0 6 ( ) - ; . ! $ ! ! $ $ . % % ~ ; . - / 4 b ) 0 9 ( ! ; b 9 9 ) 3 ( 7 / - ! ! $ ! ~ ~ . ! $ . . . $ $ = a ) 3 a $ ; + > { > % ~ ~ ; ; . . ]                           ",
"                              a ] - - ] ] - $ $ $ - / = ) 0 9 3 3 a ! ; ! ! ! $ $ $ $ ! % ; ; ; . $ ] a ) _ 8 w ( ~ { 3 9 9 a ( 3 7 / - $ $ $ $ . ~ ; . . ! ! . . ! ] 7 a 3 3 ; + : & : > ~ ~ ; ; . . . $ ]                         ",
"                              = - - ] ] - - - $ $ - / = ) 9 6 ( ( / ~ . . ! ! $ $ $ $ . ~ ; ; . . - / a ) - 6 e ) > ^ a 9 9 = ( ) = - - - - - - . ; . . ! ! ! . ; ; - = 7 ( 0 + : ^ & : + ~ . . . . . . ~ /                         ",
"                            ) c ! ] ] - - - - - - - / = a 9 6 ) 3 - . . . ! $ $ $ $ $ . ~ . . . . - / 7 = - 0 w a , , a 9 9 = ) ) = - - $ - $ $ . % . ! ! ! ! ! . ~ - / a a 0 : , & : + ; . ! . . . . . ~ $ =                       ",
"                            7 ! - ] / - ] ] - - - ] = = ) 9 6 ) ) - ; . . $ ! $ $ $ $ . ; . . . . - _ = = ] 0 9 a , , a 9 9 = ) ) = - - $ $ $ $ ; ~ . ! ! ! ! ! . ; ; ] a a 0 & & : + ~ . . . . . . . . . ; /                       ",
"                          ) ] - ] = - ! - - ] - - ] 7 7 ( 9 6 ) = . . ! ! ! $ $ $ $ $ . ~ . ! $ $ $ - 7 ] - 0 0 7 < , 7 0 0 / ) ) / - - - - $ $ . . . ! ! ! ! ! ! . ; - 7 a ( : + + ~ ; . . . . . . . . . ~ .                       ",
"                          ) - - ] ] - ] = ] / / = ] = 7 ( 6 ) = - ! . ! ! ! ! $ $ $ $ . . . . p . c - / - $ ) ( ] , & = ) a - a ) / - - - $ - - . ~ . ! ! ! ! ! ! . ; $ 7 a a . ; . ! $ ! ! ! ! ! ! . . . . ; ]                     ",
"                          7 - - ] ] - = / ] / a ) ) a 7 6 6 ) ] - . . . ! ! ! $ - $ $ . i . . . . 1 + + & < ^ } < ' @ } ' } } ^ & + + . ! $ - - . ~ . . ! ! ! ! ! . ~ ! = a a - ! ] ] - - $ $ $ $ $ $ . . . . -                     ",
"                        ) / - - / ] ] / = 7 ) 6 3 a ) a ) 3 a - $ . . $ $ $ $ $ - - ! . . ; ~ ~ % . . c c 1 c 1 ; ~ ; . ; ; ; ~ % + > ^ , { > > ~ ; . . . . ! ! . . ; . ] a / ~ ! - 7 a ( a / / - - $ . ; . . -                     ",
"                        ) - - _ = / / / a 6 6 6 0 6 ) = = ) = - $ . . ! $ $ $ ! - ! ! - ] ] $ ; > < ' ' # # # # # # # # # # # # ' } < ^ + ! ! . . % > > ~ . . . . ; ; . - 7 / { ; $ ] a 3 3 a 7 / $ $ ; ; ; . . -                   ",
"                        7 - - = / / - 7 3 0 9 9 6 6 ) ] - ( - ! - . $ $ - - - ] a - . : < ' } < & : + y p t = = m = m = ] ] i i ~ { , } ' * A } > . $ $ . ; ; ; ; . ; . $ 7 ] < + . $ ] = 3 0 3 = - $ ; % ; ; . -                   ",
"                      / ] $ - / / - a 3 0 e d 6 ) ) = c - 3 c c / - - = = / . ; ~ ~ ~ - 4 ) 0 3 6 ( 3 3 ( 6 ( 3 ( 3 3 ) ) ) ) ) 6 3 3 3 3 ) 4 . + < ' , > . - - . ; ~ . . / = ' , > . - $ 7 6 0 6 / - . % % ; . -                   ",
"                      / - $ - ] ] ] ( 0 d 0 3 3 a 7 ] . $ / - = = 4 = - . ! - ) b 3 6 3 6 6 6 0 0 9 9 0 0 0 0 0 0 0 0 0 0 0 0 0 0 6 ( 6 6 3 3 3 3 3 a / . , | > ; ] $ ! ; - a | , : ~ $ - = ) 0 9 ) - ! . % ; . !                   ",
"                      / - $ - - ] 7 9 d 9 6 3 ) 7 ] $ $ ] 7 7 = ] - - / 7 ( 6 6 6 6 0 6 0 9 0 9 6 0 6 0 0 0 0 0 0 0 0 0 0 9 0 6 0 6 6 9 0 6 6 6 6 3 ( ( ( m = ; > { : . ] - - + { { + . $ ] = ) 0 0 / ! ! ; ; ; !                   ",
"                      / - - - ] = ( 9 9 6 6 ) a ] - ] / 7 7 ] - / ) 3 6 3 6 6 6 6 6 6 0 0 0 6 9 9 9 0 9 9 9 9 9 9 9 9 9 6 6 9 9 9 9 6 0 0 6 0 0 6 ( 3 a ) ( ) a a 4 ; > ~ - / - . + + . $ - = a ) 9 ( - $ . ; ; . -                 ",
"                      ] - - - / = 0 9 6 ) ) = / = = = = - = ) 6 6 3 ( 3 ) ) a = 7 a ( 3 6 0 9 9 9 9 0 0 0 6 6 6 6 6 6 6 6 6 0 0 6 9 6 6 6 6 6 ) a = - - / = / a a a a B - . . . / / ! . ! $ / = = = 3 / $ . ; ; . -                 ",
"                      - $ $ $ - a 0 6 ) a / / = = = = = b 6 8 6 6 3 a a = ] $ ; + > ; ] 7 ) ) 7 = ] ] - - - - / & < & / . . . . ! - ] 7 ) a = $ % & ^ { > % . $ ] 7 7 a ) a = . + ; - ] $ ! - / / / 3 ( $ . . . ~ -                 ",
"                      $ . . . $ a 6 ) = ] 7 a ! > - ( 3 6 6 6 3 ) a = ] - - ; % > { > ! - - - $ $ ! $ - - 7 7 = [ # * ] 7 ] - . . . . . . $ $ . > < ' , { > % . . - / 7 7 ) ( 7 ] . > % = / ! $ ] ] = 3 ] . ; ~ . ;                 ",
"                      $ ; ~ . ! a a / = a = $ ! 7 3 3 0 6 3 3 ) a 7 = ] - - $ . - ! - - - - $ $ $ $ $ $ - / = ( # # # = ] ] - ! ! . $ ! . ! . ! ! ; + ; + % ; . . $ - ] 7 ) ( ( ( 7 ] % > . / $ $ ] ] $ = . . ~ % !                 ",
"                      ! $ ; . $ = = = a _ _ 4 6 6 6 9 0 6 3 ( ) 7 7 ] - - - - $ $ $ $ - $ $ $ $ ] - - - ] ] 7 0 > [ { ) ] - $ . . ! ! . ! ! ! ! . . . . ! . . $ $ - ] ] / 7 ( ( ( 3 ( 7 $ ; % ] ] $ $ + b = . ~ . -                 ",
"                      ! c . $ - / = a - - ) 6 9 6 6 9 0 8 ) ( 7 ] - $ $ - $ - $ - $ - - - - ] / = = ) a a ( ( ( ) / 7 ) ) ) ) = = ] ] $ ! ! . ! ! . ! . $ $ ! ! $ $ - ] ] 7 a ) 6 6 6 ( ( 7 . % - = - ! = = ! . . $                 ",
"                      . ! ! - / ) = - = 6 6 0 9 0 9 9 6 ) = ] - $ $ $ $ $ $ $ - - ] / 7 a ) ) ( 6 ( ( ) ) ) ) a 7 = 7 ) ) ) ) ) ) ) ) ) m = / ] - - - ! ! $ $ ! . $ $ $ $ ] 7 ) 6 6 6 ( 6 ( 7 ! ; - = ! ] ] $ ! $ !                 ",
"                      ; $ ! ] 7 = / ( 8 9 0 0 9 9 9 6 / - - $ $ - $ $ $ - ] 7 a ) ) ( ( 3 ) ) ) ( ) ) ) = / - - - - $ - - / / a ) a ) ) ) ) ( ) ) ) a / - $ $ $ $ ! $ $ . $ $ = ) ( 3 3 6 3 ( a ] ! $ ] - - $ - - .                 ",
"                      + - ] a / ] ( 0 0 9 9 9 0 3 ] $ $ $ $ $ $ - - = ) b 6 6 b f f ( ( a / . > { | ' * * # # # # # # # # # # [ @ | { % - ] = a ) ) ( ) ( ( a / - - - - - ! ! ! ! ] ( 3 0 6 6 6 3 = ! $ ] - ! . - .                 ",
"                      > a 7 = 7 6 6 9 9 9 9 9 = - $ $ $ $ - - 7 ) ) 6 6 6 f ( ( 7 - ~ , @ * # # # # # * ' ' ' | | | ' ' ' * * * # # # # # # @ | > ! / a ( ( ( ( ( a / o - c c c ! . . / 3 3 6 6 6 ) 7 - $ ] ] $ -                   ",
"                      - a = a 0 9 0 9 9 0 = $ $ - $ $ - ] = ( 6 6 3 3 3 ) ] . , * * # # * * * @ } | & { : > + > + : : > > : { & ^ , < } [ * # # # # # < ; - a 3 3 6 6 6 a ] $ $ ! ! . . $ = 6 0 6 6 3 a / - ] ] -                   ",
"                    . ( = ) 0 9 0 9 9 3 - ! ! - - - / ) 3 6 6 6 6 ( - ~ < @ * * * * * * * * * } | & : > > + + > > > > : > > > : { ^ , | } ' [ * # # # # # # | ~ ] ( 6 6 6 0 ) / - . $ . . 1 - 3 0 0 6 3 ) ] $ 7 7                   ",
"                  . 3 7 ( 0 0 9 9 0 / - - - $ - = ( 3 ( ( ( ( = . , ' ' ' @ * * * * # * * * @ , & : > > > ~ ~ % + + % % + > + > > & & , , } [ * * # # * * * * * * , . a 6 6 6 8 6 4 - p c . . ! / 6 6 0 3 a ] = )                   ",
"                . ) ( f 6 9 9 9 6 - $ - - - = ) ( ( ( ( ( ] % & ^ , , , , } ' @ * * # * * @ | , { : > > % % ~ ~ ~ % % % % % % % > : { { ^ | ' [ * # # # * @ @ @ @ ' * ' % a 0 0 0 6 6 7 ! . . . . ] 6 9 6 6 ( ] ] 7                 ",
"                ) ) ) 6 0 9 9 ) - - $ $ - ( ( ( ) ( a ] % > > > + ~ % ~ i C + < ' ' @ ' < ^ : : > > > > % ~ ; ~ ~ ~ % ~ ~ % % % % + + % > : & , @ @ * * @ | , , & : ^ , } ' > = 0 0 0 0 ( = - p . . - ) 0 6 3 7 = 7 7               ",
"              % 6 ) 6 9 9 9 a - - - - 7 ( ) a a a $ ; + ~ ; $ $ - = ] 7 7 ] ! > < ^ : + ; ; ; ~ % ~ ~ % ~ . ; ~ ~ % ~ ~ . % % ~ . . ! ! ! ! ; > , @ * @ ^ > ~ . . ~ ~ ~ : { ^ , + / 0 0 0 0 ) _ c p . $ 7 0 6 3 ) ] ) .             ",
"              ) f 6 0 d 0 = - / - = ) ( a a 7 ] ~ % % . - ] = ) 3 6 3 7 - ~ > , ' @ ' , > . - / ] $ ! . . ; ; ; % ; ; . . ; ; . $ ] ] / - . + , @ # # # ' , > . - ] ] $ . ~ % > & ^ > a 0 9 9 8 a $ ! . $ = 6 6 ) = ] 7             ",
"            . 6 6 0 9 6 - . - = ) ( a a a - ~ ~ ; ! - ] 7 ) 6 6 6 a / ! ~ : < @ * * * @ , { ~ - 7 7 ] $ $ . . . ; . . . . . $ - = ) 7 - ! + { ' * # # * @ } & > ; - = ) 7 - ! ; % > + { ~ ) 9 9 0 ) - $ $ ! = 6 6 ( / 7 ]           ",
"            6 6 9 9 0 - ~ . / ) ) a 7 7 / . > ! - - / ) 3 8 9 6 ) = $ . % & , @ * # # @ < & + . - = a 7 - - $ . . . . $ - ] - = ( ) ] - ~ > ^ } * * # * @ < & > ~ $ ] 7 ( 7 ] $ . . . > , { ) 9 9 9 6 / c - ! ] 6 3 ( 7 7           ",
"          . 9 0 9 0 / % . - ( ( a a a / $ . $ - = = ) 6 9 9 6 ) = - - $ ! ; 5 < @ * * @ < ^ % . ! / a ( a / / $ . . $ ] / = 7 ) ) = - ! ; : & } @ @ @ ' ^ > % ~ ; ! $ ] a 3 ( ] $ ! . . ; + ; f u w 9 6 = - ! . 7 0 6 = ( -         ",
"          8 9 9 9 - > ~ - ) ( ( ( a - - ] ] = = a a ) 0 9 0 f ) = 7 m m m m = ! & @ * ' , : % . $ - = 7 ) ) 7 ] $ ! - / a ) ) = = / - $ ; + ^ , } , : ; - ] ] ] ] - - - = ) 6 ( / ] - $ ! . ; ; - 9 u 9 6 = $ . . / 3 ) a a         ",
"        . d 0 9 - : + - 6 ( a ) = - $ - = = = a ( 3 0 9 6 6 b f f f ) ) a ) ) ) ] ; & < : + ; . $ ] ] = ) ( 3 7 $ ! ] a ) ( 7 7 / / - $ . + : ^ > . ] ] / / / = = 7 / = ] 7 ( 0 ( / ] ] - $ $ . % - 9 d 9 6 = . . . = 0 ) (         ",
"        ( d 9 = { > . 3 6 ( a a / ] ] = = 7 a ) 3 0 9 0 6 ) 6 6 ) ) = = = = = = / ] ! 5 5 ~ . $ - ] ] / a ( 0 ( - $ 7 3 6 ) 7 7 7 ] ] - ! ~ > : - ] ] $ ! $ $ $ - = 7 a = = 7 ( 0 ( = / - - - - $ . / 6 9 9 0 = . ; . 7 ( ( ]       ",
"        9 e 3 : ^ . 6 0 6 3 a / = / = = 7 a ) ( 6 9 9 6 f f 6 ) / / / = = = / ] - - - . ~ ~ . $ - / / 7 a 3 6 ( ] ! = 0 6 6 7 = = = ] - . . . - = ] $ . . . . $ - - ] ) ) 7 7 ) 6 6 ) / - - - - $ - ! - 6 9 9 6 / . ~ $ ( 3 a       ",
"      . e 0 ~ + . 3 0 0 3 ( 7 / = = a 7 ) a ) 6 8 9 0 6 3 3 ) = = _ _ / / = ] - - $ - $ ! . ! - / / / 7 a 6 0 ) / $ 7 6 9 6 7 = = = / - - - - / ] - $ . ! ! . - - - - = a ) a a ( 6 ( 7 ] - $ $ - - $ ! ] 0 d 9 6 / ~ ~ ] 6 3       ",
"      ( g ! < ~ 6 d 0 6 ) = / / / / / 7 a ) ( 6 0 9 8 6 6 ) = = - / / / ] ] ] ] $ $ $ - $ $ $ $ ] ] / 7 ) 6 9 ) / ! / 6 9 0 a = = 7 = - $ - = / ] $ $ . . ! $ ! ! $ - - = ) ) ) ) 3 3 a ] - - - ! - - - - _ 6 u 9 6 / % ~ / 0 -     ",
"      0 0 ' + a d 9 0 ( = / = = = = = 7 a a 6 0 0 0 6 6 ) = = ] - - ] ] ] ] ] ] $ - - - - - - - - = 4 4 ) 0 0 ) - . / 6 9 0 ) 7 a 7 / ] - / ] ] ] ] $ . . ! ! ! - - - c - / ) a ) ( ( ( / - - $ ! $ - - c - = 0 d 9 6 - > . 3 (     ",
"    . g ; @ ; d u d 0 7 / a a = ] / = 7 = ) 6 9 6 6 6 ( 7 ] ] ] ] ] ] ] ] ] ] - $ $ $ - - - $ - - / = 7 ) 0 0 7 $ % ] 6 9 6 ) ) a = = - / / / ] ] - $ ! $ $ $ $ $ $ $ $ - ] 7 a 7 a ( ( / - - . . . $ - - - - 7 9 9 0 ) ; + ] 0     ",
"    ! e ' ; 9 e d 0 ( ] / / 7 / / ] ] 7 7 ) ( 0 6 6 0 a ] $ ] ] ] ] ] / / ] ] - $ $ $ $ - - - - - ] = 7 a 6 0 7 ~ > - 0 9 6 ) ) ) 7 = = = = / / ] ] $ $ $ $ ! $ $ $ ! - - $ ] 7 ( ( ( ( = - . ~ % . ! $ - _ - ] ( 9 9 6 = % % 0 .   ",
"    3 ] } 3 e e 0 ) = = 7 7 = ] ] ] ] / a 3 6 6 6 6 6 = - - - ] - ] ] ] / ] ] - $ $ $ $ - - ] ] ] ] = / a 0 0 / . : - 6 9 6 7 7 ) = = = = / ] / ] ] $ $ ! ! $ $ $ $ - ! - - - = ) ) ) ( = - ; > > ; . ! - - - - ] ( 0 0 6 - > 7 /   ",
"    7 , ~ e e d 3 = 7 7 7 7 7 / ] - - = 4 6 9 6 6 6 f = - - - / / ] ] ] ] ] ] - - - - - - - / t / / 7 / 7 0 0 / % : - 6 0 3 7 7 a 7 = = = / / ] ] ] $ $ . . . ! ! $ $ $ $ $ $ / ( ) ) ) / . + { : % . . $ $ ] ] - / f 9 6 a ~ ; /   ",
"    % | 0 e e 0 a 7 7 ) a a = ] / / - - = 6 9 6 6 6 a ] - - ] ] ] / ] / ] / / - - - - - - - - ] / / / = a 0 9 / ~ 5 - 6 0 6 a a a ) 7 = = / / / / / ] $ $ $ $ ! ! $ ! $ $ $ - / a ( ( 7 ] . : ^ : + ; . $ - ] ] / ] 7 0 0 0 - ~ -   ",
"    ^ . e e e 3 7 a ) a ) a = ] = - - $ / 6 9 6 3 ) = ] - ] ] ] ] / / / / / ] - $ - - $ $ - - - ] / = = ) 0 9 / ; 5 / 6 0 6 7 7 ) ) 7 = = / / ] / / - - $ $ $ - $ $ - $ $ $ $ - 7 ( ) ) ] % ^ ^ ^ + + ; . - ] / - - / f 9 0 ) ; ;   ",
"    & ) g e 9 7 = ) ) ) ) ) a / = ] - $ $ 6 0 6 3 a / ] ] ] ] ] ] ] = = = ] ] ] $ - - - - - - ] ] ] = 7 ) 0 0 = ; C t 6 9 6 ) a ) ) a = = = / / / / - - $ $ $ - - - - $ $ $ ! - = ) ) 7 - + , , & : + ; . $ ] ] = / = ) 0 9 6 $ +   ",
"    $ e e 9 ) = ) ( ) ) ) ) a = / ] - $ $ a 0 6 ) 7 / ] ] ] / / = = / = = / $ ! ; + : { 2 2 < | < | | | | } < , | | | , < } | | | | < | < 2 2 { : + ; ! $ $ - - $ $ $ $ ! ! ! - / 7 7 / $ ; : : : > + ; . $ - ] ] / - = 3 9 0 a .   ",
"    0 g e 0 = ) ) ) ) ) ) ) ) = = ] ] - $ 7 6 6 a = ] ] ] - ] = - ! ; : ^ , ^ , : > % ; ! $ - $ . . . ; ; ; ; ; ; ; ; ; . ; ; . . . . $ - $ ! ; % > : , ^ , ^ : ; ! - = ] $ $ - ] / = - $ . ; % % % ~ . $ $ $ ] / = = ] ) 0 9 0 $   ",
"  . e g 9 ) = ) ) ) ) ) ) ) a ) = = = ] = ) 6 3 = ] - - - ! > ^ ^ * | - - - - - $ $ $ $ $ $ ! ! ! ! ! ! ! ! ! ! ! ! ! ! ! ! ! ! ! ! ! ! ! - - - - - - - - - - - | * ^ ^ > ! - - - ] ] - $ $ - - - . . $ ! ! $ ] ] = = = = 3 9 9 a   ",
"  ! g e 9 = = ) ) ) ) ) ) ) ) ) ( ( ) ) a 3 3 - $ $ ~ { } @ , & . % ; a - - - $ $ . + > : ^ , < | | } | | < < ^ : : : ^ < < | | } | | < , ^ : > + . $ $ - - - a ; % . & , @ } { ~ $ $ ] $ - - - - - ! $ - - - ] / = / / / ) 0 9 (   ",
"  ) h e 6 = a ) ) ) ) ) ) 6 6 6 6 6 ) = - ] - + + : [ } . - = = $ m - - - - - ! = ! @ , > % . ~ ~ ~ ~ ; ! ! ~ % % % % % ~ ! ! ; ~ ~ ~ ~ . % > , @ ! = ! - - - - - m $ = = - . } [ : + + - ] ] ] / ] ] ] ] - ] = = = = = = = 6 9 6 . ",
"  9 e 9 a = 7 ) ) ) ) 3 0 9 9 0 6 ) - a ! + . ] = ] q = % { % ( ! m - - $ ; ; 7 m - ! - - $ $ ! ! ! ! ! $ ! ! ! . . . ! ! ! $ ! ! ! ! ! $ $ - - ! - m 7 ; ; $ - - m ! ( % { % = q ] = ] . + ! a - / / = = / ] / 7 7 = = = = ) 0 0 - ",
"! e e 0 / a a ) ) ( 6 0 e d 0 - ~ . y ! - - t t - t - - - + z , [ > & , , { t - ! ! . . . ; ; ; ; ; ; ; ; ; ; ; ; ; ; ; ; ; ; ; ; ; ; ; ; . . . . ! ! - t { , , & > [ , z + - - - t - t t - - ! y ] ] a = 7 = ] = 7 7 = = = a 6 6 = ",
"- e 9 3 a a ) a 3 6 9 d d - 7 . ; - - - - - - - ! 7 ] } [ } ^ , % $ - $ ; + ; ; ; ; ; ; ; ; ; ; ; ; ; ; ; ; ; ; ; ; ; ; ; ; ; ; ; ; ; ; ; ; ; ; ; ; ; ; ; ; ; $ - $ % , ^ } [ } ] 7 ! - - - - - / - ; . ] ] 7 7 / = 7 7 = / 7 6 6 a ",
"                                                                                                                                                                                                                                    ",
"                                                                                                                                                                                                                                    ",
"                                                                                                                                                                                                                                    ",
"                                                                                                                                                                                                                                    ",
"                                                                                                                                                                                                                                    ",
"                                                                                                            D D E E E E F D D                                                                                                       ",
"                                                                                                      D F F F F F G H G F F F F F D                                                                                                 ",
"                                                                                                    I E J K G F E L M L I F G K J E I                                                                                               ",
"                                                                                                  N G O K O E I P M Q M J I E O K O G N                                                                                             ",
"                                                                                            R N D S E J G F S O P T U T V S S F G J E S D N R                                                                                       ",
"                                                                                          R W I F F G E I J J O L U X U L J Y I I E G F F I W R                                                                                     ",
"                                                                                D D D N N F E S S F E F J H O P L X Z X L ` J H J F E F S S E F N N D D D N                                                                         ",
"                                                                          J E E E Y F J H H O J J J H H K `  .L Q Z ..Z Q `  .K H H H J J J O H H J F Y E I N R R                                                                   ",
"                                                                      I J E G Y E G J H H H H H K +.+.+.O `  .L U ..@...U `  .K J +.+.+.K H H H H H J G E Y I N R R                                                                 ",
"                                                                      F I D R Y J J O H O J K K  . . .O  .`  .#.Z $.$.$.Z #. .K H  . . . .K K J O H O J J Y Y I N R                                                                 ",
"                                                                  R R N R R Y Y J J J %.S H +. .&.&.&.O  . .#.U ..*.*.*...U #. .+.J &.&.&. .+.H S %.J J J Y Y R R N R R R                                                           ",
"                                                            I I I W D R R D F G E F S S O K &.&.&. .O O ` =.-.X @.;.;.;.@.X -.=.`  .H  .&.&.&.K O S S F E G F D R R D W I I I R                                                     ",
"                                                          I J E E D N R N W F E F F E G H K H H H J +.` =.U U Z A ;.;.;.A Z U U =.` J J H O H K H G E F F E F W N R N D E E J I R                                                   ",
"                                                        >.J J G W R R R D W I I F E G H H H O J J K =.=.#.,...$.;.;.;.;.;.$...,.#.=.=.K J K J H H H G E F I I W D R R R W G J J >.                                                  ",
"                                                    E F W N '.N D R F J K H K O J F I I F J H J  . .=.#.X Z ..A ).;.;.;.).A ..Z X #.=. . .J  .+.J I I F J O K H K J F R D N '.N W F E                                               ",
"                                                  W W D N '.!.!.R N E O J O J E F D N J J H J =.=.#.#.,.Z ..A ~.).;.;.;.~.~.A ..Z ,.#.#.=.=.` +.+.O N D F E J O J O E N R !.!.'.N D W W                                             ",
"                                                  I I F I N !.R W E O K E W I I R R J J J ` =.=.#.,.{.{.].A ^.).).;.;.;.).).^.A ].{.{.,.#.=.=.` +.O J J R I I W E K O E W R !.N I F I I                                             ",
"                                                  E G E I '.R N F E H J I D D D G J K O H =.=.#.,.{.].z A )././.;.;.;.;.;././.).A z ].{.,.#.=.=.` +.K E F D D D I J H E F N R '.I E G E                                             ",
"                                              (.W E E I W '.N D F E E F '.O +.K E H O H  .` #.,.{.].z _.)./.;.;.;.;.;.;.;.;.;./.)._.z ].{.,.#.` &.&.+.+.K G G O '.F E E F D N '.W I E E W (.                                        ",
"                                              R W I W '.'.W F E E F W R H K  .O K H H ` ` #.,.{.].z _.).^.^.[ @ @ # # @ @ [ ;././.)./.z ].{.,.#.&.&.+. .K  .H K H R W F E E F W '.'.W I W R                                         ",
"                                              R I W !.R '.F G J G F D O ` K J K K K :. .#.,.{.].z ).).^.{ { & @ * # # * @ & { ^ /._.).).z ].Z ,.#. .&. . .K O K ` O D F G J G F '.R !.W I R                                         ",
"                                              '.W D R R N E J O J F N O O H K J J  . .=.#.,.].z ).^.: ; ; > , ' * # # * ' , > ; ; : _.;._.z ].,.#.=.&. .K K K H O O I F J O J E N R R D W '.                                        ",
"                                            v '.W N R R N E O H G O O K  .K `  .=.,.{.{.].].z $.<.: ; ! ~ > { ' * * * * ' { > ~ ! ; : <.<.<.z ].].{.{.,.=. .` K  .K O I G H O E N R R N W '.v                                       ",
"                                            R N D N '.N D E H O F K L +. . . .=.#.,.X X ..z ;.*.: ~ - ! ; > ^ ' ' ' * * ' ' ^ > ; ! ; : ^.).).;.z ].{.,.#.=. . . .+.J J F O H E D N '.N D N R                                       ",
"                                            R N W N D W I E H J J I Q Q -.-.U Z @.$.;.<.<.<.<.: ; x x p y [.}._./.;.;.;.;./._.}.C q ! ; : ^.).<.<.;.$.@.Z X U -.-.Q Q J J J H E I W D N W N R                                       ",
"                                          R R D I D I F F E T T T X X @._.<.*.;.;.;.;.;.! / / / / ] ] - - $ : @ * /.;.;./.* @ & ~ % + % > & ^.;.;.;.;.;.;.;.*.<._.@.X X T T T E F F I D I D R R                                     ",
"                                          R W F E D F J E G J E J M . + @ # # @ ~ . ! $ $ - - - - - - - $ . { , < @ * * @ < , { ~ + + + % ~ ; . . + @ # # @ + . -.Q Q M J E J G E J F D E F W R                                     ",
"                                          R I E J W I E E J J E $ % & @ ~ . ! $ $ $ - - - - - % ^ ^ ' # # # # # # # # # # # # # * * { % ~ ; . ! $ ! ; + # * @ & % $ J J F E J J E E I W J E I R                                     ",
"                                          R F G J I D I F J ( - ; > ! - - $ $ $ - - ; + ^ [ # # [ [ + : , , | | @ * * @ | < < & & # # # * } & + . . . . . + ' , > ; - ( J E Y J F I D I J G F R                                     ",
"                                          R F J J I '.D I ) - ! - - $ $ $ - - % , ' * } , . ~ % % + + > ^ < | ' * * # * ' } ' , , & & : : > # # [ } % % . . . . ~ ~ ! - ) J G J I D '.I J J F R                                     ",
"                                          R F J (.D R '.) ] - - - - - - ; { @ | { ; ; ; ~ ~ ; . % % + + > : ^ } } @ @ @ } , , & ^ ^ & & : : : : + @ * * } > . . . . . - ] ) J Y D '.R D (.J F R                                     ",
"                                          R F E E D R ( - $ ! ! - - 1 2 < & + % ~ ; . . ~ . . . ; . ! . . $ ; ; + | & > > + + + > > : : : & { > > : : { ' # @ , . . . . . = ( E N N R D E E F R                                     ",
"                                          R F (.J W 3 = ! ! - ; ^ < & { { > + ; ; ; . . ! . ! - ! - - 4 / / . 5 | # # @ + . $ $ $ ~ + { { : : { : : : & ^ , ' * * ^ ; . . . . 3 D N '.W J (.F R                                     ",
"                                          R D F E ] ] - ] ! & } { ^ { { { > % ; . . . . . . $ - ] = ) 6 = ! > | * # # * @ & % $ 7 = ! + > > : : > : : { , < | | < ' [ < ; . ! . 3 D I E E F D R                                     ",
"                                            N D ] - ] / % : > : { ^ { & : > % . . . . . ! $ ] ] = 8 8 ) - ; > } [ # # * ' , > ; - ( 3 $ > : : > > : { & < | | ' ' } | | | > . ! . . E J Y D N                                       ",
"                                            R ] - _ 1 > % % % > : ^ ^ & { : % . . . $ ! $ ] - ) 9 6 ) = ! ~ > | [ * * * ' { > ~ ! - ) 6 $ : + > > { & & < } } ' } ' } ' < ' < % . ! . J F N R                                       ",
"                                            ] - - + % ; % ~ % > : ^ ^ & { : ; . . . $ $ ] - ) 9 9 ( 7 / ! ~ > , ' * * ' ' ^ > ; ! - ] ) 0 - : > + : & ^ , | } ' ' ' ' | < ^ ^ , + ; ! . D R w                                       ",
"                                          = = ! + . . ; ~ ~ % > { ^ ^ { : + . $ $ $ $ ] / ) 0 9 6 ) 7 = $ ~ % + & | ' , : { > ~ ! - - = ( 6 . { % : { & ^ < } ' } ' | < & : : { } & + $ - 8                                         ",
"                                        a / . . . . . . ; ~ + > { { ^ : + ; $ - - ] - / ) 6 9 0 6 ) 7 / ! ; ; ! . . + + % + > ~ ! - - / a 3 a > > % : : & < ' @ * @ , { { : { ^ ^ ^ { ; $ =                                         ",
"                                      b = ! ; $ $ $ ! . ; ; % > : ^ : + + . . $ - / a ) ) 9 9 0 6 ) 7 ] $ ! ! . ! ! + ~ ~ ~ ~ ~ $ - - = a a 3 - & % : : ^ ' @ * # # ' ^ > ^ & ^ : > { & % - ]                                       ",
"                                    4 / . ; . - - - - - $ $ . ; > : + % % . $ ] ] 7 ( ( 3 9 6 6 6 ) 7 ] $ ! $ $ $ $ % % ; . . . . - ] / = a a 3 . + % & ^ @ @ # # # ' ^ > < , & > > : { , + / !                                     ",
"                                  = = . ; ! - / / / / 4 / ] 7 - ; ; ~ . - - ] = ) 6 6 6 3 6 6 6 6 ) = ] $ $ $ $ - $ ~ ; . . ! . . - ] / = = = ) b . % ^ ^ } } * * * ' ^ + ' < : > : : { : ^ + ] !                                   ",
"                                ] = . . $ - / = 4 ) b 6 ) = ] . & @ @ & . - = ) 6 9 6 6 3 3 6 6 ( ) = - - - $ $ $ ! % % ~ . . . . - - / = = = = ) a - ] . > > , , ' , ; % ~ > ~ ~ : { ^ { > , + - !                                 ",
"                              ] = . . - - ] a 3 6 6 0 6 a - . > ^ ' * , % . = ) 6 6 - = 6 6 6 0 ( 7 ] - $ $ $ $ $ ! ~ ~ ; . . . . ! - - = = - = a ) = ; . % { < @ @ , . . . - - ! ; ~ : ^ { > { % - !                               ",
"                            / = - ! - - = 7 3 0 9 9 6 7 - ! ~ & | @ @ < + . - 3 0 0 c / 6 6 6 6 ) = - - - - - - - - . . . . . . . . ! - / / / 7 ) = / ; . . , # # # * + > ~ - a a - - % & ^ > + & > .                               ",
"                            ) 4 . - - = 7 3 0 9 9 6 ) = - ; ~ , ' @ @ , > . - 6 9 0 ] ( ( ( 0 3 ) ] - - - - - $ - - . ; . . . . . . . - / / = a 7 ] / ; ; + ' * # # # & { > ; - ) 0 a . > : > > % ^ > . .                           ",
"                          ) = ! - - / = 3 0 d 0 6 ) a ] $ ; + ^ @ * @ , + . ] ( e e ) 6 3 ) 6 6 7 - $ $ $ $ $ $ - $ . . . . . . . . . - - = = 7 / / / ; + > ' * # # # ^ , > % . - 7 6 ) $ . ~ % % % > { .                           ",
"                          = ! - / / = ) 6 d 9 f ) = = ] $ . + ^ ' * @ , % ! - 0 g e = b 6 ) 8 3 = - c - - - - - - - . . . . . . . . ! ! - ] a / / _ - ; { : ' # # # # } , { > . $ $ - 0 a $ ; % % ~ ; + ~                           ",
"                        a ] - / = = ) ) 9 9 6 ) 7 = / ] $ . + & } } } & % . - 9 h e c b b 4 6 3 / $ ! - - - - - - - . ; . . ! . . . . . $ ] = / - - $ ; ^ : ' # # # # @ , { > ; . . $ 7 6 a ] . ; % ; . ~ ;                         ",
"                        a - = = = a 7 6 0 0 ( 7 = ] $ ] - - . > , , , & ~ ; - 9 e e + ) ) = 6 ) ] ! ! $ $ $ $ - - $ . ; ; . . . . . . . ! ] = ] $ . . ; ^ : < # # # # @ , { + ~ . . c / a 6 a - . . . . . .                         ",
"                      7 = = = = / a ) 0 9 6 a = - ! ! - - - - ~ { < ^ : % . ] 9 h 9 & ) ) 7 6 7 - ! $ $ $ $ $ $ $ $ . ~ ; . . . . . . . ! / = ] $ ; . ; 2 2 < * # # * ' : + > i . . ! - = ( 6 ] - ! . . . $                         ",
"                      ( / = = a 7 = a 0 0 ( 7 - ! ! $ - - - - . : , ^ : ~ . - 9 g 0 & ( 7 = 6 7 $ c $ - ! $ ! ! ! . ; % ~ . . . . . . ; ! - / - ! . . ! : { , @ # * @ < > ~ ~ . . . . ! / ) 6 ) - - ! . . ! $                       ",
"                      ( / = = a ) = ) 0 6 ) = . . ! - - - - - ! ~ : : + ~ ~ ] 9 j 3 { ) ] - ] . & : ^ } ' < [ } < ' [ [ [ ' < } < , { + ~ ! ] $ ! ! ! ! : 2 , ' ' ' ' ^ % . ; ; . ; . ; = = ( 6 = - ! ! $ ! ]                       ",
"                    b ) = a 7 a a 7 ( 6 3 = - . . ! - $ $ $ $ ! ; > : + ; . ] ( ( . { + : > > > > ! ! . . $ - - - - - - - - $ ; ; > ^ , & : ^ & ~ ~ . $ : : 2 < < < , > ~ . ; ; ; ; ~ ~ - $ a 6 7 - ! ! ! . /                       ",
"                    6 = = = ) a ) 7 ( 6 ) - - . ! $ $ $ $ $ $ $ $ % + % . . . % + . c - - $ > & } ' [ # # # # # # # # # # # # # * [ k ' : ~ % 1 ~ > & % % ; % ^ , , : % ; . . ; . ; ~ % . - ] ( ) - $ ! $ ! $ .                     ",
"                    ( / = a = ) ) ) ( 3 - . $ ! ! ! - $ - - - $ ! . . . ; . - - . > , [ @ | ^ > 1 - l a ) a a 7 7 7 = 7 a 4 _ 1 % { , ' [ # # # } , % ! ! % > > > : + % ; . . . . . ; % . $ - a a ] $ $ $ $ - -                     ",
"                    b = = ) 7 a ) ( 6 ) 1 ; - ! ! c - - - - $ $ $ . ! $ ; : ' [ } > - / m 3 n n 8 b b ) = ] $ ; ~ % > ; . - o _ a m 3 m m m / ~ { } * [ ' > $ $ . ~ + i ; . . . . . ~ ~ ; ~ $ 7 7 ] $ ! ! ! . ]                     ",
"                  / ) = = ) 7 = ) ) 6 / + ! - ! ! $ - - - ! $ $ - ; & @ } ^ ! a 3 8 f 6 6 6 6 6 3 ( ) = - ! ; : , ' @ } & > . ! - / a 7 ( ( ( 3 6 3 a p 5 } * } : $ ! . . . . . . . ~ % 1 ~ . = = ] - $ ! ! . =                     ",
"                  a = = ) ) ) 7 7 6 6 + > - $ ! $ - $ $ $ = - > < ' > / 3 3 3 6 6 6 0 6 6 6 6 6 3 ) = - . ~ { | ' * # ' ' , : % ; - ] a ( ( ( 6 ( ( 3 3 3 b 4 q r ' < ~ / c 1 . . . ; + % . % $ = / - - $ $ . =                     ",
"                  a a ) ) ) ) a b 8 3 ^ > / $ ! - - - = ! : , > a 3 3 8 6 6 6 0 0 0 0 0 6 6 6 3 ) 7 ] $ % + & , ' * * * ' , ^ > ~ ! - / a 3 3 6 6 6 6 6 3 6 3 0 3 / ~ > , > $ ] ! . . % + . > . = / - - - - - ] .                   ",
"                  ) 7 a ) ) ) ) ) 6 = , 1 / - - = = c + + - 6 b 6 6 6 0 0 0 0 0 9 0 9 9 6 6 6 ( 7 ] $ ! . ; ; { | ' * | { : + % % . $ - = ) ( 3 3 6 3 6 6 6 6 0 6 3 6 ) $ > & % ] ] $ ~ % . : . = / - - - $ $ - .                   ",
"                  ) = a ) ) ) a ) 9 ! ^ ! _ _ = ] ~ ~ ] ) 6 6 0 0 0 0 0 9 9 9 6 0 0 8 6 3 ) = / ] ] - - $ - - - . ~ ~ ~ ~ ~ . . . . $ $ - ] 7 ( 3 3 3 6 6 6 6 0 6 6 6 6 6 ) ] % : ~ ] ] . . > % - = ] - $ ! ! - .                   ",
"                  ) a a ) ) ) 7 6 9 + . = ) / . ; = 6 6 6 0 9 9 0 0 0 9 6 6 0 3 a / ] - ] - - - - - - - ] - - $ $ ! ! . . . . . . . ! ! ! ! ! $ - = ) ( 3 6 6 6 0 0 6 6 6 3 3 ) / ; ~ c / / ~ % . / / ] - $ ! - .                   ",
"                  = a ) ) ( ( b 8 b . ] ) / ! - 6 6 6 0 0 0 0 9 0 9 0 0 3 a - $ - - - - - - - - - - - - - - - - - - ! . . . . ! . ! ! ! ! ! ! . . . . - / ) 6 6 0 6 6 6 6 6 6 6 6 7 ] % . ] ] . % ] 7 = / - $ - .                   ",
"                  7 a ( ( ( ( ) 4 = = = - - a 3 6 6 0 0 0 9 9 9 0 6 a - - ! - - - - - - - - _ - - - - - - - - - - - ! . . ! ! ! ! ! ! ! ! $ ! ! . . . . . . - / a 3 6 6 6 6 6 6 3 3 ( ] ! . - / . - a = / / ] - .                   ",
"                  7 ( ( ( 3 3 = = ) = - a 6 6 6 0 0 0 0 0 0 6 7 - / ] - $ - - - o _ _ _ - / / / / = = = ) a a ) ) ) ) 7 a a s s / t o - - - - $ ! ! . . . . . . . $ - ) 3 6 0 6 6 6 3 ( ( / $ - / ] a a = / / /                     ",
"                  _ ( ( 3 3 ) / = = = f 6 6 6 0 9 9 0 0 ) % > ] = = - - - - - - / / = ) ) ) ) ) ) ) ) a ) ) ) ) ) ) ) ) ) ) a a ( ( ( ( ) ) ) 4 = _ - c ! $ $ . . . . . $ 7 ( 6 6 6 6 6 6 ) = - - ] ) a a = / =                     ",
"                  . ( 3 3 ) = = / = 6 6 6 6 0 0 9 9 ) 7 { # # % ) - - - - _ = ) ) ( ) ) ) ) ) a a 7 7 7 / - - $ $ - - - - / / / / 7 a a ) ) ) ) ) 3 ) ) = - $ $ ! $ ! $ . ! ! = ) 6 6 6 6 3 3 ) / - / ) ) = = =                     ",
"                    3 3 ) 7 = = ) 6 6 9 8 9 9 6 ) / = 0 = * # { 0 / / ) ) ) ) ( ( ) ) a / . ~ > ^ < ' [ # # # # # # # # # # # # [ ' } , > ~ $ = a ( 3 6 6 b b 4 / - $ $ $ $ $ $ $ / b 6 6 3 6 3 ( / - ] ) ) = -                     ",
"                    3 3 = = = ) 6 6 9 0 6 9 ) ! ! - 7 m d ! ' . 9 6 ( ( 3 ) a a / ; , ' * # # # * * * * * * # # # # # # # # # # # # # # # # # [ | + - a 3 3 6 6 3 a / - - $ $ ! ! ! ! = 6 6 6 3 ( ( a ] ] ) ) !                     ",
"                    3 ) = a ) 6 9 6 0 0 6 = c c - _ _ - ) ) 7 ) ( ( ( ( = - > ' [ * * [ ' } , , , ^ ^ , } } * * # # # # # * [ [ @ ' } ' ' [ # # # # # ' { ! ) 3 6 3 3 6 b / - ! . . ! ! - = 3 6 6 6 ( a ] ] a p                     ",
"                  ~ 3 7 a 6 6 6 6 0 6 = ! - - - - - = a a ) a ) ) 7 $ & ' ' ' } < , & & : { > > > + > : : , : , ' * # * @ < ^ < < , , < < , , , , } ' @ [ * ' { . ( ( 3 6 6 3 = - ! ! ! ! ! / ) 6 6 3 3 a = ] =                     ",
"                  a a a 3 6 3 6 0 ( - ! $ $ $ - = ) ( a ) ) 7 ! ^ | ' } < < ^ ^ ^ ^ & : > + % ; ~ . ! - c . % , [ # # # * , + ~ ; ; ~ > > > & , , ^ ^ ^ ^ , | ' * } ~ / 3 0 6 6 6 a - ! ! ! . . / ( 6 6 ( 7 ] ] ]                   ",
"                / 3 a ( 0 6 0 6 = ! $ $ $ $ = 7 ) ( ( ( = ~ ^ < ' < , , ^ & & : : : : > + % . . - ] ] ] $ % ^ ' * # # # # * , & % - / - . > { , ^ ^ , , , , , , , , ' } > / 6 6 8 8 3 4 - . . . ! $ / 3 3 ( a / = -                 ",
"              c 6 f f 0 0 0 6 = $ - $ $ - 7 ) a a ) = . , } ' | | < , ^ ^ : : : > + > + % . - = a ) = - . > , } * # # # # * | ^ : ; $ 7 7 - ~ : , ^ ^ ^ ^ ^ , ^ , , , < } | { / 6 0 6 6 ( 7 $ . ! . $ / ( ( ( a = = ]               ",
"              6 3 ( 6 0 0 6 / - - $ - 7 7 7 7 a a ! : , } < < < < < < ^ & { > + > + + ~ . - / 3 ( 7 ] ! % > & } } } } } ' | < , { + . $ 7 ( - + , , ^ ^ & & & ^ ^ ^ , , , | | < . a 0 6 0 0 a - . . . . = ( ( ( a = a               ",
"            = 0 6 6 0 9 6 = ] - - - 7 ) = 7 a / . ^ < | ' } ' } | , ^ ^ : : > > + > ~ . $ ] ( 6 ) = - ! ~ > + + ; ; ; ; ; + + : > % . $ ] 7 m - : ^ ^ { & & & & & ^ < < < < , } , > ] 0 9 6 0 a / . . . - = ( ( ( a ) -             ",
"            6 ( 3 6 9 6 - - = - / 7 7 / 7 / . > { , < ' @ ' ' | < , ^ { : { + > > ~ . $ / f 6 ( 7 = - ! . . / a / ] ] ] ] ] / - ; ; . ! - ] 7 m $ : ^ { & & & & ^ , < } } } | < , < ^ . a 0 0 6 6 = ! . ! ! - 3 3 ( ( =             ",
"          = ) ) 6 0 3 ! ! _ / a 7 = / / - ; { , ^ | } ' * @ @ } | < ^ & { > > % % ; ! - ) 6 ) ) 4 = - - ] 7 7 = ] ] - - - - ] = / - - - - / = 7 a - { { & & & & ^ , < } ' ' ' | < , ^ { > ! ( 0 0 6 ) - ! . . ] ( 3 3 7 -           ",
"          6 ) 6 0 ) . . ! = a = 7 7 / . + : { & < | ' @ * * @ ' | | & & { > + ; ; . - = 3 ( ) a 7 / ] = a a / - - ] ! ! ! $ - - / / - - ] ] / = ) / ~ , ^ { ^ , | } ' @ * * * * ' } , ^ & & ~ a 0 0 6 6 / ! ! ; / ( 6 3 a ~         ",
"        = 6 ( 0 0 . ; ! / ) 7 7 = / . + > : { & , | @ * * * * @ ' < , ^ { > ~ ; ! ! ] = a ) ) ) = = = ) 7 / - ] - - ! ; . ! $ $ - / = ] ] / ] / ] / - : < ^ , | ' ' @ * # # # * * ' < , & : : > - 0 0 0 6 = c . ; - a ( ( -         ",
"        9 ( 0 0 ! % . ] ) = a = $ . + % + + > ^ , } @ * * * * * ' < , & > ~ . . $ ] ] = 7 a ) ) = = ) ) = - - - ] $ ! ; . . ! $ $ - / = ] / / = = ] ] ! : , , | ' @ * # # # # # * ' } ^ ^ & & & { ! 6 9 0 6 a - . ~ - ( ( m         ",
"      = 9 6 6 ! > ; / ( a a = $ ; ~ ~ ; . ~ + : > & } @ * * @ ' < , & > % . $ $ ] ] / / ) ) ( ) a a ) = ] - - - - - ! ; . ! . ; - - / = = ] / 7 / ] - - ! ^ ^ , } @ * # # # # # * * ' < ^ & : > : + ! ) 0 6 6 4 - ! ! a 3 ( .       ",
"      0 6 0 ! { % ] 3 a a = - ; ~ . . $ $ $ $ - $ $ + > , | & : + > ~ . . $ - ] ] = = = ) b f ) ) ) = ] - - - - - - ! ; . $ $ ! ! $ - ] = = 7 7 = ] $ - / ! : : ^ } * * # # # # * [ } , & { : + + > > % ) 9 9 6 4 - _ ] a 3 7       ",
"      9 0 a & : . ( 3 ( 7 . % . ! $ ] 7 a a 7 = ] . { | [ * | , + . - / ] = 7 / 7 a a = ) ) ( ) ) 7 ] ] - - - - - - ! . . . $ - ! $ $ - ] 7 7 7 = ] $ $ / / ~ { : , [ * * # # # * ' < & { : + + + ~ ~ + . f 0 0 3 a - / = a (       ",
"    . e 0 + { ! f 0 3 3 $ ; . - = 4 6 8 6 ) / ! % { | [ * # * ' ^ + . ] ( ) ) = 7 ( ) = ) ) ( ) 7 = ] ] ] - ] ] - - ! ! . ! $ $ ! $ $ - - a 7 a = ] $ $ - = - > ^ { ^ { < } * } ^ > + % ~ ~ ; ~ . . ~ ~ ; . a 0 0 3 a ! ^ , a -     ",
"    4 e - | . ( 9 0 ( - ; ! ] = ( 0 9 9 ) = $ % > , ' [ # # # ' } & + - ) 6 0 7 = ( ( 7 ) ) ( ) 7 = ] ] - - - - - - ! ! . ! ! ! ! ! - - _ = a a 7 ] $ $ - - 7 ] > > > , @ # # # * ' > . . ] ] - - $ . . ; ; ! ( 0 0 6 = @ # > 0     ",
"    0 0 , & ) d 0 0 / . . _ ) 6 9 9 0 ) = ] . ~ : < ' [ # # # ' | { % ! = 6 0 ) = ) ( ) ) ) ( a 7 = ] - - - ] ] - - ! . . ! $ ! ! c ! - - ] 4 a 7 / - $ - ] ] $ { , ^ @ * # # # # * , > % ! ] ) = / / - . ; ; $ 0 9 0 6 % # > h     ",
"    e . ' . u d d ( . . / ) 6 9 9 9 ( 7 / ] $ ; + ^ ' * # # * [ , { % c 4 6 9 ) = ) ) a ) ( ( ) 7 / ] - ] - - - - - ! . . . ! $ $ $ $ - - ] / a a / - - ] ] ! ~ { , < @ # # # # # @ < & > % $ / ) ( 7 ] $ 1 1 . = 0 0 9 3 _ a v     ",
"    w ' < 3 d d 0 ] . - ) 6 9 9 0 6 ) ) 7 = / - . : ' * * # * ' < { % $ 7 9 d ) = ) ) a ) ( ) ) = / / - - - - - - - ! ! . ! $ ! ! - - $ - - - = a a ] ] ] ! . ; > , | @ # # # # # @ , : + ; ! - = ( ( 6 = - . . ! = 0 9 9 ) - (     ",
"    7 * - u d d 7 ! - ) 6 9 u 9 6 ( 3 6 6 6 ) 7 ] . { ' * * * ' , { % $ ) 9 d ) ] a a = ) 3 a 7 = ] ] - _ - - _ _ _ ! . . $ $ ! ! $ $ $ - - - = 7 7 = ] $ $ . ; + , | @ * # # # * @ , > ~ 1 ! - - = ) 6 6 = ] $ ~ + ) 0 6 ( $ ;     ",
"  / > & 0 e d ( $ - a f 0 d 9 6 3 3 3 ( a a a a a ] ; & ' * ' | ^ > ~ - 6 e w a - a = = ) ( ) 7 = ] - - - - - - - - ! . . ! $ $ $ $ $ - - - - / = 7 / ] $ ! ! ; > , < @ * * # # @ ' { % . ! - - - - = ) 0 ) ] ~ > . - 6 0 0 / %     ",
"  $ , a e e 6 / ! = ) 6 9 9 0 3 6 3 a = / / = = = = $ ~ , ' ' < { + . ] 0 e 9 = - a a = ) ( a / / ] - - - ] - - _ - ! $ . . $ ! $ ! ! $ $ - - ] a a = ] $ $ ! . % , , } * * * * ' , % . - ] = 7 = = = = ) ) a ] . . - = 6 9 ( .     ",
"  > + e e 9 7 - / a ( 0 9 9 6 6 3 7 / / ] / / / = / ] $ : | | , : + . 7 0 e $ ! ; + : { 2 2 < | < | | | | } < , | | | , < } | | | | < | < 2 2 { : + ; ! $ ! ! ! % ^ , , ' * * @ < : . ] ] / = = a ) ) 7 / a 0 ) a - - ] ) 9 6 ]     ",
"  | = g e 3 ] / a ) 6 0 0 6 0 6 = _ / / / / / / / / / - ; ^ ] = - ! ; : ^ , ^ , : > % ; ! $ - $ $ ~ + : & , | ' [ [ [ ' | , & : + ~ $ $ - $ ! ; % > : , ^ , ^ : ; ! - = ] < ' } : . - ] - - - - - = ) ) ) ( 6 0 ) ) 7 / = 0 0 ( .   ",
"  , 9 h e ( ] a ) 6 6 9 9 6 6 ) = - / ] = / / / = = - - - ! > ^ ^ * | - - - - - - - - - x ~ % > { & ^ , < < < ' ' ' ' ' < < < , ^ & { > % ~ ~ . . x x - - - - - | * ^ ^ > ! - - - - ] ] $ $ $ $ - - $ - ( 3 ( 6 0 ( ) = = ) 9 9 /   ",
"  . e e 9 7 a f ) b 8 w 9 6 ) = / / / = = / = - $ $ ~ { } @ , & . % ; a - - - $ $ . + > : ^ , < | | } | | < < | | | | | | < | | } | | < , ^ : > + . $ $ - - - a ; % . & , @ } { ~ $ $ % $ $ - - - - ! . = ( ( 6 0 6 ) a = 7 0 0 )   ",
"  ( g d 6 ] ) 6 6 6 9 9 6 b = = = ] ] / - ] - + + : [ } . - = = $ m - - - - - ! = ! @ , > > > > > > > > > > > > > > > > > > > > > > > > > > > , @ ! = ! - - - - - m $ = = - . } [ : + + - ] $ - - - - - - = ( ( 0 0 3 ) a = 6 9 (   ",
"  d h d ( a 6 6 6 3 0 0 3 / - = = = - a ! + . ] = ] q = % { % ( ! m - - $ ; ; 7 m - ! - - $ $ ! ! y ! ! $ ! ! ! . . . ! ! ! $ ! ! y ! ! $ $ - - ! - m 7 ; ; $ - - m ! ( % { % = q ] = ] . + ! a - ] ] - / = / ) 6 0 3 ( a 7 ( 9 0 - ",
"- e e 0 ( ( 6 6 6 6 0 0 ) - - - ~ . ] ! - - ] ] - t - - - + z , [ > & , , { t - ! ! . . . ; ; ; ; ; ; ; ; ; ; ; ; ; ; ; ; ; ; ; ; ; ; ; ; . . . . ! ! - ; { , , & > [ , z + - - - ] - ] ] - - ! y . $ ] ] = = = 6 6 6 ( ) a a 6 9 / ",
") e d 6 ( 6 6 6 6 6 9 0 a - 7 . ; - / - - - - - ! 7 ] } [ } ^ , % $ - $ ; + ; ; ; ; ; ; ; ; ; ; ; ; ; ; ; ; ; ; ; ; ; ; ; ; ; ; ; ; ; ; ; ; ; ; ; ; ; ; ; ; ; $ - $ % , ^ } [ } ] 7 ! - - - - - ] - ; . 7 - / 7 7 ) 3 6 ( ) a 3 0 7 ",
"                                                                                                                                                                                                                                    ",
"                                                                                                                                                                                                                                    ",
"                                                                                                                                                                                                                                    ",
"                                                                                                                W W W W W W                                                                                                         ",
"                                                                                                        F F F F I |.|.|.|.I F F F F                                                                                                 ",
"                                                                                                    I E K G F I I W W W W I I F G K E I                                                                                             ",
"                                                                                                  N G O O E I I S I I I I S S I E O O G N                                                                                           ",
"                                                                                                D S E J F S S J O H H H H O O S S F J E S D                                                                                         ",
"                                                                                        D N F E S F E F D S J H +.+.+.+.+.+.+.J S D F E F S E F N D                                                                                 ",
"                                                                                  E E Y F H H O J J H H H K K K O E E E E O H K K H H H J J O H H F Y E E G                                                                         ",
"                                                                          1.V V E Y E G J H H H K +.+.+.K K K  .H J G G J H K K K K +.+.+.K H H H J G E G G G                                                                       ",
"                                                                          R V P P G J J J S H +.&.&.&. .K K K K K K H H K K K K K K  .&.&.&.+.H S J J P P V G N R R                                                                 ",
"                                                                      I I W V P P L L F S O K &.&. .+.+. .K H H H K K K K H O H K  .+.+. .&.&.K O L L P P V G R D I I                                                               ",
"                                                                    J E E D P P L L M P P H K &.&. .H H K K H H H K +.+.K H H H K K H H  .&.&.P P M L L P P N R N E E J                                                             ",
"                                                                    J G W N R L L Q M T L P O  .` +. .O H H H H J J J  . .J K H O  .O `  .O P L T M Q L L W D R R W G J >.                                                          ",
"                                                                  I G I N N S D M M U U U L L  . .`  . .O +.O K  .=.=. .K J +.O  . .`  . .L L U U U M M I D D S D N I G I                                                           ",
"                                                                  D D N W S D R N T U X X Z U L  .#. .` =.` =. .#.=.=.#. .=.` =.`  .#. .L U Z X X U T J G N R D S W N D D                                                           ",
"                                                                  !.D I S Y S N I L U X ......Z U #.-.U =.#.#.#.#.,.,.#.#.#.#.=.U -.#.U Z ......X U L J J I N S Y S I D !.                                                          ",
"                                                                Y N F Y Y Y H O O H L Z ..@.$.*.$...X U ,.X Z ,.{.{.{.{.,.Z X ,.U X ..$.*.$.@...Z L E J H O O H %.Y Y F N Y                                                         ",
"                                                              8 w F Y E Y J H O O J ` U ..$.*.*.;.A $.@.....Z ].z z z z ].Z ..@.$.A A ;.*.*.$...U ` J E J O O H O Y E Y F w 8                                                       ",
"                                                              R D J E F E J +. .+. . .` Z *.*.;.;.;.;.A A A A A ;.;.;.;.A A A A A ;.;.;.;.*.*.Z `  . .K H +. .+.H E F E J D R                                                       ",
"                                                              N F J F W E J  . .H K  . .U $.;.;.;.;.;.).~.^./.).;.;.;.;.;./.^.~.).;.;.;.;.;.$.U  . .K +.K H  . .H E W F J F N R                                                     ",
"                                                            R F E E D D E J  .H J +.K #.#.@.A ;.;.;.;.;.)././.;.;.;.;.;.;.;./.).;.;.;.;.;.A @.#.#.K  . .+.J H  .H E D D E E F D                                                     ",
"                                                            R (.J W N D E J +.O J J +. .-...$.;.;.;.;.;.;.;.;.;.;.;.;.;.;.;.;.;.;.;.;.;.;.$...-. .+.H H J J O +.H E D N W J E F                                                     ",
"                                                            R E E D N N E J K O J F +.` U ..$.A ~.;.;.;.;.;.;.;.;.;.;.;.;.;.;.;.;.;.;.~.A $...U ` +.J E F J O K H E N N D E E F                                                     ",
"                                                            R J (.D '.D Y J H O O W  .$ + | @ | + ; ; > ' ;.;.;.;.;.;.;.;.;.;.;.' > ; ! > } # [ } > F I W O O H H Y D '.D J J F                                                     ",
"                                                            R G J I I F J Y J O O $ . > , * * ' ^ ; ] 7 - ; ' ;.;.;.;.;.;.;.' ; - 7 - ~ & } * # ' , : . D O O J E J F I I J G F                                                     ",
"                                                            R E J W E E J J F 7 - . % { | * * ' & > $ a a - ; ' ;.;.;.;.;.' ; - 3 = $ > , ' * * ' ^ & > ! = G F E J E E W J E I                                                     ",
"                                                            R F E D J E G J ) ] $ ~ % : < z * ' ^ > $ = ) ) - ; ' ;.;.;.' ; - 6 ) ] . > , } * * ' < & > ; $ / F E G E J D E F W                                                     ",
"                                                            R D I D F F E ) = - . ~ + : , { ; . - / - $ ! ! ! ! ! ! ! . . ; ; ; ; ; . ! . ; > { } , { > ; ! ] 7 J E F F D I D R                                                     ",
"                                                              N D N N D E 7 ] - ! . . - - - - - $ - . ~ > : , } ' ' ' ' ' ' ' , ^ : ; ; . . . $ - - ! . ; . $ / O E D N N D N R                                                     ",
"                                                              '.W N R N ) = $ $ - - ! - - ; : | @ # # * @ } | , , , , , ^ < } ' * # # # * ' , { ; ! . $ - - . = a E N R N W '.v                                                     ",
"                                                              '.W D R . $ $ $ $ - $ & ' ' # ' } , { : > > > > > > > > > > > > > > : { { ^ ' * # # ' } > . . $ - . . N R D W '.                                                      ",
"                                                              R W . $ $ $ - ~ | @ ' < < : { & { & & > + % % % % ; ; ; ; ; ~ % + + > : : { ^ | | @ @ [ # # ' > ! ! ! ! . I W R                                                       ",
"                                                              . $ $ $ $ > } } & & : : ^ ^ < , { { > % % ~ ~ ~ ~ . . . . . ; ; ~ ~ % : { { < | ' | , < ^ @ @ [ [ , . $ - - $                                                         ",
"                                                          . $ $ $ ! & | : > > > { { { ^ } ' } ^ { > % % . . . ! ! ! ! ! ! ! . ~ ; % : { & < } ' ' < < | , , & } ' * { . $ - - $                                                     ",
"                                                        $ $ $ - ~ > % ~ ~ ~ + > > > { , ' z < ^ : > % ; . . ! ! ! ! ! ! ! ! ! . . ; % : { ^ | ' ' < ^ ^ , ^ : : > { } } & $ $ $ $                                                   ",
"                                                      $ $ $ ~ + . . ! . . . . . . ~ + : < < & { > + ; . ! ! $ $ $ ! ! ! ! ! ! $ $ $ . % + > , ' } , ^ & > % % > % % . + ^ ^ : ; $ $ $                                               ",
"                                                  - $ - . { ~ $ ! - - - - ] ] ] ] - ] - ~ + ~ ~ . $ $ $ $ $ $ $ - - - - $ $ $ $ - ] ] $ . ; + ^ ^ > ; ; . ] $ $ . . . . . : , , : ! ! $                                             ",
"                                                ] ] - ~ ! - - ] - ] / ] 7 ) ( 6 ( ] $ + | @ | + - / = = / ] - - - - - - - - - / = = a ] ! > } # [ } > . ] = = / ] $ . . ! ! . : & : . - $                                           ",
"                                              = ] ! . ! ] ] ] / ] = 7 ) 6 9 6 7 $ . > , * * ' ^ ; ] 7 a = / ] ] / ] . ] ] / = = a 3 7 - ~ & } * # ' , : . ] ) ) a / - - - $ $ . ; + & ~ - -                                         ",
"                                            ) ] ~ ~ - ] ] ] ] / 7 7 ) 0 9 0 7 - . % { | * * ' & > $ a a ) a = = = / . / = a a 3 6 3 = $ > , ' * * ' ^ & > ! = 3 6 ) = / - $ $ ! . . % > . $ ]                                       ",
"                                          ) = ! ! - / / 7 = / = 7 ) 9 9 6 ) ] $ ~ % : < z * ' ^ > $ = ) ) 3 a = = = - ) ( 3 3 6 6 ) ] . > , } * * ' < & > ; $ / 3 6 ) 7 ] ] - $ ! . ; % > ~ - /                                     ",
"                                        = = ! $ - / / ] 7 7 = = ) 9 9 6 ) = - . ~ + : , } } < { % - = ) ) 3 3 ) a ) / 3 3 3 3 3 3 a ] . > ^ | * * } , { > ; ! ] 7 6 0 ( = ] ] - $ . ; ~ % : ; / /                                   ",
"                                      = a $ . - / = / = 7 = 7 a 0 9 6 ( 7 ] - ! . ~ + : < | , { % ! = ) b 3 3 3 3 7 $ 6 9 0 6 ( ( 7 ] ! + { , ' ' ^ : > % ; . $ / ) 6 9 ) / ] - $ . ; ~ % % > . ] /                                 ",
"                                    = a - - - ] ] / = = 7 = ) 6 9 0 3 ) = - - $ $ . ; + { < < : ~ $ = 7 ) 3 0 6 ( ! > ( 0 9 6 ( ( = ] $ % > & , & : + ~ ; . ! - = a ) 6 6 = / - - . ; % + + + + . = ]                               ",
"                                  = a / ! - - - ] ] / = / = 3 9 9 6 3 ) / - $ $ $ $ . ; > ^ , : ~ - / a ) 6 0 9 m . > ) 6 0 8 ( 3 = ] $ ; > > + % ; ~ . ! ! ! ] ] = ) ( 9 a = - - . ; > + + + + % . =                               ",
"                                  = ] $ - - ] ] - ] / a a = 6 6 0 3 a / - $ $ $ . $ . . + + : > ~ - / a b 6 9 d ) ] - ( 6 0 6 3 ( = ] $ ~ ~ ; ; ; . . ! ! $ $ - - ] a ) 6 a 7 - $ . ~ + + + + + ~ + - ]                             ",
"                                = ] - - ] ] ] - $ - / a 7 ( 0 6 6 ( = - . ! $ $ $ ! $ ! ~ + % % . - / a b 6 9 9 ( ] - ( 9 9 6 6 ( 7 ] $ . . ! ! . ; . ! ! $ $ $ $ ] 7 = ( 3 ) $ . ; + + + % % ~ ; ~ ~ - ]                           ",
"                                ) - - - ] ] - - $ - / a ) 6 0 6 ( ) - ; . ! $ ! ! $ $ . % % ~ ; . - / 4 b ) 0 9 ( ! ; b 9 9 ) 3 ( 7 / - ! ! $ ! ~ ~ . ! $ . . . $ $ = a ) 3 a $ ; + > { > % ~ ~ ; ; . . ]                           ",
"                              a ] - - ] ] - $ $ $ - / = ) 0 9 3 3 a ! ; ! ! ! $ $ $ $ ! % ; ; ; . $ ] a ) _ 8 w ( ~ { 3 9 9 a ( 3 7 / - $ $ $ $ . ~ ; . . ! ! . . ! ] 7 a 3 3 ; + : & : > ~ ~ ; ; . . . $ ]                         ",
"                              = - - ] ] - - - $ $ - / = ) 9 6 ( ( / ~ . . ! ! $ $ $ $ . ~ ; ; . . - / a ) - 6 e ) > ^ a 9 9 = ( ) = - - - - - - . ; . . ! ! ! . ; ; - = 7 ( 0 + : ^ & : + ~ . . . . . . ~ /                         ",
"                            ) c ! ] ] - - - - - - - / = a 9 6 ) 3 - . . . ! $ $ $ $ $ . ~ . . . . - / 7 = - 0 w a , , a 9 9 = ) ) = - - $ - $ $ . % . ! ! ! ! ! . ~ - / a a 0 : , & : + ; . ! . . . . . ~ $ =                       ",
"                            7 ! - ] / - ] ] - - - ] = = ) 9 6 ) ) - ; . . $ ! $ $ $ $ . ; . . . . - _ = = ] 0 9 a , , a 9 9 = ) ) = - - $ $ $ $ ; ~ . ! ! ! ! ! . ; ; ] a a 0 & & : + ~ . . . . . . . . . ; /                       ",
"                          ) ] - ] = - ! - - ] - - ] 7 7 ( 9 6 ) = . . ! ! ! $ $ $ $ $ . ~ . ! $ $ $ - 7 ] - 0 0 7 < , 7 0 0 / ) ) / - - - - $ $ . . . ! ! ! ! ! ! . ; - 7 a ( : + + ~ ; . . . . . . . . . ~ .                       ",
"                          ) - - ] ] - ] = ] / / = ] = 7 ( 6 ) = - ! . ! ! ! ! $ $ $ $ . . . . p . c - / - $ ) ( ] , & = ) a - a ) / - - - $ - - . ~ . ! ! ! ! ! ! . ; $ 7 a a . ; . ! $ ! ! ! ! ! ! . . . . ; ]                     ",
"                          7 - - ] ] - = / ] / a ) ) a 7 6 6 ) ] - . . . ! ! ! $ - $ $ . i . . . . 1 + + & < ^ } < ' @ } ' } } ^ & + + . ! $ - - . ~ . . ! ! ! ! ! . ~ ! = a a - ! ] ] - - $ $ $ $ $ $ . . . . -                     ",
"                        ) / - - / ] ] / = 7 ) 6 3 a ) a ) 3 a - $ . . $ $ $ $ $ - - ! . . ; ~ ~ % . . c c 1 c 1 ; ~ ; . ; ; ; ~ % + > ^ , { > > ~ ; . . . . ! ! . . ; . ] a / ~ ! - 7 a ( a / / - - $ . ; . . -                     ",
"                        ) - - _ = / / / a 6 6 6 0 6 ) = = ) = - $ . . ! $ $ $ ! - ! ! - ] ] $ ; > < ' ' # # # # # # # # # # # # ' } < ^ + ! ! . . % > > ~ . . . . ; ; . - 7 / { ; $ ] a 3 3 a 7 / $ $ ; ; ; . . -                   ",
"                        7 - - = / / - 7 3 0 9 9 6 6 ) ] - ( - ! - . $ $ - - - ] a - . : < ' } < & : + y p t = = m = m = ] ] i i ~ { , } ' * A } > . $ $ . ; ; ; ; . ; . $ 7 ] < + . $ ] = 3 0 3 = - $ ; % ; ; . -                   ",
"                      / ] $ - / / - a 3 0 e d 6 ) ) = c - 3 c c / - - = = / . ; ~ ~ ~ - 4 ) 0 3 6 ( 3 3 ( 6 ( 3 ( 3 3 ) ) ) ) ) 6 3 3 3 3 ) 4 . + < ' , > . - - . ; ~ . . / = ' , > . - $ 7 6 0 6 / - . % % ; . -                   ",
"                      / - $ - ] ] ] ( 0 d 0 3 3 a 7 ] . $ / - = = 4 = - . ! - ) b 3 6 3 6 6 6 0 0 9 9 0 0 0 0 0 0 0 0 0 0 0 0 0 0 6 ( 6 6 3 3 3 3 3 a / . , | > ; ] $ ! ; - a | , : ~ $ - = ) 0 9 ) - ! . % ; . !                   ",
"                      / - $ - - ] 7 9 d 9 6 3 ) 7 ] $ $ ] 7 7 = ] - - / 7 ( 6 6 6 6 0 6 0 9 0 9 6 0 6 0 0 0 0 0 0 0 0 0 0 9 0 6 0 6 6 9 0 6 6 6 6 3 ( ( ( m = ; > { : . ] - - + { { + . $ ] = ) 0 0 / ! ! ; ; ; !                   ",
"                      / - - - ] = ( 9 9 6 6 ) a ] - ] / 7 7 ] - / ) 3 6 3 6 6 6 6 6 6 0 0 0 6 9 9 9 0 9 9 9 9 9 9 9 9 9 6 6 9 9 9 9 6 0 0 6 0 0 6 ( 3 a ) ( ) a a 4 ; > ~ - / - . + + . $ - = a ) 9 ( - $ . ; ; . -                 ",
"                      ] - - - / = 0 9 6 ) ) = / = = = = - = ) 6 6 3 ( 3 ) ) a = 7 a ( 3 6 0 9 9 9 9 0 0 0 6 6 6 6 6 6 6 6 6 0 0 6 9 6 6 6 6 6 ) a = - - / = / a a a a B - . . . / / ! . ! $ / = = = 3 / $ . ; ; . -                 ",
"                      - $ $ $ - a 0 6 ) a / / = = = = = b 6 8 6 6 3 a a = ] $ ; + > ; ] 7 ) ) 7 = ] ] - - - - / & < & / . . . . ! - ] 7 ) a = $ % & ^ { > % . $ ] 7 7 a ) a = . + ; - ] $ ! - / / / 3 ( $ . . . ~ -                 ",
"                      $ . . . $ a 6 ) = ] 7 a ! > - ( 3 6 6 6 3 ) a = ] - - ; % > { > ! - - - $ $ ! $ - - 7 7 = [ # * ] 7 ] - . . . . . . $ $ . > < ' , { > % . . - / 7 7 ) ( 7 ] . > % = / ! $ ] ] = 3 ] . ; ~ . ;                 ",
"                      $ ; ~ . ! a a / = a = $ ! 7 3 3 0 6 3 3 ) a 7 = ] - - $ . - ! - - - - $ $ $ $ $ $ - / = ( # # # = ] ] - ! ! . $ ! . ! . ! ! ; + ; + % ; . . $ - ] 7 ) ( ( ( 7 ] % > . / $ $ ] ] $ = . . ~ % !                 ",
"                      ! $ ; . $ = = = a _ _ 4 6 6 6 9 0 6 3 ( ) 7 7 ] - - - - $ $ $ $ - $ $ $ $ ] - - - ] ] 7 0 > [ { ) ] - $ . . ! ! . ! ! ! ! . . . . ! . . $ $ - ] ] / 7 ( ( ( 3 ( 7 $ ; % ] ] $ $ + b = . ~ . -                 ",
"                      ! c . $ - / = a - - ) 6 9 6 6 9 0 8 ) ( 7 ] - $ $ - $ - $ - $ - - - - ] / = = ) a a ( ( ( ) / 7 ) ) ) ) = = ] ] $ ! ! . ! ! . ! . $ $ ! ! $ $ - ] ] 7 a ) 6 6 6 ( ( 7 . % - = - ! = = ! . . $                 ",
"                      . ! ! - / ) = - = 6 6 0 9 0 9 9 6 ) = ] - $ $ $ $ $ $ $ - - ] / 7 a ) ) ( 6 ( ( ) ) ) ) a 7 = 7 ) ) ) ) ) ) ) ) ) m = / ] - - - ! ! $ $ ! . $ $ $ $ ] 7 ) 6 6 6 ( 6 ( 7 ! ; - = ! ] ] $ ! $ !                 ",
"                      ; $ ! ] 7 = / ( 8 9 0 0 9 9 9 6 / - - $ $ - $ $ $ - ] 7 a ) ) ( ( 3 ) ) ) ( ) ) ) = / - - - - $ - - / / a ) a ) ) ) ) ( ) ) ) a / - $ $ $ $ ! $ $ . $ $ = ) ( 3 3 6 3 ( a ] ! $ ] - - $ - - .                 ",
"                      + - ] a / ] ( 0 0 9 9 9 0 3 ] $ $ $ $ $ $ - - = ) b 6 6 b f f ( ( a / . > { | ' * * # # # # # # # # # # [ @ | { % - ] = a ) ) ( ) ( ( a / - - - - - ! ! ! ! ] ( 3 0 6 6 6 3 = ! $ ] - ! . - .                 ",
"                      > a 7 = 7 6 6 9 9 9 9 9 = - $ $ $ $ - - 7 ) ) 6 6 6 f ( ( 7 - ~ , @ * # # # # # * ' ' ' | | | ' ' ' * * * # # # # # # @ | > ! / a ( ( ( ( ( a / o - c c c ! . . / 3 3 6 6 6 ) 7 - $ ] ] $ -                   ",
"                      - a = a 0 9 0 9 9 0 = $ $ - $ $ - ] = ( 6 6 3 3 3 ) ] . , * * # # * * * @ } | & { : > + > + : : > > : { & ^ , < } [ * # # # # # < ; - a 3 3 6 6 6 a ] $ $ ! ! . . $ = 6 0 6 6 3 a / - ] ] -                   ",
"                    . ( = ) 0 9 0 9 9 3 - ! ! - - - / ) 3 6 6 6 6 ( - ~ < @ * * * * * * * * * } | & : > > + + > > > > : > > > : { ^ , | } ' [ * # # # # # # | ~ ] ( 6 6 6 0 ) / - . $ . . 1 - 3 0 0 6 3 ) ] $ 7 7                   ",
"                  . 3 7 ( 0 0 9 9 0 / - - - $ - = ( 3 ( ( ( ( = . , ' ' ' @ * * * * # * * * @ , & : > > > ~ ~ % + + % % + > + > > & & , , } [ * * # # * * * * * * , . a 6 6 6 8 6 4 - p c . . ! / 6 6 0 3 a ] = )                   ",
"                . ) ( f 6 9 9 9 6 - $ - - - = ) ( ( ( ( ( ] % & ^ , , , , } ' @ * * # * * @ | , { : > > % % ~ ~ ~ % % % % % % % > : { { ^ | ' [ * # # # * @ @ @ @ ' * ' % a 0 0 0 6 6 7 ! . . . . ] 6 9 6 6 ( ] ] 7                 ",
"                ) ) ) 6 0 9 9 ) - - $ $ - ( ( ( ) ( a ] % > > > + ~ % ~ i C + < ' ' @ ' < ^ : : > > > > % ~ ; ~ ~ ~ % ~ ~ % % % % + + % > : & , @ @ * * @ | , , & : ^ , } ' > = 0 0 0 0 ( = - p . . - ) 0 6 3 7 = 7 7               ",
"              % 6 ) 6 9 9 9 a - - - - 7 ( ) a a a $ ; + ~ ; $ $ - = ] 7 7 ] ! > < ^ : + ; ; ; ~ % ~ ~ % ~ . ; ~ ~ % ~ ~ . % % ~ . . ! ! ! ! ; > , @ * @ ^ > ~ . . ~ ~ ~ : { ^ , + / 0 0 0 0 ) _ c p . $ 7 0 6 3 ) ] ) .             ",
"              ) f 6 0 d 0 = - / - = ) ( a a 7 ] ~ % % . - ] = ) 3 6 3 7 - ~ > , ' @ ' , > . - / ] $ ! . . ; ; ; % ; ; . . ; ; . $ ] ] / - . + , @ # # # ' , > . - ] ] $ . ~ % > & ^ > a 0 9 9 8 a $ ! . $ = 6 6 ) = ] 7             ",
"            . 6 6 0 9 6 - . - = ) ( a a a - ~ ~ ; ! - ] 7 ) 6 6 6 a / ! ~ : < @ * * * @ , { ~ - 7 7 ] $ $ . . . ; . . . . . $ - = ) 7 - ! + { ' * # # * @ } & > ; - = ) 7 - ! ; % > + { ~ ) 9 9 0 ) - $ $ ! = 6 6 ( / 7 ]           ",
"            6 6 9 9 0 - ~ . / ) ) a 7 7 / . > ! - - / ) 3 8 9 6 ) = $ . % & , @ * # # @ < & + . - = a 7 - - $ . . . . $ - ] - = ( ) ] - ~ > ^ } * * # * @ < & > ~ $ ] 7 ( 7 ] $ . . . > , { ) 9 9 9 6 / c - ! ] 6 3 ( 7 7           ",
"          . 9 0 9 0 / % . - ( ( a a a / $ . $ - = = ) 6 9 9 6 ) = - - $ ! ; 5 < @ * * @ < ^ % . ! / a ( a / / $ . . $ ] / = 7 ) ) = - ! ; : & } @ @ @ ' ^ > % ~ ; ! $ ] a 3 ( ] $ ! . . ; + ; f u w 9 6 = - ! . 7 0 6 = ( -         ",
"          8 9 9 9 - > ~ - ) ( ( ( a - - ] ] = = a a ) 0 9 0 f ) = 7 m m m m = ! & @ * ' , : % . $ - = 7 ) ) 7 ] $ ! - / a ) ) = = / - $ ; + ^ , } , : ; - ] ] ] ] - - - = ) 6 ( / ] - $ ! . ; ; - 9 u 9 6 = $ . . / 3 ) a a         ",
"        . d 0 9 - : + - 6 ( a ) = - $ - = = = a ( 3 0 9 6 6 b f f f ) ) a ) ) ) ] ; & < : + ; . $ ] ] = ) ( 3 7 $ ! ] a ) ( 7 7 / / - $ . + : ^ > . ] ] / / / = = 7 / = ] 7 ( 0 ( / ] ] - $ $ . % - 9 d 9 6 = . . . = 0 ) (         ",
"        ( d 9 = { > . 3 6 ( a a / ] ] = = 7 a ) 3 0 9 0 6 ) 6 6 ) ) = = = = = = / ] ! 5 5 ~ . $ - ] ] / a ( 0 ( - $ 7 3 6 ) 7 7 7 ] ] - ! ~ > : - ] ] $ ! $ $ $ - = 7 a = = 7 ( 0 ( = / - - - - $ . / 6 9 9 0 = . ; . 7 ( ( ]       ",
"        9 e 3 : ^ . 6 0 6 3 a / = / = = 7 a ) ( 6 9 9 6 f f 6 ) / / / = = = / ] - - - . ~ ~ . $ - / / 7 a 3 6 ( ] ! = 0 6 6 7 = = = ] - . . . - = ] $ . . . . $ - - ] ) ) 7 7 ) 6 6 ) / - - - - $ - ! - 6 9 9 6 / . ~ $ ( 3 a       ",
"      . e 0 ~ + . 3 0 0 3 ( 7 / = = a 7 ) a ) 6 8 9 0 6 3 3 ) = = _ _ / / = ] - - $ - $ ! . ! - / / / 7 a 6 0 ) / $ 7 6 9 6 7 = = = / - - - - / ] - $ . ! ! . - - - - = a ) a a ( 6 ( 7 ] - $ $ - - $ ! ] 0 d 9 6 / ~ ~ ] 6 3       ",
"      ( g ! < ~ 6 d 0 6 ) = / / / / / 7 a ) ( 6 0 9 8 6 6 ) = = - / / / ] ] ] ] $ $ $ - $ $ $ $ ] ] / 7 ) 6 9 ) / ! / 6 9 0 a = = 7 = - $ - = / ] $ $ . . ! $ ! ! $ - - = ) ) ) ) 3 3 a ] - - - ! - - - - _ 6 u 9 6 / % ~ / 0 -     ",
"      0 0 ' + a d 9 0 ( = / = = = = = 7 a a 6 0 0 0 6 6 ) = = ] - - ] ] ] ] ] ] $ - - - - - - - - = 4 4 ) 0 0 ) - . / 6 9 0 ) 7 a 7 / ] - / ] ] ] ] $ . . ! ! ! - - - c - / ) a ) ( ( ( / - - $ ! $ - - c - = 0 d 9 6 - > . 3 (     ",
"    . g ; @ ; d u d 0 7 / a a = ] / = 7 = ) 6 9 6 6 6 ( 7 ] ] ] ] ] ] ] ] ] ] - $ $ $ - - - $ - - / = 7 ) 0 0 7 $ % ] 6 9 6 ) ) a = = - / / / ] ] - $ ! $ $ $ $ $ $ $ $ - ] 7 a 7 a ( ( / - - . . . $ - - - - 7 9 9 0 ) ; + ] 0     ",
"    ! e ' ; 9 e d 0 ( ] / / 7 / / ] ] 7 7 ) ( 0 6 6 0 a ] $ ] ] ] ] ] / / ] ] - $ $ $ $ - - - - - ] = 7 a 6 0 7 ~ > - 0 9 6 ) ) ) 7 = = = = / / ] ] $ $ $ $ ! $ $ $ ! - - $ ] 7 ( ( ( ( = - . ~ % . ! $ - _ - ] ( 9 9 6 = % % 0 .   ",
"    3 ] } 3 e e 0 ) = = 7 7 = ] ] ] ] / a 3 6 6 6 6 6 = - - - ] - ] ] ] / ] ] - $ $ $ $ - - ] ] ] ] = / a 0 0 / . : - 6 9 6 7 7 ) = = = = / ] / ] ] $ $ ! ! $ $ $ $ - ! - - - = ) ) ) ( = - ; > > ; . ! - - - - ] ( 0 0 6 - > 7 /   ",
"    7 , ~ e e d 3 = 7 7 7 7 7 / ] - - = 4 6 9 6 6 6 f = - - - / / ] ] ] ] ] ] - - - - - - - / t / / 7 / 7 0 0 / % : - 6 0 3 7 7 a 7 = = = / / ] ] ] $ $ . . . ! ! $ $ $ $ $ $ / ( ) ) ) / . + { : % . . $ $ ] ] - / f 9 6 a ~ ; /   ",
"    % | 0 e e 0 a 7 7 ) a a = ] / / - - = 6 9 6 6 6 a ] - - ] ] ] / ] / ] / / - - - - - - - - ] / / / = a 0 9 / ~ 5 - 6 0 6 a a a ) 7 = = / / / / / ] $ $ $ $ ! ! $ ! $ $ $ - / a ( ( 7 ] . : ^ : + ; . $ - ] ] / ] 7 0 0 0 - ~ -   ",
"    ^ . e e e 3 7 a ) a ) a = ] = - - $ / 6 9 6 3 ) = ] - ] ] ] ] / / / / / ] - $ - - $ $ - - - ] / = = ) 0 9 / ; 5 / 6 0 6 7 7 ) ) 7 = = / / ] / / - - $ $ $ - $ $ - $ $ $ $ - 7 ( ) ) ] % ^ ^ ^ + + ; . - ] / - - / f 9 0 ) ; ;   ",
"    & ) g e 9 7 = ) ) ) ) ) a / = ] - $ $ 6 0 6 3 a / ] ] ] ] ] ] ] = = = ] ] ] $ - - - - - - ] ] ] = 7 ) 0 0 = ; C t 6 9 6 ) a ) ) a = = = / / / / - - $ $ $ - - - - $ $ $ ! - = ) ) 7 - + , , & : + ; . $ ] ] = / = ) 0 9 6 $ +   ",
"    $ e e 9 ) = ) ( ) ) ) ) a = / ] - $ $ a 0 6 ) 7 / ] ] ] / / = = / = = / $ ! ; + : { 2 2 < | < | | | | } < , | | | , < } | | | | < | < 2 2 { : + ; ! $ $ - - $ $ $ $ ! ! ! - / 7 7 / $ ; : : : > + ; . $ - ] ] / - = 3 9 0 a .   ",
"    0 g e 0 = ) ) ) ) ) ) ) ) = = ] ] - $ 7 6 6 a = ] ] ] - ] = - ! ; : ^ , ^ , : > % ; ! $ - $ . . . ; ; ; ; ; ; ; ; ; . ; ; . . . . $ - $ ! ; % > : , ^ , ^ : ; ! - = ] $ $ - ] / = - $ . ; % % % ~ . $ $ $ ] / = = ] ) 0 9 0 $   ",
"  . e g 9 ) = ) ) ) ) ) ) ) a ) = = = ] = ) 6 3 = ] - - - ! > ^ ^ * | - - - - - $ $ $ $ $ $ ! ! ! ! ! ! ! ! ! ! ! ! ! ! ! ! ! ! ! ! ! ! ! - - - - - - - - - - - | * ^ ^ > ! - - - ] ] - $ $ - - - . . $ ! ! $ ] ] = = = = 3 9 9 a   ",
"  ! g e 9 = = ) ) ) ) ) ) ) ) ) ( ( ) ) a 3 3 - $ $ ~ { } @ , & . % ; a - - - $ $ . + > : ^ , < | | } | | < < ^ : : : ^ < < | | } | | < , ^ : > + . $ $ - - - a ; % . & , @ } { ~ $ $ ] $ - - - - - ! $ - - - ] / = / / / ) 0 9 (   ",
"  ) h e 6 = a ) ) ) ) ) ) 6 6 6 6 6 ) = - ] - + + : [ } . - = = $ m - - - - - ! = ! @ , > % . ~ ~ ~ ~ ; ! ! ~ % % % % % ~ ! ! ; ~ ~ ~ ~ . % > , @ ! = ! - - - - - m $ = = - . } [ : + + - ] ] ] / ] ] ] ] - ] = = = = = = = 6 9 6 . ",
"  9 e 9 a = 7 ) ) ) ) 3 0 9 9 0 6 ) - a ! + . ] = ] q = % { % ( ! m - - $ ; ; 7 m - ! - - $ $ ! ! ! ! ! $ ! ! ! . . . ! ! ! $ ! ! ! ! ! $ $ - - ! - m 7 ; ; $ - - m ! ( % { % = q ] = ] . + ! a - / / = = / ] / 7 7 = = = = ) 0 0 - ",
"! e e 0 / a a ) ) ( 6 0 e d 0 - ~ . y ! - - t t - t - - - + z , [ > & , , { t - ! ! . . . ; ; ; ; ; ; ; ; ; ; ; ; ; ; ; ; ; ; ; ; ; ; ; ; . . . . ! ! - t { , , & > [ , z + - - - t - t t - - ! y ] ] a = 7 = ] = 7 7 = = = a 6 6 = ",
"- e 9 3 a a ) a 3 6 9 d d - 7 . ; - - - - - - - ! 7 ] } [ } ^ , % $ - $ ; + ; ; ; ; ; ; ; ; ; ; ; ; ; ; ; ; ; ; ; ; ; ; ; ; ; ; ; ; ; ; ; ; ; ; ; ; ; ; ; ; ; $ - $ % , ^ } [ } ] 7 ! - - - - - / - ; . ] ] 7 7 / = 7 7 = / 7 6 6 a "};
