/* XPM */
static char * concrete_2_xpm[] = {
"64 64 71 1",
" 	c #717171",
".	c #707070",
"+	c #727272",
"@	c #6F6F6F",
"#	c #6E6E6E",
"$	c #AAA78E",
"%	c #A8A48B",
"&	c #AAA68E",
"*	c #ACA990",
"=	c #AAA68D",
"-	c #ACA890",
";	c #ABA78E",
">	c #A9A58C",
",	c #A6A389",
"'	c #A8A48A",
")	c #ADA991",
"!	c #AFAB93",
"~	c #B0AC94",
"{	c #AEAB93",
"]	c #ABA88F",
"^	c #A7A48A",
"/	c #ABA78F",
"(	c #AEAB92",
"_	c #ACA88F",
":	c #AEAA92",
"<	c #A7A38A",
"[	c #A8A58C",
"}	c #A8A58B",
"|	c #A9A68D",
"1	c #ADAA92",
"2	c #A6A289",
"3	c #A6A288",
"4	c #A7A389",
"5	c #A9A68C",
"6	c #ADAA91",
"7	c #AFAB94",
"8	c #AFAC94",
"9	c #B0AD95",
"0	c #A5A287",
"a	c #B2AE97",
"b	c #B1AE97",
"c	c #B1AE96",
"d	c #B4B099",
"e	c #B4B19A",
"f	c #B1AD96",
"g	c #B0AC95",
"h	c #B3B099",
"i	c #A4A086",
"j	c #B2AF97",
"k	c #B2AF98",
"l	c #A4A186",
"m	c #A5A288",
"n	c #A5A187",
"o	c #444444",
"p	c #454545",
"q	c #434343",
"r	c #424242",
"s	c #C9C9C9",
"t	c #CACACA",
"u	c #CBCBCB",
"v	c #C8C8C8",
"w	c #C7C7C7",
"x	c #CCCCCC",
"y	c #C6C6C6",
"z	c #C5C5C5",
"A	c #CDCDCD",
"B	c #CECECE",
"C	c #CFCFCF",
"D	c #D0D0D0",
"E	c #C4C4C4",
"F	c #C3C3C3",
"     .. .+ .@ @. +@+@# @ @#. . @ # #@ @@..  @#+@.@ +   . ..#@..@",
"$%%$&**==-***;>,%'====)!~{))*-=>]^%^==>^=%^=/)(*_/){*::*)_*;$<[_",
"$}<}%=-|}$$:_>%%|>&%}=*:{*$$*1/=)$>$=|234%<=))_]];-$5/1){)*][,4$",
"&|'2^%;$>>=);>%%%%|,3$)-;$>^5)_]:-$-*=>^%'[=16)*/-]|>|;*!7{*$5%$",
"=/|>;5/=}$=/)]>>'%^3,|-$;>^[=;;*)1)]]=[2%%/)88:]===%%|>$-!:-&>>>",
"$-];;[>[>%%==)-|&$},';]==|'>%;$]*-$/][<34$)8~{*&'%}%'''[]:~:/||]",
"=/]_-=;=&$|-*)]>&**5]]*/$/>$%;/-]=$>==%'5;19~)$>}4}>%>>=-({::*--",
"=-::6)**:;>;1]:*_61$;>=$**&=^$=>=|>^>%%^5]*89)$%><^3<=-)::1]-1-;",
"}5)!81!6);}/;/)1(6/%}%%%$_]/=$=]_-$>%},<>*)9{_=^>>>4^5-{88(---$/",
"'$1)871*->%$/_-{8*$%}%>>}];)/>>=));$>0,%5]6:]=<3^^=%>/(7*88**1-]",
"^}$&*!(*/5}>];*:{)&=$]/$$$$=><3%$-:-*5^&){:7{;=^45&'%/)-]-88)*/=",
"^%=$-){66$>$]-)1~:1*&]:)-*&>}23'$]-1:-=-!)(7!)]'<=$>};1$=$*:]*/;",
">}$){:16*5;):8{ab97)_-*81)=;}^<;]/-:8)*1:8(6!7*_]-/}>-]53%;$%|%$",
">;**~!8!)/-)6{cdea81]])9f://]>$];=-1)*$*-)-/-*_-61;=}-;'3^=;^<4=",
"$/**:7c8g{)(8fahhb:{1:!f8))*1]-/)*:66;%=*)$/;*$$6);&>-;%%|/=%'>>",
">$||-!gg{!18bgfbabg!:~9g1/;6{*]-::*]$%<%$]-;]-=%;:]=}$$>>>=;==$$",
"%>/)g{:!a9:88{79f!!1)1:8($]11)-)-$$=}433%}]-]-=>$*;%^=;;$%}[>=>/",
"$])!c!188cg88:gf9(6]]*{!6;;&;$1*6$/=>5^}$=-:*]='<>=[%=-)]>>&==|]",
"--:)!6-*8g!88(~g1)_=}=$**$=>&&/]]]|><>%>]::!)==44,433<=]>^<}%^>|",
"/-;/*]==/66:{6*)-]=>5%%$$>'>[$5==5;'4<>>](~9!)=%}2,^4%%=>=%%2i''",
"=&%=]=;/]]/-]/]])*$}'^^}%3333%%|$&$>%'5/-8bfjg)/=5>%33'>>/>->^>>",
">|^>5<'>=_>-;/]])*/%}'>;&'>%^^<|==$$]$$$|*{9k~--=//$>$5;$&[}}^|]",
"^'l%<4%>>$=|;**;]=>>>4$:*||>^%=/]*-)/;]=|)6{9g16$]-]>&$&}^^3%$])",
"5<,%}}$*/=}^'>=/=^3'=}*-])]->=*6*))))*;$5)*]6!8{/-;'3^$;}^%%>-()",
"33,<5>>]*[<,%>=$%42}>|*;-/]]==1!7:*_-]=^^==&]*:*]*=>424=$=4}&)8-",
"<2%%5%'|]>^<>%==[%,}|=|5}%>%/):!!6)_|}%3^>>=/]!71);>33=]-/$$1:);",
">^}='^4==54'$|]-=$'$/=}=>=$=-*{8)*]='3}%=;*/61~{-$=%>>$!g)]-1*/;",
";5]=;>%$=$55/)=;_);>$$;;5===;;-*_|$>3m^%>$-6*{::->^'>>$1{--6:/5$",
"*$_-=%';=/]-;*&;=/&^%^>]$=>>5>=;]_-/%}=5|]*6{)/$->4,<5';)-]&;$>=",
"=$-=^23%>=]]]$}4>>;<}^=:*]>}%'5&$*))-//$$1g!!))&=='<4=>$:*]$/$|$",
">>}]|%^|=;;==|^%>5=}^3%/];>44'%>=[]))]]]-!8~8:(;/==}<>=]{)/$/=||",
",3,}>>5$1*-$/=&/-$_>^3^&;>>,%}%>=$==;]&-*)))1{{()]^}5]/*):-$=;>5",
"<24=$$;*:::*;/=$]-1$>45;$>|'='>=;>=}5=[$;]{{{7ff61$$;&=$=;$;/]>$",
"[[>$/*):b~{*----_])$/[&/*==%]_--/==[55%5$=18!f~9(:-]]><^=;&-:;$5",
"/}5]:!~fgc86]-_5*)]5=&;)6-$>*-)]>|}^'>^>>/16)::)6*)-$>2,&$$$$/>=",
"-=])86)1!8:/==>>/*)$-]))!{*/)//>>$|'=>4%<}$$$))(!6))-|^|-]/$;$>5",
"-/::1$$-6)*&|}<<%$$/*-17c8!-$[%2<%}2,}<}5]$%>$&/:6*$&=&;-{)$>}'<",
"*;-/-|=/-)]$>^,34^5=/**18-)$%4><,4%,%[^|//=%%'$/6:-====}$){/>%}<",
"]*/|=>=-;*)-;$>>==><=;]6]$$}<43^===[>]===$$^'^[/_$$>|<<%>$6;=$>4",
"-6/>>%&]-]]]-//=}='4>=$/--;=>%,>$*_$-->==5];>>>/>}>'^n,<%%//=>$$",
"_{]==>$/]=>>$]=5>$}<4^$/))-;;&>=;18:6;}^|**)&==;54'>%%3>5=$5<^%&",
">/*->>;==%>}>5}'%>|%^=*]**6]/$|;*(:1*&>}$-;)]]_)->5|/$>}5>|%44>,",
"3%--'>)|>}$%===<%>=%>>*1(!71!->*:6]$$>=%/$|6)~8:*$|^&%3,4>>>,^=%",
"[$]%3</$>[=>;]=>>$]]$|&-!gf{g1;);$>%=%}|>,^|]{991)///=},%}>}>>|>",
"5-|4,[]]);|=*)**=//]$}|-)):81::);>4'^%>>%4%>-(:!!(1;$;&>4%=5_-/>",
"]/>%'%}}&$_](898-)]];>%$;-):)6*_>%^,2%>>|%%|*)-6{!g*-]/|^>=$-)]=",
"|'^43',,%=]]):~f:*-]$>'>;];1):);=>>%>==>5>%=-**7bcg(1:*-%%|$*:--",
"^%}%<^4<>-;[=]1gg6]&=%[5-/**]);'[|[>5/]=/>=$)66fb78))*]=%%'}-*)]",
"[%><4^2'//=>%>)!8($_/=>>//-/=$$}%==[==];-$=]))1{{6--;=>5||5>]_/-",
"}^'4>>3n>5}>>=]{))/-$=|=]]}=>>><%5==}'|;$>[=/-):--/;;}44;]]_*_$/",
"+ #..+  @##.@#@...@. @ @ +@#    ## #@..@+ #@+ #@@  ## .@+++@ #. ",
"oopppqpqqoqqppopprorrqooqpoppqopooqoooooprqproqoppqqqqopqqpoopqq",
"stssttusttvwvxttutstvutswwvywssssvwvvvwzyvwytuutsssuttssuutstvtv",
"tutvuustxtvvsxuxuutttAvsuvsstuuusuzsvsswvwyvtuAxutxutxxsuuxutxxv",
"sutvtAxtttwwvuxtsutvsstytvtvututuvwwvtvwvwwvuxtststtstuttutuuxxt",
"vAustxtvxvvvstuuttttvvsvvvuwswsvstywttwzvwzvstxstwstxxusstwvxtux",
"sxtvtxustuvwsAtxtxxtsvwwsssvwswwttvwwttyyywvtAxxuusvuuttuxvtuuuw",
"tsvtstutuutvtABCxutAAutsvswyvttvstvywuttswwtvuuttuuxxxBBAsvvuttv",
"uAusststuswssuACDAAxxussvvywzyvsttuwvywwzvytuuAutustxtutttvvstvv",
"txBuuxtutswwtuuuxAAuuxsvstwvvsvwsttwywvywwzvuxtxututxtsuusvvutts",
"tABxtxuxxttssuuxxxxuuxtttuswvvswuttvvvvsEwvttuutuuuuuAtttttwstus",
"uuxAxuAxAuswuAsuxxxttsvsvsvstsvyvwxwwsvyvvtsstxttxtxsxuuuuvssuts",
"vuuuuttuBxssttsuuxsvwtvvsvsvsvwEwwsyzwywyywwwuttsvuwxsutuusvsvtw",
"wsxutvtsuuvwtsttxuusvtvzywwyvsvzwwFwyyEEywywvtwvssswsuwvssvvvwwy"};
