/* XPM */
static char * concrete\_1_xpm[] = {
"32 32 35 1",
" 	c #1E1911",
".	c #1D1810",
"+	c #1C170F",
"@	c #1A150D",
"#	c #1B160E",
"$	c #1F1A12",
"%	c #19140C",
"&	c #18130B",
"*	c #4D4A47",
"=	c #4E4B48",
"-	c #4F4C49",
";	c #514E4B",
">	c #54514E",
",	c #524F4C",
"'	c #504D4A",
")	c #4C4946",
"!	c #53504D",
"~	c #302B25",
"{	c #342F29",
"]	c #332E28",
"^	c #2E2923",
"/	c #322D27",
"(	c #312C26",
"_	c #2D2822",
":	c #2C2721",
"<	c #2F2A24",
"[	c #2D251A",
"}	c #251D12",
"|	c #292116",
"1	c #271F14",
"2	c #261E13",
"3	c #2A2217",
"4	c #2B2318",
"5	c #2C2419",
"6	c #282015",
"  ..++@ #$.+%.%@. %$%&.&.&&+++.&",
"*=-;=*>=*=>,'**-;;**,,)-!))=;!',",
">='**'>>-)>;--)=>,,-);**));=',>-",
"'-)'',-!;!),=';';;--!,;-!!-'>!*!",
"!'*>,;=!!,=>*';;**-,-->*!;-**'*;",
"-*-'==>'*),*-;)=;>=;)*,*-,!''>*=",
"!==!=,'**)>!,*!;'!,*,-,'*''),')=",
",*>'=;,,,-*='!)!-,,,==;'!!!,-');",
"',;*,==);=,-)>'=!;;*=*'!=!*,=-!-",
";-;'>>=-;,>!>*',,**=!)*>!;!=!';'",
"!,!==*>',)!-*)-*>)-,***>-;,,*-=!",
"-*)!-;'=>-!-;>-!;*==';=>*=>,->=;",
",;'-,'=,;!';;-!;!,!!*'=!!)!'=)';",
">,>>=,,*>,=*,,;!;')>*;!;=!;=*=!,",
"!='*)';>)-,,-;,*-)*=!,;;,*'!';,!",
";!*;!'**>==,*=*;;)';-,)*,'!!>'='",
"!,-;,;*;)'!,,=!'>-!',,,*---,;*;)",
"*)!*'-,'!==;;',,*-='->==*--;-!';",
"=!-;!>-==-*-,!>=!;',>-,;)-**,'!;",
";;='!=';'=-,='=;!!),,=*=>)>*-,''",
">-;=>-=*';*!>*==*),)>-'>;-;,!*-'",
"-=>-!*;'-),-=>,**;!*!;!;!====*;;",
"!;=,-';-*,';,=*>>-=)!'>>;!!';=,!",
"~{]^//(^_:^~^^{{^/<((<{({(]{^]/(",
"@%@%&&.@.&#+%& % @% %$#%$.  $$@+",
"[}||}[1|12|132|24||4|5221}}|35||",
"2[56[}52|}521341336}63622}23565[",
"664362334||62555|4[24|2[565|55}}",
"|3634546|2}}|}5252625||[}|}|2435",
"||}133252}615133225|33|[}344[}15",
"26}|6411335346|[3||36455136}|||}",
"2623[}536}6445163241653532412454"};
