/* XPM */
static char * stripes_ns_xpm[] = {
"32 32 18 1",
" 	c #C2C2C2",
".	c #C3C3C3",
"+	c #5B5B5B",
"@	c #C1C1C1",
"#	c #585858",
"$	c #C0C0C0",
"%	c #5A5A5A",
"&	c #BEBEBE",
"*	c #575757",
"=	c #595959",
"-	c #5C5C5C",
";	c #BDBDBD",
">	c #565656",
",	c #BFBFBF",
"'	c #5D5D5D",
")	c #555555",
"!	c #BCBCBC",
"~	c #C4C4C4",
" .++@@#+$.+%& *= .*-&;+* ;>=@@+*",
"&,#%&&-*;&'+$;*=@@*>  )#.!>#@ =+",
".,=>;$--,;-%,,>#. +#;@*>;!%#$ '#",
"$,>=$ #+@.>+&$%=@@## @%#..#=. *+",
".$>- $*+. *-;$=%&&#%,,->.@#>;$*%",
",&#=&&-=&;+*,@>*@.#%;&%>, +=$.>*",
" &*+& =>;;-- ;-%$.+> ,%=;$=>@$>*",
" &-=&@%+ $>#$.>-, ++&&%= .++,$>%",
"$ %* ,*>@&+#;.=*.@%>,;=-,.*+,,-#",
"@,%=..*#@ --.;=+ &>* ;>-.$-# $%=",
". +*&;'= ;-#;;#>.;#+;&*-,@++&,*-",
",;>+,@=*.,-#$.#-@;**$@#-;&-+,.*%",
" @=# $*+@.==@,-%  --&$#+ !-=&;=%",
". --& +>. **  %-@$>-&@-%&.%*&&++",
".&=*;$%-;,++,@%*,;** @%%@;=+$@++",
"@.>%.$>*.&*+&,>%@!=%$ >*@$+-.$*=",
". #% @>%;$++ ,+=.,+=  +>,,#+@;=>",
"&;->$,+=.&#=@$%+;,*=,.**&,#%, =%",
"& #%..#*&,># .-*.@=+.,%%;,>* $+%",
"@@#= &=%$&#%&$*% .>+ ,>#.;->, ==",
".,%*.,*>$@*-.&**;;%>.,=-@,%+ ;#=",
",&-# &%=,;+#&.+>&@+*.@-% &**,;%%",
".@*+,$%#;@=% ,*-~,*> $--@.-=@,++",
"$.+*  %*;;*=&&--,@#%@,-%.@--&.+=",
",&#*&;+#@;=%&&+* ,*+&.=*. --..#%",
".;==;.*=,;=*@&=> $=+$ *>&;)=@.==",
";.-#.;->$;+*&@+*@@#>,@#>;;>%.,+-",
",,+%,&%% $=#;.-+$ ->@$*' ,+=. >>",
"$@#= .+#$&>>$!-* ;#> $=-;$>=&@%+",
"$$>*@@>-&;#* &%%&;-=@@=-;@%+.;*-",
"&$>=, **@@+%@,=-@$=%,@--&@#>$$=)",
"&,>%.!+%,;#+@.*#$&+*, %-$;+*&@++"};
