/* XPM */
static char * tile_checkboard_xpm[] = {
"32 32 51 1",
" 	c #29241E",
".	c #090909",
"+	c #050505",
"@	c #030303",
"#	c #020202",
"$	c #000000",
"%	c #080808",
"&	c #0A0A0A",
"*	c #060606",
"=	c #28231D",
"-	c #FFFFFF",
";	c #F8F8F8",
">	c #FAFAFA",
",	c #F5F5F5",
"'	c #F7F7F7",
")	c #F6F6F6",
"!	c #19140E",
"~	c #040404",
"{	c #0B0B0B",
"]	c #0C0C0C",
"^	c #070707",
"/	c #010101",
"(	c #241F19",
"_	c #F3F3F3",
":	c #FDFDFD",
"<	c #F4F4F4",
"[	c #2C2721",
"}	c #FCFCFC",
"|	c #FBFBFB",
"1	c #201B15",
"2	c #25201A",
"3	c #2B2620",
"4	c #FEFEFE",
"5	c #1F1A14",
"6	c #231E18",
"7	c #F9F9F9",
"8	c #1E1913",
"9	c #221D17",
"0	c #2A251F",
"a	c #2D2822",
"b	c #27221C",
"c	c #17120C",
"d	c #1A150F",
"e	c #1B1610",
"f	c #1D1812",
"g	c #18130D",
"h	c #15100A",
"i	c #16110B",
"j	c #211C16",
"k	c #1C1711",
"l	c #26211B",
" .++@#$%$&*#$+$$=-;->,-'-))----'",
"!$$~$${$$$]^/$$$(-;'--_:-_<>----",
"[$$$$/{{$${@$$$$[--}<-;)<_-|---}",
"1$$$$*$^#.$^$$#$2-|:---|--}---'-",
"3$$&+#$^.^$]$/#@!;}-:|-,--}',4'-",
"5$$$$$&/$$+$$@$$6->-,'-,|-----)7",
" $$%$*$$$$&%*$&~1--)-|--,--<-4<;",
"=${$$#~^+$$$/.$.8--->>------:-<-",
"9*~$^$$$#$^$$]$$0--,>)-->-;->:-:",
"($~${{$$@*]%{$$+=')7-,,---->---4",
"3+%$$$]/*$&$$$$$a<}-)''-:---'};-",
"8$$%$@/${$&$#&$.()>74->-,>--:-7-",
"b@$$^$$*@&/#@$.~ ---;4>--_--;_--",
"3*]&$**$&*$$^*#%2-<-'---7--;';--",
" $/$$/#{$$**$#+$8,'7-----,4-4---",
"20c601cd[debdfg(2h925=i!21 0[1ej",
"0-}---,-<---->-43$%$***$$$$^#$#$",
"d,-,-}---7>-----g$$$${$$$$$#$%$@",
"k-:---:7>})}---;3@$*{$~#$$$$*/%#",
"2->--7--4;:-747- .$*+$$${${$$+/$",
"[|-7-|;)--'--'7>c$~${$$&@$#*%$$$",
"5;-:-'--:<-};--)d#%$&#&#%$$$$$##",
"0-7-:--|,---->'-a$$$%${{~.&$#$*%",
"9--7---7,<747;--k~$@@${@{~.{$.*#",
"f;}7')-|-'4-7'-; $$%${/$]^&.{{$#",
"[<44<-7->,-;-'-'=//+$%$$$$$$#./$",
"c--|-<-)4<-'7--76#$$$~$$$$$~&$^{",
"f:--}'---4-})---1*{$+$$]%$^$.^$$",
"j-|----}-',<-_-' $$$%$${$$$/$+#^",
"94<;--,-;,|;-7--!$.$@~${$~+^{$$.",
"!:,-|-;;-----}4-2$$~$+%&$#$$$$$$",
"!8g63h (8ifl23k56!lef 239gbd!l l"};
