/* XPM */
static char * tile_xpm[] = {
"32 32 30 1",
" 	c #535353",
".	c #545454",
"+	c #525252",
"@	c #505050",
"#	c #515151",
"$	c #B6B6B6",
"%	c #B8B8B8",
"&	c #BABABA",
"*	c #BBBBBB",
"=	c #B7B7B7",
"-	c #B2B2B2",
";	c #C0C0C0",
">	c #BEBEBE",
",	c #B9B9B9",
"'	c #BCBCBC",
")	c #B3B3B3",
"!	c #BFBFBF",
"~	c #BDBDBD",
"{	c #B5B5B5",
"]	c #B4B4B4",
"^	c #C1C1C1",
"/	c #B1B1B1",
"(	c #C2C2C2",
"_	c #C4C4C4",
":	c #C5C5C5",
"<	c #C3C3C3",
"[	c #C6C6C6",
"}	c #B0B0B0",
"|	c #AEAEAE",
"1	c #AFAFAF",
" .  +++.+. +@ @+ .@.#@ @ @@+++ @",
"@$%%%&&*==$=-=;**>>,&',,)-)%!>! ",
".~'=*>%*&=%{]&'$&!^!>~'=)/$*^*,#",
"+>~&>&='&''%,&,$&!!*&!',$=%>(',.",
".&!!>*,>>>!~%,>'&&,$&'*{)),;;&]+",
"#!;!!'~!;;>*,~>',%,,%*&]$=*>~=-@",
" ~^~;'~;;!>(~^_'%**'~&''&>((~,)@",
" =~>;>!(:<<<(:_~>!;(^;^~&'(;!>'+",
"+%'>^(([:[[<>!(^*~;;!'!>**'!<!'#",
"+'~>_((^^^__(;;!&*';~~,,&*&&^'$+",
".&>^^_!^(^;>;^>~*=~'&'===,'>*$).",
"#*'~!!>>^>',&&&&&)%&***{),>!',-+",
" ,%&'&&*~>,&,,,{{}]&=*>&$%>(;*{+",
".])%%%%$'!,=$%&&$]{*,&;~%,;(^>= ",
".|)$%,%{,*$'$=,*,,&>!~&,&~;^>!% ",
"+/-{=,%-)$%&'%*>*'%;!~&={**>>;'+",
".${{%,$]=%%,$=,!*%&>'>&{{{*'!!>@",
"@%%$],=&'',,=-=,{{$,&'~*&{%~'>'+",
"#%%=]$,~;~,,$/$*,]-$%,*>'%*>>',+",
"+)$%,'&!^>&~%-$=,])]%%&&*,>>>~'+",
".$%,!(>'&&>~$=,&,=]%==%{%*^>^^>+",
"#%~>!<(*=,**&*>**'*,=$){%&*&><;+",
".'>^'!'~'&%&,'>;>&{-{{{-)${$~>' ",
"+*;>~,*'&=]$=*>*>'{]-{$%)=&*^*,+",
"#'>,'&*%&=$)=&'**>*={*&%,)%;>*=+",
".'%%*,&,$==]{=~>';>**~~*',&>!~&+",
"@&%{%!~*$=={,,,~;^<~&'=&&,,!~;>.",
"#,{/%,*'*~&*%=,;;;>'&*,]{$,~!^(@",
"+]-/{==~!^!~~>>;;''*%&>={$**>;; ",
"+)-/]=%*;:^!~~*~''%,=]=$&&=%*!^.",
"@-1)}$%*'(;**=$,$%${%={&~%,*!;>@",
"@#@+.@ +#@# +.##+@ @# +.+@ @@+. "};
