/* XPM */
static char * tile_checkboard_4_xpm[] = {
"64 64 73 1",
" 	c #1F1F1F",
".	c #DADADA",
"+	c #D7D7D7",
"@	c #D8D8D8",
"#	c #D6D6D6",
"$	c #D9D9D9",
"%	c #E0E0E0",
"&	c #E2E2E2",
"*	c #E1E1E1",
"=	c #DCDCDC",
"-	c #0E0E0E",
";	c #0C0C0C",
">	c #141414",
",	c #0D0D0D",
"'	c #0A0A0A",
")	c #060606",
"!	c #050505",
"~	c #040404",
"{	c #070707",
"]	c #090909",
"^	c #000000",
"/	c #D4D4D4",
"(	c #DBDBDB",
"_	c #DEDEDE",
":	c #E5E5E5",
"<	c #ECECEC",
"[	c #F0F0F0",
"}	c #EEEEEE",
"|	c #E7E7E7",
"1	c #010101",
"2	c #0B0B0B",
"3	c #030303",
"4	c #080808",
"5	c #020202",
"6	c #D5D5D5",
"7	c #DDDDDD",
"8	c #DFDFDF",
"9	c #EDEDED",
"0	c #EBEBEB",
"a	c #E9E9E9",
"b	c #E8E8E8",
"c	c #E3E3E3",
"d	c #E6E6E6",
"e	c #101010",
"f	c #E4E4E4",
"g	c #0F0F0F",
"h	c #111111",
"i	c #121212",
"j	c #131313",
"k	c #EAEAEA",
"l	c #D2D2D2",
"m	c #151515",
"n	c #161616",
"o	c #171717",
"p	c #EFEFEF",
"q	c #F2F2F2",
"r	c #F1F1F1",
"s	c #F5F5F5",
"t	c #F7F7F7",
"u	c #F3F3F3",
"v	c #F4F4F4",
"w	c #FBFBFB",
"x	c #FAFAFA",
"y	c #F8F8F8",
"z	c #F6F6F6",
"A	c #FEFEFE",
"B	c #FDFDFD",
"C	c #D0D0D0",
"D	c #D1D1D1",
"E	c #CCCCCC",
"F	c #D3D3D3",
"G	c #CFCFCF",
"H	c #CDCDCD",
" .+@#.+@$%&*==#@ -;>,'-)'!~){]{^ /(++_(.:<[<::}| 1{2)34~5~{34''4",
" #6#66=$.7|*8=$= ]];,;~4-4){'2~3 ($@+8(&:900ab|: ^)453]35)443)!2",
" (.@+$_&87:77%_% 4;;){13!4-]'2'~ _/++@%:c9bd0bc| {4-)]2{]4]31~~4",
" 878=__:&&(*7%*: 4'2;)532e'4221~ 8.6/+8*f[0b:|&c ]g;hg;g];)!^~33",
" f*d*%%:c8(&(&:d !]-]!43,,{5^)3! (@.=7cfa<9|f*cc g]-hijee-]5!5{~",
" _c:*&a&7.*=*dff 4324{2{2-'~1]5~ @$+(_:abdkd7c7f ;!{{2>hie;)4~~4",
" &ckdkd87@&:dc0d ~{!g;,]!']5{!^1 .@l=88%daf%_%&c ~1~;]mi>>,]4{!{",
" d}<aabff_7*fkc| )4;2']!4'-;4)^) $l$787fcd7*8(:: ])^{;eni2;!'4{2",
" k0b9b:8&_&&ck:* '2],4{!^4{e'42{ 7@.&*c&%&7($@*8 ;4),h>oeg])^{2;",
" &:b0<dffcab0*fc '2,i]!]44g;i,;; 8c*cd:*&*7==(*d ~4)h-jmh;!!13{)",
" 8cc:&9||80k:*c7 ;e>-;],4;ei']{; b|&=*dd&&&*d888 5^{{;ih,g,43]15",
" ((:f:a|9k}<<k:: -egei,i2,>e'25{ |&7(**c8bfa|f8% ]{)-hgie2!)^3~!",
" f&&|dbp9[<}kd|f eih'-,hj;i,{^^) &:_%f%8*fad*b:% ))22-j,;!)^~5!2",
" a0ad<}a[9|db:da 24g)2-2'i-{~!4] %&cc*%%dbdk%|*& 5!;;hmhe]~1)32e",
" da|d<[qbaakdddc 3)!444{']2'3!', f8_&&|c<k:c&*:_ )]'2mjg;4]!'{ge",
"                                                                ",
" !34)){-4]22-'-{ ckdb00akbkp<|0d ',i'e';;))~4'54 7f&c*&&%:7*f*&k",
" ^)3132]'31{2]44 dfab9d0daa9b0a} ;2>mh--]))',3!^ *:|c|d**f&8&bf|",
" !!442]~^3^~;')1 bb0ra0}|bdb}a9p )-gin,-2)^]]!1! _|:ka:ckkb|d8|*",
" ~~]]3{{55!]]{1! 0:<[<k9rb[b0<0} ~]ehnhh44{~-{]' &:|<<dac|0<*%df",
" )'!4^3!{4)-h{)) :kdqprsr}}[r0k[ ]h;jm;-,;;]';4' fk|0}p[}a0ba:0d",
" 4-)41{''4,44e2! ppkqqtst[}}[}rq ghj>ee43]],i-g; dk}pqpu}<a[9ab}",
" ]{{^342;,{)44~{ [[9vswxyyvuz[us ,ijn>-)33~!-hg, drkbqu[v[0}90db",
" 4'~){]22)~11{]! vrqrsAxBtttvsss eg>mj'{~~3]';]4 d0p9<}<}9<a:|k:",
" ^~{!!;,e4{!~{2~ r[z[ytvyzztzz[u i>nmhi],{5]{',- bc|<0p<0qvbbkdb",
" 1{'4e;e-''42';4 r[r[spp<00[rv[[ -mo>hg;';21){g' fcc<<0p99r<:a&a",
" ,-,>;>gh;e]'gh; [<b<ur9<aa[ursv 'gi,jhj;;2)~{{- 7f*|:<9aab<ck:b",
" 2ge-,i>j,')~,h> [[d0}<uq0}9[u9} i;],,mg-;){]422 **daaf0b::&b|fc",
" e,,-ehee]~^~~e2 <0|9p[s0p|kb[pv ;))2-iie2,'];;, fc*fbckk||*:fa:",
" -{{4']i;4{1{);2 <}0}ppv0}<<pd0u !){],h2224{!]h' &%&_bb&9:*8|:c*",
" ;!!5{{];-,4'){] 0k<<[rr<[9b0kk| 2^1],4)!5^^)]]) %@.*|*:ab8_&d%7",
"                                                                ",
" 7:|c::c00aka0k9 4ghi-';g]2;;4!^ *_aad*ff8%f7bd8 3]314{2-e'2)1{5",
" .%ab||&fdf:kfa| ,;,eigi-h,!4!)1 *f_*d%&*8&=8:|= !)43;gge;-!1~{1",
" 77*a|&(%%|cb::b ;'2-eii>')5)]]{ %&7c%c:*d7$$f|= )3){'4g,-2!!~)2",
" 7%ff&78%&7&fc:f ^42hg>2g'~{)))' _%88%cdbf((#7%_ '4)~!]'eheg!];2",
" 778*8%$=*7*:%%c ^!;4i2'-]2)5!,' f7(=_7da87*.8_8 '31]~!4;,g']4)-",
" 7.@@=$=@=8(ffc8 5]{'2)-)34;))2; 7c77&c:d*f(7&f7 '2'!~~3!;2',~3~",
" $7.@.7$_%_&__87 4'4]4]]^3'4)11; (_8%%%|*%:7%c8( 4g',~4!4)3~;{~{",
" =#@@#(7*%%8%*%7 {)4'~4^352;{)34 77.7+7*&dd*::88 ',';)))23~~)~1!",
" 66Cl@@#((_&*f&8 ^^4!!454~;{!3]{ 8(#(.=*%d*:f*_* ,,,]'-')^^)2)2'",
" C/DEC.F.7f_cbc& !^~!]2{!42eg;)~ %(@6=_(&:&bd||_ ')~~~-')31!]g,,",
" FGHGE#$(8$.*|*f ;444,;-]]42h22~ c====78(7d|b:&: 2!)~1){4^{{'-{5",
" @D+/C+$=87_&8&* -],g2-)3!~]2'4~ c7*78_=&8&&a|b| )3344]g4!2-g]4)",
" @/CFl/6.$=.=::f ];2ge]]~33],]2] |dc&%*&ff:bk|cb ~!~;{2h2e'-;;'5",
" (#$$(6+=7_cf&%= !,2,,,4{4!,]h2) _*8d%_7%%f<<aak !~{4]-ggih;2]!^",
" 77(=@.(6__(f|%= 32,;j-',44,;i]! ::%8&_@=7b}k0ka !'3)522,gje'{45",
"                                                                ",
" ]{~]3)!{3')-i]2 @7_=7fffc&f_788 3)){'{;]'2424g- =%_8*fd|&fcc&f:",
" ]4~)~^{^5{{;gh2 .__%ff&%c:**&8* 3~3{'!33,-4]22] #+.__7c7*8cfff0",
" )~))4{)~5~;2--; %=*c8a&|kf&|dcc 3434)5^{2~)-e]{ $(/6===c&c%f(c0",
" 545~){4)'4e;mg; 7&_8fkd||:dcfc% ]{];!)^{!^12;;2 @=/6=8%%87**f|d",
" {!!5~2]he;h;ge- .88ddb9p<|&:d*_ 22!3{'~2))5!2i' (66l$(888_&*%8f",
" !1])''egig,-,i; $f|bab<9r0a:*&= ;)4)))g)443]i-e $@6/.(8$=8(_%&b",
" !4!{-',,;;2!{g, **::0k9a<a:*_7= 333!5]2-{'';2-h =#F#67(#$%*77%8",
" 4{]'gh]44~!!{;g 8*f|d:}pddak%8. 1^!33{h-,24~]{2 &(F#($.67c_%7=&",
" ~)2';4,~^4)5)); *%ba}<9[90d|f%8 ]{);2]-{';5{))! 7.#6@=#+#8&%7c|",
" ^{2~'4!5134~)-e f*k<[a|<}0|bkfd -{{{;)!!24~^!^' 8$/$/((.@77_(8|",
" {)~)142'~22{;'i :|:abd|ck:|0afd ,~^^]~!^1'^31!' ((@(#_8=$(___&f",
" ]]~3532,4{eee-> dc:*c*%&d&bdkdb 2!^)~5)3!3^31~~ =$$_=(.78(@((7&",
" ;4]!{){,2;h,mj> d||=c$7%=c&8&:| )411{3)4!^3~^~^ =&d&&*%:%(7@7_&",
" j;4{-4;emgohon- }|::88_%*_&88&& 14)3']4;53]~)!' %*c%:*8*__.._$.",
" 'ige2ege>ijhh-i bb|dc%8c&_8c|*& !{,-')));33{;,4 *&d8fccfc&&_#@+",
"                                                                "};
